UthiraS/rtde-2.8/rtde/csv files/robot_data.csv
timestamp target_q_0 target_q_1 target_q_2 target_q_3 target_q_4 target_q_5 target_qd_0 target_qd_1 target_qd_2 target_qd_3 target_qd_4 target_qd_5 target_qdd_0 target_qdd_1 target_qdd_2 target_qdd_3 target_qdd_4 target_qdd_5 target_current_0 target_current_1 target_current_2 target_current_3 target_current_4 target_current_5 target_moment_0 target_moment_1 target_moment_2 target_moment_3 target_moment_4 target_moment_5 actual_q_0 actual_q_1 actual_q_2 actual_q_3 actual_q_4 actual_q_5 actual_qd_0 actual_qd_1 actual_qd_2 actual_qd_3 actual_qd_4 actual_qd_5 actual_current_0 actual_current_1 actual_current_2 actual_current_3 actual_current_4 actual_current_5 joint_control_output_0 joint_control_output_1 joint_control_output_2 joint_control_output_3 joint_control_output_4 joint_control_output_5 actual_TCP_pose_0 actual_TCP_pose_1 actual_TCP_pose_2 actual_TCP_pose_3 actual_TCP_pose_4 actual_TCP_pose_5 actual_TCP_speed_0 actual_TCP_speed_1 actual_TCP_speed_2 actual_TCP_speed_3 actual_TCP_speed_4 actual_TCP_speed_5 actual_TCP_force_0 actual_TCP_force_1 actual_TCP_force_2 actual_TCP_force_3 actual_TCP_force_4 actual_TCP_force_5 target_TCP_pose_0 target_TCP_pose_1 target_TCP_pose_2 target_TCP_pose_3 target_TCP_pose_4 target_TCP_pose_5 target_TCP_speed_0 target_TCP_speed_1 target_TCP_speed_2 target_TCP_speed_3 target_TCP_speed_4 target_TCP_speed_5 actual_digital_input_bits joint_temperatures_0 joint_temperatures_1 joint_temperatures_2 joint_temperatures_3 joint_temperatures_4 joint_temperatures_5 actual_execution_time robot_mode joint_mode_0 joint_mode_1 joint_mode_2 joint_mode_3 joint_mode_4 joint_mode_5 safety_mode actual_tool_accelerometer_0 actual_tool_accelerometer_1 actual_tool_accelerometer_2 speed_scaling target_speed_fraction actual_momentum actual_main_voltage actual_robot_voltage actual_robot_current actual_joint_voltage_0 actual_joint_voltage_1 actual_joint_voltage_2 actual_joint_voltage_3 actual_joint_voltage_4 actual_joint_voltage_5 actual_digital_output_bits runtime_state
311.834 -1.580784545402632 -1.8467629753013064 -1.967103506070437 -1.2065908317885636 1.5643555725490146 -0.0058283296939523055 0.0 0.0 0.0 0.0 0.0 0.0 0.0 0.0 0.0 0.0 0.0 0.0 3.242333525299308e-17 2.7472729469470933 1.6124396717614946 0.20210212916279716 -0.0004433664631237486 0.0 3.219806440432234e-16 27.281854439662943 16.0123676341003 1.5707276427468015 -0.003445821983074618 0.0 -1.580784545402632 -1.8467629753013064 -1.967103506070437 -1.2065908317885636 1.5643555725490146 -0.0058283296939523055 0.0 0.0 0.0 0.0 0.0 0.0 3.242333525299308e-17 2.7472729469470933 1.6124396717614946 0.20210212916279716 -0.0004433664631237486 0.0 3.242333525299308e-17 2.7472729469470933 1.6124396717614946 0.20210212916279716 -0.0004433664631237486 0.0 -0.13880368290309342 -0.4861072195867951 0.20203002553360788 -0.004898576389600767 -3.1004921576356095 -0.4814594871319443 0.0 0.0 0.0 0.0 0.0 0.0 0.0 0.0 0.0 0.0 0.0 0.0 -0.13880368290309342 -0.4861072195867951 0.20203002553360788 -0.004898576389600767 -3.1004921576356095 -0.4814594871319443 0.0 0.0 0.0 0.0 0.0 0.0 0 25.5 25.0 24.5 24.0 23.5 23.5 0.628961 7 253 253 253 253 253 253 1 0.042914737479316616 2.977906143693819 -9.35749076006264 1.0 1.0 0.0 48.0 48.0 0.0 0.0 0.0 0.0 0.0 0.0 0.0 0 2
311.842 -1.580784545402632 -1.8467629753013064 -1.967103506070437 -1.2065908317885636 1.5643555725490146 -0.0058283296939523055 0.0 0.0 0.0 0.0 0.0 0.0 0.0 0.0 0.0 0.0 0.0 0.0 3.242333525299308e-17 2.7472729469470933 1.6124396717614946 0.20210212916279716 -0.0004433664631237486 0.0 3.219806440432234e-16 27.281854439662943 16.0123676341003 1.5707276427468015 -0.003445821983074618 0.0 -1.580784545402632 -1.8467629753013064 -1.967103506070437 -1.2065908317885636 1.5643555725490146 -0.0058283296939523055 0.0 0.0 0.0 0.0 0.0 0.0 3.242333525299308e-17 2.7472729469470933 1.6124396717614946 0.20210212916279716 -0.0004433664631237486 0.0 3.242333525299308e-17 2.7472729469470933 1.6124396717614946 0.20210212916279716 -0.0004433664631237486 0.0 -0.13880368290309342 -0.4861072195867951 0.20203002553360788 -0.004898576389600767 -3.1004921576356095 -0.4814594871319443 0.0 0.0 0.0 0.0 0.0 0.0 0.0 0.0 0.0 0.0 0.0 0.0 -0.13880368290309342 -0.4861072195867951 0.20203002553360788 -0.004898576389600767 -3.1004921576356095 -0.4814594871319443 0.0 0.0 0.0 0.0 0.0 0.0 0 25.5 25.0 24.5 24.0 23.5 23.5 0.474421 7 253 253 253 253 253 253 1 0.042914737479316616 2.977906143693819 -9.35749076006264 1.0 1.0 0.0 48.0 48.0 0.0 0.0 0.0 0.0 0.0 0.0 0.0 0 2
311.84999999999997 -1.580784545402632 -1.8467629753013064 -1.967103506070437 -1.2065908317885636 1.5643555725490146 -0.0058283296939523055 0.0 0.0 0.0 0.0 0.0 0.0 0.0 0.0 0.0 0.0 0.0 0.0 3.242333525299308e-17 2.7472729469470933 1.6124396717614946 0.20210212916279716 -0.0004433664631237486 0.0 3.219806440432234e-16 27.281854439662943 16.0123676341003 1.5707276427468015 -0.003445821983074618 0.0 -1.580784545402632 -1.8467629753013064 -1.967103506070437 -1.2065908317885636 1.5643555725490146 -0.0058283296939523055 0.0 0.0 0.0 0.0 0.0 0.0 3.242333525299308e-17 2.7472729469470933 1.6124396717614946 0.20210212916279716 -0.0004433664631237486 0.0 3.242333525299308e-17 2.7472729469470933 1.6124396717614946 0.20210212916279716 -0.0004433664631237486 0.0 -0.13880368290309342 -0.4861072195867951 0.20203002553360788 -0.004898576389600767 -3.1004921576356095 -0.4814594871319443 0.0 0.0 0.0 0.0 0.0 0.0 0.0 0.0 0.0 0.0 0.0 0.0 -0.13880368290309342 -0.4861072195867951 0.20203002553360788 -0.004898576389600767 -3.1004921576356095 -0.4814594871319443 0.0 0.0 0.0 0.0 0.0 0.0 0 25.5 25.0 24.5 24.0 23.5 23.5 0.417483 7 253 253 253 253 253 253 1 0.042914737479316616 2.977906143693819 -9.35749076006264 1.0 1.0 0.0 48.0 48.0 0.0 0.0 0.0 0.0 0.0 0.0 0.0 0 2
311.858 -1.580784545402632 -1.8467629753013064 -1.967103506070437 -1.2065908317885636 1.5643555725490146 -0.0058283296939523055 0.0 0.0 0.0 0.0 0.0 0.0 0.0 0.0 0.0 0.0 0.0 0.0 3.242333525299308e-17 2.7472729469470933 1.6124396717614946 0.20210212916279716 -0.0004433664631237486 0.0 3.219806440432234e-16 27.281854439662943 16.0123676341003 1.5707276427468015 -0.003445821983074618 0.0 -1.580784545402632 -1.8467629753013064 -1.967103506070437 -1.2065908317885636 1.5643555725490146 -0.0058283296939523055 0.0 0.0 0.0 0.0 0.0 0.0 3.242333525299308e-17 2.7472729469470933 1.6124396717614946 0.20210212916279716 -0.0004433664631237486 0.0 3.242333525299308e-17 2.7472729469470933 1.6124396717614946 0.20210212916279716 -0.0004433664631237486 0.0 -0.13880368290309342 -0.4861072195867951 0.20203002553360788 -0.004898576389600767 -3.1004921576356095 -0.4814594871319443 0.0 0.0 0.0 0.0 0.0 0.0 0.0 0.0 0.0 0.0 0.0 0.0 -0.13880368290309342 -0.4861072195867951 0.20203002553360788 -0.004898576389600767 -3.1004921576356095 -0.4814594871319443 0.0 0.0 0.0 0.0 0.0 0.0 0 25.5 25.0 24.5 24.0 23.5 23.5 0.303577 7 253 253 253 253 253 253 1 0.042914737479316616 2.977906143693819 -9.35749076006264 1.0 1.0 0.0 48.0 48.0 0.0 0.0 0.0 0.0 0.0 0.0 0.0 0 2
311.866 -1.580784545402632 -1.8467629753013064 -1.967103506070437 -1.2065908317885636 1.5643555725490146 -0.0058283296939523055 0.0 0.0 0.0 0.0 0.0 0.0 0.0 0.0 0.0 0.0 0.0 0.0 3.242333525299308e-17 2.7472729469470933 1.6124396717614946 0.20210212916279716 -0.0004433664631237486 0.0 3.219806440432234e-16 27.281854439662943 16.0123676341003 1.5707276427468015 -0.003445821983074618 0.0 -1.580784545402632 -1.8467629753013064 -1.967103506070437 -1.2065908317885636 1.5643555725490146 -0.0058283296939523055 0.0 0.0 0.0 0.0 0.0 0.0 3.242333525299308e-17 2.7472729469470933 1.6124396717614946 0.20210212916279716 -0.0004433664631237486 0.0 3.242333525299308e-17 2.7472729469470933 1.6124396717614946 0.20210212916279716 -0.0004433664631237486 0.0 -0.13880368290309342 -0.4861072195867951 0.20203002553360788 -0.004898576389600767 -3.1004921576356095 -0.4814594871319443 0.0 0.0 0.0 0.0 0.0 0.0 0.0 0.0 0.0 0.0 0.0 0.0 -0.13880368290309342 -0.4861072195867951 0.20203002553360788 -0.004898576389600767 -3.1004921576356095 -0.4814594871319443 0.0 0.0 0.0 0.0 0.0 0.0 0 25.5 25.0 24.5 24.0 23.5 23.5 0.21980699999999997 7 253 253 253 253 253 253 1 0.042914737479316616 2.977906143693819 -9.35749076006264 1.0 1.0 0.0 48.0 48.0 0.0 0.0 0.0 0.0 0.0 0.0 0.0 0 2
311.87399999999997 -1.580784545402632 -1.8467629753013064 -1.967103506070437 -1.2065908317885636 1.5643555725490146 -0.0058283296939523055 0.0 0.0 0.0 0.0 0.0 0.0 0.0 0.0 0.0 0.0 0.0 0.0 3.242333525299308e-17 2.7472729469470933 1.6124396717614946 0.20210212916279716 -0.0004433664631237486 0.0 3.219806440432234e-16 27.281854439662943 16.0123676341003 1.5707276427468015 -0.003445821983074618 0.0 -1.580784545402632 -1.8467629753013064 -1.967103506070437 -1.2065908317885636 1.5643555725490146 -0.0058283296939523055 0.0 0.0 0.0 0.0 0.0 0.0 3.242333525299308e-17 2.7472729469470933 1.6124396717614946 0.20210212916279716 -0.0004433664631237486 0.0 3.242333525299308e-17 2.7472729469470933 1.6124396717614946 0.20210212916279716 -0.0004433664631237486 0.0 -0.13880368290309342 -0.4861072195867951 0.20203002553360788 -0.004898576389600767 -3.1004921576356095 -0.4814594871319443 0.0 0.0 0.0 0.0 0.0 0.0 0.0 0.0 0.0 0.0 0.0 0.0 -0.13880368290309342 -0.4861072195867951 0.20203002553360788 -0.004898576389600767 -3.1004921576356095 -0.4814594871319443 0.0 0.0 0.0 0.0 0.0 0.0 0 25.5 25.0 24.5 24.0 23.5 23.5 0.176727 7 253 253 253 253 253 253 1 0.042914737479316616 2.977906143693819 -9.35749076006264 1.0 1.0 0.0 48.0 48.0 0.0 0.0 0.0 0.0 0.0 0.0 0.0 0 2
311.882 -1.580784545402632 -1.8467629753013064 -1.967103506070437 -1.2065908317885636 1.5643555725490146 -0.0058283296939523055 0.0 0.0 0.0 0.0 0.0 0.0 0.0 0.0 0.0 0.0 0.0 0.0 3.242333525299308e-17 2.7472729469470933 1.6124396717614946 0.20210212916279716 -0.0004433664631237486 0.0 3.219806440432234e-16 27.281854439662943 16.0123676341003 1.5707276427468015 -0.003445821983074618 0.0 -1.580784545402632 -1.8467629753013064 -1.967103506070437 -1.2065908317885636 1.5643555725490146 -0.0058283296939523055 0.0 0.0 0.0 0.0 0.0 0.0 3.242333525299308e-17 2.7472729469470933 1.6124396717614946 0.20210212916279716 -0.0004433664631237486 0.0 3.242333525299308e-17 2.7472729469470933 1.6124396717614946 0.20210212916279716 -0.0004433664631237486 0.0 -0.13880368290309342 -0.4861072195867951 0.20203002553360788 -0.004898576389600767 -3.1004921576356095 -0.4814594871319443 0.0 0.0 0.0 0.0 0.0 0.0 0.0 0.0 0.0 0.0 0.0 0.0 -0.13880368290309342 -0.4861072195867951 0.20203002553360788 -0.004898576389600767 -3.1004921576356095 -0.4814594871319443 0.0 0.0 0.0 0.0 0.0 0.0 0 25.5 25.0 24.5 24.0 23.5 23.5 0.270339 7 253 253 253 253 253 253 1 0.042914737479316616 2.977906143693819 -9.35749076006264 1.0 1.0 0.0 48.0 48.0 0.0 0.0 0.0 0.0 0.0 0.0 0.0 0 2
311.89 -1.580784545402632 -1.8467629753013064 -1.967103506070437 -1.2065908317885636 1.5643555725490146 -0.0058283296939523055 0.0 0.0 0.0 0.0 0.0 0.0 0.0 0.0 0.0 0.0 0.0 0.0 3.242333525299308e-17 2.7472729469470933 1.6124396717614946 0.20210212916279716 -0.0004433664631237486 0.0 3.219806440432234e-16 27.281854439662943 16.0123676341003 1.5707276427468015 -0.003445821983074618 0.0 -1.580784545402632 -1.8467629753013064 -1.967103506070437 -1.2065908317885636 1.5643555725490146 -0.0058283296939523055 0.0 0.0 0.0 0.0 0.0 0.0 3.242333525299308e-17 2.7472729469470933 1.6124396717614946 0.20210212916279716 -0.0004433664631237486 0.0 3.242333525299308e-17 2.7472729469470933 1.6124396717614946 0.20210212916279716 -0.0004433664631237486 0.0 -0.13880368290309342 -0.4861072195867951 0.20203002553360788 -0.004898576389600767 -3.1004921576356095 -0.4814594871319443 0.0 0.0 0.0 0.0 0.0 0.0 0.0 0.0 0.0 0.0 0.0 0.0 -0.13880368290309342 -0.4861072195867951 0.20203002553360788 -0.004898576389600767 -3.1004921576356095 -0.4814594871319443 0.0 0.0 0.0 0.0 0.0 0.0 0 25.5 25.0 24.5 24.0 23.5 23.5 0.179634 7 253 253 253 253 253 253 1 0.042914737479316616 2.977906143693819 -9.35749076006264 1.0 1.0 0.0 48.0 48.0 0.0 0.0 0.0 0.0 0.0 0.0 0.0 0 2
311.89799999999997 -1.580784545402632 -1.8467629753013064 -1.967103506070437 -1.2065908317885636 1.5643555725490146 -0.0058283296939523055 0.0 0.0 0.0 0.0 0.0 0.0 0.0 0.0 0.0 0.0 0.0 0.0 3.242333525299308e-17 2.7472729469470933 1.6124396717614946 0.20210212916279716 -0.0004433664631237486 0.0 3.219806440432234e-16 27.281854439662943 16.0123676341003 1.5707276427468015 -0.003445821983074618 0.0 -1.580784545402632 -1.8467629753013064 -1.967103506070437 -1.2065908317885636 1.5643555725490146 -0.0058283296939523055 0.0 0.0 0.0 0.0 0.0 0.0 3.242333525299308e-17 2.7472729469470933 1.6124396717614946 0.20210212916279716 -0.0004433664631237486 0.0 3.242333525299308e-17 2.7472729469470933 1.6124396717614946 0.20210212916279716 -0.0004433664631237486 0.0 -0.13880368290309342 -0.4861072195867951 0.20203002553360788 -0.004898576389600767 -3.1004921576356095 -0.4814594871319443 0.0 0.0 0.0 0.0 0.0 0.0 0.0 0.0 0.0 0.0 0.0 0.0 -0.13880368290309342 -0.4861072195867951 0.20203002553360788 -0.004898576389600767 -3.1004921576356095 -0.4814594871319443 0.0 0.0 0.0 0.0 0.0 0.0 0 25.5 25.0 24.5 24.0 23.5 23.5 0.413207 7 253 253 253 253 253 253 1 0.042914737479316616 2.977906143693819 -9.35749076006264 1.0 1.0 0.0 48.0 48.0 0.0 0.0 0.0 0.0 0.0 0.0 0.0 0 2
311.906 -1.580784545402632 -1.8467629753013064 -1.967103506070437 -1.2065908317885636 1.5643555725490146 -0.0058283296939523055 0.0 0.0 0.0 0.0 0.0 0.0 0.0 0.0 0.0 0.0 0.0 0.0 3.242333525299308e-17 2.7472729469470933 1.6124396717614946 0.20210212916279716 -0.0004433664631237486 0.0 3.219806440432234e-16 27.281854439662943 16.0123676341003 1.5707276427468015 -0.003445821983074618 0.0 -1.580784545402632 -1.8467629753013064 -1.967103506070437 -1.2065908317885636 1.5643555725490146 -0.0058283296939523055 0.0 0.0 0.0 0.0 0.0 0.0 3.242333525299308e-17 2.7472729469470933 1.6124396717614946 0.20210212916279716 -0.0004433664631237486 0.0 3.242333525299308e-17 2.7472729469470933 1.6124396717614946 0.20210212916279716 -0.0004433664631237486 0.0 -0.13880368290309342 -0.4861072195867951 0.20203002553360788 -0.004898576389600767 -3.1004921576356095 -0.4814594871319443 0.0 0.0 0.0 0.0 0.0 0.0 0.0 0.0 0.0 0.0 0.0 0.0 -0.13880368290309342 -0.4861072195867951 0.20203002553360788 -0.004898576389600767 -3.1004921576356095 -0.4814594871319443 0.0 0.0 0.0 0.0 0.0 0.0 0 25.5 25.0 24.5 24.0 23.5 23.5 0.6045069999999999 7 253 253 253 253 253 253 1 0.042914737479316616 2.977906143693819 -9.35749076006264 1.0 1.0 0.0 48.0 48.0 0.0 0.0 0.0 0.0 0.0 0.0 0.0 0 2
311.914 -1.580784545402632 -1.8467629753013064 -1.967103506070437 -1.2065908317885636 1.5643555725490146 -0.0058283296939523055 0.0 0.0 0.0 0.0 0.0 0.0 0.0 0.0 0.0 0.0 0.0 0.0 3.242333525299308e-17 2.7472729469470933 1.6124396717614946 0.20210212916279716 -0.0004433664631237486 0.0 3.219806440432234e-16 27.281854439662943 16.0123676341003 1.5707276427468015 -0.003445821983074618 0.0 -1.580784545402632 -1.8467629753013064 -1.967103506070437 -1.2065908317885636 1.5643555725490146 -0.0058283296939523055 0.0 0.0 0.0 0.0 0.0 0.0 3.242333525299308e-17 2.7472729469470933 1.6124396717614946 0.20210212916279716 -0.0004433664631237486 0.0 3.242333525299308e-17 2.7472729469470933 1.6124396717614946 0.20210212916279716 -0.0004433664631237486 0.0 -0.13880368290309342 -0.4861072195867951 0.20203002553360788 -0.004898576389600767 -3.1004921576356095 -0.4814594871319443 0.0 0.0 0.0 0.0 0.0 0.0 0.0 0.0 0.0 0.0 0.0 0.0 -0.13880368290309342 -0.4861072195867951 0.20203002553360788 -0.004898576389600767 -3.1004921576356095 -0.4814594871319443 0.0 0.0 0.0 0.0 0.0 0.0 0 25.5 25.0 24.5 24.0 23.5 23.5 0.41463 7 253 253 253 253 253 253 1 0.042914737479316616 2.977906143693819 -9.35749076006264 1.0 1.0 0.0 48.0 48.0 0.0 0.0 0.0 0.0 0.0 0.0 0.0 0 2
311.92199999999997 -1.580784545402632 -1.8467629753013064 -1.967103506070437 -1.2065908317885636 1.5643555725490146 -0.0058283296939523055 0.0 0.0 0.0 0.0 0.0 0.0 0.0 0.0 0.0 0.0 0.0 0.0 3.242333525299308e-17 2.7472729469470933 1.6124396717614946 0.20210212916279716 -0.0004433664631237486 0.0 3.219806440432234e-16 27.281854439662943 16.0123676341003 1.5707276427468015 -0.003445821983074618 0.0 -1.580784545402632 -1.8467629753013064 -1.967103506070437 -1.2065908317885636 1.5643555725490146 -0.0058283296939523055 0.0 0.0 0.0 0.0 0.0 0.0 3.242333525299308e-17 2.7472729469470933 1.6124396717614946 0.20210212916279716 -0.0004433664631237486 0.0 3.242333525299308e-17 2.7472729469470933 1.6124396717614946 0.20210212916279716 -0.0004433664631237486 0.0 -0.13880368290309342 -0.4861072195867951 0.20203002553360788 -0.004898576389600767 -3.1004921576356095 -0.4814594871319443 0.0 0.0 0.0 0.0 0.0 0.0 0.0 0.0 0.0 0.0 0.0 0.0 -0.13880368290309342 -0.4861072195867951 0.20203002553360788 -0.004898576389600767 -3.1004921576356095 -0.4814594871319443 0.0 0.0 0.0 0.0 0.0 0.0 0 25.5 25.0 24.5 24.0 23.5 23.5 0.448692 7 253 253 253 253 253 253 1 0.042914737479316616 2.977906143693819 -9.35749076006264 1.0 1.0 0.0 48.0 48.0 0.0 0.0 0.0 0.0 0.0 0.0 0.0 0 2
311.93 -1.580784545402632 -1.8467629753013064 -1.967103506070437 -1.2065908317885636 1.5643555725490146 -0.0058283296939523055 0.0 0.0 0.0 0.0 0.0 0.0 0.0 0.0 0.0 0.0 0.0 0.0 3.242333525299308e-17 2.7472729469470933 1.6124396717614946 0.20210212916279716 -0.0004433664631237486 0.0 3.219806440432234e-16 27.281854439662943 16.0123676341003 1.5707276427468015 -0.003445821983074618 0.0 -1.580784545402632 -1.8467629753013064 -1.967103506070437 -1.2065908317885636 1.5643555725490146 -0.0058283296939523055 0.0 0.0 0.0 0.0 0.0 0.0 3.242333525299308e-17 2.7472729469470933 1.6124396717614946 0.20210212916279716 -0.0004433664631237486 0.0 3.242333525299308e-17 2.7472729469470933 1.6124396717614946 0.20210212916279716 -0.0004433664631237486 0.0 -0.13880368290309342 -0.4861072195867951 0.20203002553360788 -0.004898576389600767 -3.1004921576356095 -0.4814594871319443 0.0 0.0 0.0 0.0 0.0 0.0 0.0 0.0 0.0 0.0 0.0 0.0 -0.13880368290309342 -0.4861072195867951 0.20203002553360788 -0.004898576389600767 -3.1004921576356095 -0.4814594871319443 0.0 0.0 0.0 0.0 0.0 0.0 0 25.5 25.0 24.5 24.0 23.5 23.5 0.421771 7 253 253 253 253 253 253 1 0.042914737479316616 2.977906143693819 -9.35749076006264 1.0 1.0 0.0 48.0 48.0 0.0 0.0 0.0 0.0 0.0 0.0 0.0 0 2
311.938 -1.580784545402632 -1.8467629753013064 -1.967103506070437 -1.2065908317885636 1.5643555725490146 -0.0058283296939523055 0.0 0.0 0.0 0.0 0.0 0.0 0.0 0.0 0.0 0.0 0.0 0.0 3.242333525299308e-17 2.7472729469470933 1.6124396717614946 0.20210212916279716 -0.0004433664631237486 0.0 3.219806440432234e-16 27.281854439662943 16.0123676341003 1.5707276427468015 -0.003445821983074618 0.0 -1.580784545402632 -1.8467629753013064 -1.967103506070437 -1.2065908317885636 1.5643555725490146 -0.0058283296939523055 0.0 0.0 0.0 0.0 0.0 0.0 3.242333525299308e-17 2.7472729469470933 1.6124396717614946 0.20210212916279716 -0.0004433664631237486 0.0 3.242333525299308e-17 2.7472729469470933 1.6124396717614946 0.20210212916279716 -0.0004433664631237486 0.0 -0.13880368290309342 -0.4861072195867951 0.20203002553360788 -0.004898576389600767 -3.1004921576356095 -0.4814594871319443 0.0 0.0 0.0 0.0 0.0 0.0 0.0 0.0 0.0 0.0 0.0 0.0 -0.13880368290309342 -0.4861072195867951 0.20203002553360788 -0.004898576389600767 -3.1004921576356095 -0.4814594871319443 0.0 0.0 0.0 0.0 0.0 0.0 0 25.5 25.0 24.5 24.0 23.5 23.5 0.422435 7 253 253 253 253 253 253 1 0.042914737479316616 2.977906143693819 -9.35749076006264 1.0 1.0 0.0 48.0 48.0 0.0 0.0 0.0 0.0 0.0 0.0 0.0 0 2
311.94599999999997 -1.580784545402632 -1.8467629753013064 -1.967103506070437 -1.2065908317885636 1.5643555725490146 -0.0058283296939523055 0.0 0.0 0.0 0.0 0.0 0.0 0.0 0.0 0.0 0.0 0.0 0.0 3.242333525299308e-17 2.7472729469470933 1.6124396717614946 0.20210212916279716 -0.0004433664631237486 0.0 3.219806440432234e-16 27.281854439662943 16.0123676341003 1.5707276427468015 -0.003445821983074618 0.0 -1.580784545402632 -1.8467629753013064 -1.967103506070437 -1.2065908317885636 1.5643555725490146 -0.0058283296939523055 0.0 0.0 0.0 0.0 0.0 0.0 3.242333525299308e-17 2.7472729469470933 1.6124396717614946 0.20210212916279716 -0.0004433664631237486 0.0 3.242333525299308e-17 2.7472729469470933 1.6124396717614946 0.20210212916279716 -0.0004433664631237486 0.0 -0.13880368290309342 -0.4861072195867951 0.20203002553360788 -0.004898576389600767 -3.1004921576356095 -0.4814594871319443 0.0 0.0 0.0 0.0 0.0 0.0 0.0 0.0 0.0 0.0 0.0 0.0 -0.13880368290309342 -0.4861072195867951 0.20203002553360788 -0.004898576389600767 -3.1004921576356095 -0.4814594871319443 0.0 0.0 0.0 0.0 0.0 0.0 0 25.5 25.0 24.5 24.0 23.5 23.5 0.311651 7 253 253 253 253 253 253 1 0.042914737479316616 2.977906143693819 -9.35749076006264 1.0 1.0 0.0 48.0 48.0 0.0 0.0 0.0 0.0 0.0 0.0 0.0 0 2
311.954 -1.580784545402632 -1.8467629753013064 -1.967103506070437 -1.2065908317885636 1.5643555725490146 -0.0058283296939523055 0.0 0.0 0.0 0.0 0.0 0.0 0.0 0.0 0.0 0.0 0.0 0.0 3.242333525299308e-17 2.7472729469470933 1.6124396717614946 0.20210212916279716 -0.0004433664631237486 0.0 3.219806440432234e-16 27.281854439662943 16.0123676341003 1.5707276427468015 -0.003445821983074618 0.0 -1.580784545402632 -1.8467629753013064 -1.967103506070437 -1.2065908317885636 1.5643555725490146 -0.0058283296939523055 0.0 0.0 0.0 0.0 0.0 0.0 3.242333525299308e-17 2.7472729469470933 1.6124396717614946 0.20210212916279716 -0.0004433664631237486 0.0 3.242333525299308e-17 2.7472729469470933 1.6124396717614946 0.20210212916279716 -0.0004433664631237486 0.0 -0.13880368290309342 -0.4861072195867951 0.20203002553360788 -0.004898576389600767 -3.1004921576356095 -0.4814594871319443 0.0 0.0 0.0 0.0 0.0 0.0 0.0 0.0 0.0 0.0 0.0 0.0 -0.13880368290309342 -0.4861072195867951 0.20203002553360788 -0.004898576389600767 -3.1004921576356095 -0.4814594871319443 0.0 0.0 0.0 0.0 0.0 0.0 0 25.5 25.0 24.5 24.0 23.5 23.5 0.402144 7 253 253 253 253 253 253 1 0.042914737479316616 2.977906143693819 -9.35749076006264 1.0 1.0 0.0 48.0 48.0 0.0 0.0 0.0 0.0 0.0 0.0 0.0 0 2
311.962 -1.580784545402632 -1.8467629753013064 -1.967103506070437 -1.2065908317885636 1.5643555725490146 -0.0058283296939523055 0.0 0.0 0.0 0.0 0.0 0.0 0.0 0.0 0.0 0.0 0.0 0.0 3.242333525299308e-17 2.7472729469470933 1.6124396717614946 0.20210212916279716 -0.0004433664631237486 0.0 3.219806440432234e-16 27.281854439662943 16.0123676341003 1.5707276427468015 -0.003445821983074618 0.0 -1.580784545402632 -1.8467629753013064 -1.967103506070437 -1.2065908317885636 1.5643555725490146 -0.0058283296939523055 0.0 0.0 0.0 0.0 0.0 0.0 3.242333525299308e-17 2.7472729469470933 1.6124396717614946 0.20210212916279716 -0.0004433664631237486 0.0 3.242333525299308e-17 2.7472729469470933 1.6124396717614946 0.20210212916279716 -0.0004433664631237486 0.0 -0.13880368290309342 -0.4861072195867951 0.20203002553360788 -0.004898576389600767 -3.1004921576356095 -0.4814594871319443 0.0 0.0 0.0 0.0 0.0 0.0 0.0 0.0 0.0 0.0 0.0 0.0 -0.13880368290309342 -0.4861072195867951 0.20203002553360788 -0.004898576389600767 -3.1004921576356095 -0.4814594871319443 0.0 0.0 0.0 0.0 0.0 0.0 0 25.5 25.0 24.5 24.0 23.5 23.5 0.39882799999999996 7 253 253 253 253 253 253 1 0.042914737479316616 2.977906143693819 -9.35749076006264 1.0 1.0 0.0 48.0 48.0 0.0 0.0 0.0 0.0 0.0 0.0 0.0 0 2
311.96999999999997 -1.580784545402632 -1.8467629753013064 -1.967103506070437 -1.2065908317885636 1.5643555725490146 -0.0058283296939523055 0.0 0.0 0.0 0.0 0.0 0.0 0.0 0.0 0.0 0.0 0.0 0.0 3.242333525299308e-17 2.7472729469470933 1.6124396717614946 0.20210212916279716 -0.0004433664631237486 0.0 3.219806440432234e-16 27.281854439662943 16.0123676341003 1.5707276427468015 -0.003445821983074618 0.0 -1.580784545402632 -1.8467629753013064 -1.967103506070437 -1.2065908317885636 1.5643555725490146 -0.0058283296939523055 0.0 0.0 0.0 0.0 0.0 0.0 3.242333525299308e-17 2.7472729469470933 1.6124396717614946 0.20210212916279716 -0.0004433664631237486 0.0 3.242333525299308e-17 2.7472729469470933 1.6124396717614946 0.20210212916279716 -0.0004433664631237486 0.0 -0.13880368290309342 -0.4861072195867951 0.20203002553360788 -0.004898576389600767 -3.1004921576356095 -0.4814594871319443 0.0 0.0 0.0 0.0 0.0 0.0 0.0 0.0 0.0 0.0 0.0 0.0 -0.13880368290309342 -0.4861072195867951 0.20203002553360788 -0.004898576389600767 -3.1004921576356095 -0.4814594871319443 0.0 0.0 0.0 0.0 0.0 0.0 0 25.5 25.0 24.5 24.0 23.5 23.5 0.224376 7 253 253 253 253 253 253 1 0.042914737479316616 2.977906143693819 -9.35749076006264 1.0 1.0 0.0 48.0 48.0 0.0 0.0 0.0 0.0 0.0 0.0 0.0 0 2
311.978 -1.580784545402632 -1.8467629753013064 -1.967103506070437 -1.2065908317885636 1.5643555725490146 -0.0058283296939523055 0.0 0.0 0.0 0.0 0.0 0.0 0.0 0.0 0.0 0.0 0.0 0.0 3.242333525299308e-17 2.7472729469470933 1.6124396717614946 0.20210212916279716 -0.0004433664631237486 0.0 3.219806440432234e-16 27.281854439662943 16.0123676341003 1.5707276427468015 -0.003445821983074618 0.0 -1.580784545402632 -1.8467629753013064 -1.967103506070437 -1.2065908317885636 1.5643555725490146 -0.0058283296939523055 0.0 0.0 0.0 0.0 0.0 0.0 3.242333525299308e-17 2.7472729469470933 1.6124396717614946 0.20210212916279716 -0.0004433664631237486 0.0 3.242333525299308e-17 2.7472729469470933 1.6124396717614946 0.20210212916279716 -0.0004433664631237486 0.0 -0.13880368290309342 -0.4861072195867951 0.20203002553360788 -0.004898576389600767 -3.1004921576356095 -0.4814594871319443 0.0 0.0 0.0 0.0 0.0 0.0 0.0 0.0 0.0 0.0 0.0 0.0 -0.13880368290309342 -0.4861072195867951 0.20203002553360788 -0.004898576389600767 -3.1004921576356095 -0.4814594871319443 0.0 0.0 0.0 0.0 0.0 0.0 0 25.5 25.0 24.5 24.0 23.5 23.5 0.183965 7 253 253 253 253 253 253 1 0.042914737479316616 2.977906143693819 -9.35749076006264 1.0 1.0 0.0 48.0 48.0 0.0 0.0 0.0 0.0 0.0 0.0 0.0 0 2
311.986 -1.580784545402632 -1.8467629753013064 -1.967103506070437 -1.2065908317885636 1.5643555725490146 -0.0058283296939523055 0.0 0.0 0.0 0.0 0.0 0.0 0.0 0.0 0.0 0.0 0.0 0.0 3.242333525299308e-17 2.7472729469470933 1.6124396717614946 0.20210212916279716 -0.0004433664631237486 0.0 3.219806440432234e-16 27.281854439662943 16.0123676341003 1.5707276427468015 -0.003445821983074618 0.0 -1.580784545402632 -1.8467629753013064 -1.967103506070437 -1.2065908317885636 1.5643555725490146 -0.0058283296939523055 0.0 0.0 0.0 0.0 0.0 0.0 3.242333525299308e-17 2.7472729469470933 1.6124396717614946 0.20210212916279716 -0.0004433664631237486 0.0 3.242333525299308e-17 2.7472729469470933 1.6124396717614946 0.20210212916279716 -0.0004433664631237486 0.0 -0.13880368290309342 -0.4861072195867951 0.20203002553360788 -0.004898576389600767 -3.1004921576356095 -0.4814594871319443 0.0 0.0 0.0 0.0 0.0 0.0 0.0 0.0 0.0 0.0 0.0 0.0 -0.13880368290309342 -0.4861072195867951 0.20203002553360788 -0.004898576389600767 -3.1004921576356095 -0.4814594871319443 0.0 0.0 0.0 0.0 0.0 0.0 0 25.5 25.0 24.5 24.0 23.5 23.5 0.256465 7 253 253 253 253 253 253 1 0.042914737479316616 2.977906143693819 -9.35749076006264 1.0 1.0 0.0 48.0 48.0 0.0 0.0 0.0 0.0 0.0 0.0 0.0 0 2
311.99399999999997 -1.580784545402632 -1.8467629753013064 -1.967103506070437 -1.2065908317885636 1.5643555725490146 -0.0058283296939523055 0.0 0.0 0.0 0.0 0.0 0.0 0.0 0.0 0.0 0.0 0.0 0.0 3.242333525299308e-17 2.7472729469470933 1.6124396717614946 0.20210212916279716 -0.0004433664631237486 0.0 3.219806440432234e-16 27.281854439662943 16.0123676341003 1.5707276427468015 -0.003445821983074618 0.0 -1.580784545402632 -1.8467629753013064 -1.967103506070437 -1.2065908317885636 1.5643555725490146 -0.0058283296939523055 0.0 0.0 0.0 0.0 0.0 0.0 3.242333525299308e-17 2.7472729469470933 1.6124396717614946 0.20210212916279716 -0.0004433664631237486 0.0 3.242333525299308e-17 2.7472729469470933 1.6124396717614946 0.20210212916279716 -0.0004433664631237486 0.0 -0.13880368290309342 -0.4861072195867951 0.20203002553360788 -0.004898576389600767 -3.1004921576356095 -0.4814594871319443 0.0 0.0 0.0 0.0 0.0 0.0 0.0 0.0 0.0 0.0 0.0 0.0 -0.13880368290309342 -0.4861072195867951 0.20203002553360788 -0.004898576389600767 -3.1004921576356095 -0.4814594871319443 0.0 0.0 0.0 0.0 0.0 0.0 0 25.5 25.0 24.5 24.0 23.5 23.5 0.136185 7 253 253 253 253 253 253 1 0.042914737479316616 2.977906143693819 -9.35749076006264 1.0 1.0 0.0 48.0 48.0 0.0 0.0 0.0 0.0 0.0 0.0 0.0 0 2
312.002 -1.580784545402632 -1.8467629753013064 -1.967103506070437 -1.2065908317885636 1.5643555725490146 -0.0058283296939523055 0.0 0.0 0.0 0.0 0.0 0.0 0.0 0.0 0.0 0.0 0.0 0.0 3.242333525299308e-17 2.7472729469470933 1.6124396717614946 0.20210212916279716 -0.0004433664631237486 0.0 3.219806440432234e-16 27.281854439662943 16.0123676341003 1.5707276427468015 -0.003445821983074618 0.0 -1.580784545402632 -1.8467629753013064 -1.967103506070437 -1.2065908317885636 1.5643555725490146 -0.0058283296939523055 0.0 0.0 0.0 0.0 0.0 0.0 3.242333525299308e-17 2.7472729469470933 1.6124396717614946 0.20210212916279716 -0.0004433664631237486 0.0 3.242333525299308e-17 2.7472729469470933 1.6124396717614946 0.20210212916279716 -0.0004433664631237486 0.0 -0.13880368290309342 -0.4861072195867951 0.20203002553360788 -0.004898576389600767 -3.1004921576356095 -0.4814594871319443 0.0 0.0 0.0 0.0 0.0 0.0 0.0 0.0 0.0 0.0 0.0 0.0 -0.13880368290309342 -0.4861072195867951 0.20203002553360788 -0.004898576389600767 -3.1004921576356095 -0.4814594871319443 0.0 0.0 0.0 0.0 0.0 0.0 0 25.5 25.0 24.5 24.0 23.5 23.5 0.13827 7 253 253 253 253 253 253 1 0.042914737479316616 2.977906143693819 -9.35749076006264 1.0 1.0 0.0 48.0 48.0 0.0 0.0 0.0 0.0 0.0 0.0 0.0 0 2
312.01 -1.580784545402632 -1.8467629753013064 -1.967103506070437 -1.2065908317885636 1.5643555725490146 -0.0058283296939523055 0.0 0.0 0.0 0.0 0.0 0.0 0.0 0.0 0.0 0.0 0.0 0.0 3.242333525299308e-17 2.7472729469470933 1.6124396717614946 0.20210212916279716 -0.0004433664631237486 0.0 3.219806440432234e-16 27.281854439662943 16.0123676341003 1.5707276427468015 -0.003445821983074618 0.0 -1.580784545402632 -1.8467629753013064 -1.967103506070437 -1.2065908317885636 1.5643555725490146 -0.0058283296939523055 0.0 0.0 0.0 0.0 0.0 0.0 3.242333525299308e-17 2.7472729469470933 1.6124396717614946 0.20210212916279716 -0.0004433664631237486 0.0 3.242333525299308e-17 2.7472729469470933 1.6124396717614946 0.20210212916279716 -0.0004433664631237486 0.0 -0.13880368290309342 -0.4861072195867951 0.20203002553360788 -0.004898576389600767 -3.1004921576356095 -0.4814594871319443 0.0 0.0 0.0 0.0 0.0 0.0 0.0 0.0 0.0 0.0 0.0 0.0 -0.13880368290309342 -0.4861072195867951 0.20203002553360788 -0.004898576389600767 -3.1004921576356095 -0.4814594871319443 0.0 0.0 0.0 0.0 0.0 0.0 0 25.5 25.0 24.5 24.0 23.5 23.5 0.14380600000000002 7 253 253 253 253 253 253 1 0.042914737479316616 2.977906143693819 -9.35749076006264 1.0 1.0 0.0 48.0 48.0 0.0 0.0 0.0 0.0 0.0 0.0 0.0 0 2
312.018 -1.580784545402632 -1.8467629753013064 -1.967103506070437 -1.2065908317885636 1.5643555725490146 -0.0058283296939523055 0.0 0.0 0.0 0.0 0.0 0.0 0.0 0.0 0.0 0.0 0.0 0.0 3.242333525299308e-17 2.7472729469470933 1.6124396717614946 0.20210212916279716 -0.0004433664631237486 0.0 3.219806440432234e-16 27.281854439662943 16.0123676341003 1.5707276427468015 -0.003445821983074618 0.0 -1.580784545402632 -1.8467629753013064 -1.967103506070437 -1.2065908317885636 1.5643555725490146 -0.0058283296939523055 0.0 0.0 0.0 0.0 0.0 0.0 3.242333525299308e-17 2.7472729469470933 1.6124396717614946 0.20210212916279716 -0.0004433664631237486 0.0 3.242333525299308e-17 2.7472729469470933 1.6124396717614946 0.20210212916279716 -0.0004433664631237486 0.0 -0.13880368290309342 -0.4861072195867951 0.20203002553360788 -0.004898576389600767 -3.1004921576356095 -0.4814594871319443 0.0 0.0 0.0 0.0 0.0 0.0 0.0 0.0 0.0 0.0 0.0 0.0 -0.13880368290309342 -0.4861072195867951 0.20203002553360788 -0.004898576389600767 -3.1004921576356095 -0.4814594871319443 0.0 0.0 0.0 0.0 0.0 0.0 0 25.5 25.0 24.5 24.0 23.5 23.5 0.145414 7 253 253 253 253 253 253 1 0.042914737479316616 2.977906143693819 -9.35749076006264 1.0 1.0 0.0 48.0 48.0 0.0 0.0 0.0 0.0 0.0 0.0 0.0 0 2
312.026 -1.580784545402632 -1.8467629753013064 -1.967103506070437 -1.2065908317885636 1.5643555725490146 -0.0058283296939523055 0.0 0.0 0.0 0.0 0.0 0.0 0.0 0.0 0.0 0.0 0.0 0.0 3.242333525299308e-17 2.7472729469470933 1.6124396717614946 0.20210212916279716 -0.0004433664631237486 0.0 3.219806440432234e-16 27.281854439662943 16.0123676341003 1.5707276427468015 -0.003445821983074618 0.0 -1.580784545402632 -1.8467629753013064 -1.967103506070437 -1.2065908317885636 1.5643555725490146 -0.0058283296939523055 0.0 0.0 0.0 0.0 0.0 0.0 3.242333525299308e-17 2.7472729469470933 1.6124396717614946 0.20210212916279716 -0.0004433664631237486 0.0 3.242333525299308e-17 2.7472729469470933 1.6124396717614946 0.20210212916279716 -0.0004433664631237486 0.0 -0.13880368290309342 -0.4861072195867951 0.20203002553360788 -0.004898576389600767 -3.1004921576356095 -0.4814594871319443 0.0 0.0 0.0 0.0 0.0 0.0 0.0 0.0 0.0 0.0 0.0 0.0 -0.13880368290309342 -0.4861072195867951 0.20203002553360788 -0.004898576389600767 -3.1004921576356095 -0.4814594871319443 0.0 0.0 0.0 0.0 0.0 0.0 0 25.5 25.0 24.5 24.0 23.5 23.5 0.160445 7 253 253 253 253 253 253 1 0.042914737479316616 2.977906143693819 -9.35749076006264 1.0 1.0 0.0 48.0 48.0 0.0 0.0 0.0 0.0 0.0 0.0 0.0 0 2
312.034 -1.580784545402632 -1.8467629753013064 -1.967103506070437 -1.2065908317885636 1.5643555725490146 -0.0058283296939523055 0.0 0.0 0.0 0.0 0.0 0.0 0.0 0.0 0.0 0.0 0.0 0.0 3.242333525299308e-17 2.7472729469470933 1.6124396717614946 0.20210212916279716 -0.0004433664631237486 0.0 3.219806440432234e-16 27.281854439662943 16.0123676341003 1.5707276427468015 -0.003445821983074618 0.0 -1.580784545402632 -1.8467629753013064 -1.967103506070437 -1.2065908317885636 1.5643555725490146 -0.0058283296939523055 0.0 0.0 0.0 0.0 0.0 0.0 3.242333525299308e-17 2.7472729469470933 1.6124396717614946 0.20210212916279716 -0.0004433664631237486 0.0 3.242333525299308e-17 2.7472729469470933 1.6124396717614946 0.20210212916279716 -0.0004433664631237486 0.0 -0.13880368290309342 -0.4861072195867951 0.20203002553360788 -0.004898576389600767 -3.1004921576356095 -0.4814594871319443 0.0 0.0 0.0 0.0 0.0 0.0 0.0 0.0 0.0 0.0 0.0 0.0 -0.13880368290309342 -0.4861072195867951 0.20203002553360788 -0.004898576389600767 -3.1004921576356095 -0.4814594871319443 0.0 0.0 0.0 0.0 0.0 0.0 0 25.5 25.0 24.5 24.0 23.5 23.5 0.143217 7 253 253 253 253 253 253 1 0.042914737479316616 2.977906143693819 -9.35749076006264 1.0 1.0 0.0 48.0 48.0 0.0 0.0 0.0 0.0 0.0 0.0 0.0 0 2
312.042 -1.580784545402632 -1.8467629753013064 -1.967103506070437 -1.2065908317885636 1.5643555725490146 -0.0058283296939523055 0.0 0.0 0.0 0.0 0.0 0.0 0.0 0.0 0.0 0.0 0.0 0.0 3.242333525299308e-17 2.7472729469470933 1.6124396717614946 0.20210212916279716 -0.0004433664631237486 0.0 3.219806440432234e-16 27.281854439662943 16.0123676341003 1.5707276427468015 -0.003445821983074618 0.0 -1.580784545402632 -1.8467629753013064 -1.967103506070437 -1.2065908317885636 1.5643555725490146 -0.0058283296939523055 0.0 0.0 0.0 0.0 0.0 0.0 3.242333525299308e-17 2.7472729469470933 1.6124396717614946 0.20210212916279716 -0.0004433664631237486 0.0 3.242333525299308e-17 2.7472729469470933 1.6124396717614946 0.20210212916279716 -0.0004433664631237486 0.0 -0.13880368290309342 -0.4861072195867951 0.20203002553360788 -0.004898576389600767 -3.1004921576356095 -0.4814594871319443 0.0 0.0 0.0 0.0 0.0 0.0 0.0 0.0 0.0 0.0 0.0 0.0 -0.13880368290309342 -0.4861072195867951 0.20203002553360788 -0.004898576389600767 -3.1004921576356095 -0.4814594871319443 0.0 0.0 0.0 0.0 0.0 0.0 0 25.5 25.0 24.5 24.0 23.5 23.5 0.413903 7 253 253 253 253 253 253 1 0.042914737479316616 2.977906143693819 -9.35749076006264 1.0 1.0 0.0 48.0 48.0 0.0 0.0 0.0 0.0 0.0 0.0 0.0 0 2
312.05 -1.580784545402632 -1.8467629753013064 -1.967103506070437 -1.2065908317885636 1.5643555725490146 -0.0058283296939523055 0.0 0.0 0.0 0.0 0.0 0.0 0.0 0.0 0.0 0.0 0.0 0.0 3.242333525299308e-17 2.7472729469470933 1.6124396717614946 0.20210212916279716 -0.0004433664631237486 0.0 3.219806440432234e-16 27.281854439662943 16.0123676341003 1.5707276427468015 -0.003445821983074618 0.0 -1.580784545402632 -1.8467629753013064 -1.967103506070437 -1.2065908317885636 1.5643555725490146 -0.0058283296939523055 0.0 0.0 0.0 0.0 0.0 0.0 3.242333525299308e-17 2.7472729469470933 1.6124396717614946 0.20210212916279716 -0.0004433664631237486 0.0 3.242333525299308e-17 2.7472729469470933 1.6124396717614946 0.20210212916279716 -0.0004433664631237486 0.0 -0.13880368290309342 -0.4861072195867951 0.20203002553360788 -0.004898576389600767 -3.1004921576356095 -0.4814594871319443 0.0 0.0 0.0 0.0 0.0 0.0 0.0 0.0 0.0 0.0 0.0 0.0 -0.13880368290309342 -0.4861072195867951 0.20203002553360788 -0.004898576389600767 -3.1004921576356095 -0.4814594871319443 0.0 0.0 0.0 0.0 0.0 0.0 0 25.5 25.0 24.5 24.0 23.5 23.5 0.411034 7 253 253 253 253 253 253 1 0.042914737479316616 2.977906143693819 -9.35749076006264 1.0 1.0 0.0 48.0 48.0 0.0 0.0 0.0 0.0 0.0 0.0 0.0 0 2
312.058 -1.580784545402632 -1.8467629753013064 -1.967103506070437 -1.2065908317885636 1.5643555725490146 -0.0058283296939523055 0.0 0.0 0.0 0.0 0.0 0.0 0.0 0.0 0.0 0.0 0.0 0.0 3.242333525299308e-17 2.7472729469470933 1.6124396717614946 0.20210212916279716 -0.0004433664631237486 0.0 3.219806440432234e-16 27.281854439662943 16.0123676341003 1.5707276427468015 -0.003445821983074618 0.0 -1.580784545402632 -1.8467629753013064 -1.967103506070437 -1.2065908317885636 1.5643555725490146 -0.0058283296939523055 0.0 0.0 0.0 0.0 0.0 0.0 3.242333525299308e-17 2.7472729469470933 1.6124396717614946 0.20210212916279716 -0.0004433664631237486 0.0 3.242333525299308e-17 2.7472729469470933 1.6124396717614946 0.20210212916279716 -0.0004433664631237486 0.0 -0.13880368290309342 -0.4861072195867951 0.20203002553360788 -0.004898576389600767 -3.1004921576356095 -0.4814594871319443 0.0 0.0 0.0 0.0 0.0 0.0 0.0 0.0 0.0 0.0 0.0 0.0 -0.13880368290309342 -0.4861072195867951 0.20203002553360788 -0.004898576389600767 -3.1004921576356095 -0.4814594871319443 0.0 0.0 0.0 0.0 0.0 0.0 0 25.5 25.0 24.5 24.0 23.5 23.5 0.47678899999999996 7 253 253 253 253 253 253 1 0.042914737479316616 2.977906143693819 -9.35749076006264 1.0 1.0 0.0 48.0 48.0 0.0 0.0 0.0 0.0 0.0 0.0 0.0 0 2
312.066 -1.580784545402632 -1.8467629753013064 -1.967103506070437 -1.2065908317885636 1.5643555725490146 -0.0058283296939523055 0.0 0.0 0.0 0.0 0.0 0.0 0.0 0.0 0.0 0.0 0.0 0.0 3.242333525299308e-17 2.7472729469470933 1.6124396717614946 0.20210212916279716 -0.0004433664631237486 0.0 3.219806440432234e-16 27.281854439662943 16.0123676341003 1.5707276427468015 -0.003445821983074618 0.0 -1.580784545402632 -1.8467629753013064 -1.967103506070437 -1.2065908317885636 1.5643555725490146 -0.0058283296939523055 0.0 0.0 0.0 0.0 0.0 0.0 3.242333525299308e-17 2.7472729469470933 1.6124396717614946 0.20210212916279716 -0.0004433664631237486 0.0 3.242333525299308e-17 2.7472729469470933 1.6124396717614946 0.20210212916279716 -0.0004433664631237486 0.0 -0.13880368290309342 -0.4861072195867951 0.20203002553360788 -0.004898576389600767 -3.1004921576356095 -0.4814594871319443 0.0 0.0 0.0 0.0 0.0 0.0 0.0 0.0 0.0 0.0 0.0 0.0 -0.13880368290309342 -0.4861072195867951 0.20203002553360788 -0.004898576389600767 -3.1004921576356095 -0.4814594871319443 0.0 0.0 0.0 0.0 0.0 0.0 0 25.5 25.0 24.5 24.0 23.5 23.5 0.433691 7 253 253 253 253 253 253 1 0.042914737479316616 2.977906143693819 -9.35749076006264 1.0 1.0 0.0 48.0 48.0 0.0 0.0 0.0 0.0 0.0 0.0 0.0 0 2
312.074 -1.580784545402632 -1.8467629753013064 -1.967103506070437 -1.2065908317885636 1.5643555725490146 -0.0058283296939523055 0.0 0.0 0.0 0.0 0.0 0.0 0.0 0.0 0.0 0.0 0.0 0.0 3.242333525299308e-17 2.7472729469470933 1.6124396717614946 0.20210212916279716 -0.0004433664631237486 0.0 3.219806440432234e-16 27.281854439662943 16.0123676341003 1.5707276427468015 -0.003445821983074618 0.0 -1.580784545402632 -1.8467629753013064 -1.967103506070437 -1.2065908317885636 1.5643555725490146 -0.0058283296939523055 0.0 0.0 0.0 0.0 0.0 0.0 3.242333525299308e-17 2.7472729469470933 1.6124396717614946 0.20210212916279716 -0.0004433664631237486 0.0 3.242333525299308e-17 2.7472729469470933 1.6124396717614946 0.20210212916279716 -0.0004433664631237486 0.0 -0.13880368290309342 -0.4861072195867951 0.20203002553360788 -0.004898576389600767 -3.1004921576356095 -0.4814594871319443 0.0 0.0 0.0 0.0 0.0 0.0 0.0 0.0 0.0 0.0 0.0 0.0 -0.13880368290309342 -0.4861072195867951 0.20203002553360788 -0.004898576389600767 -3.1004921576356095 -0.4814594871319443 0.0 0.0 0.0 0.0 0.0 0.0 0 25.5 25.0 24.5 24.0 23.5 23.5 0.514606 7 253 253 253 253 253 253 1 0.042914737479316616 2.977906143693819 -9.35749076006264 1.0 1.0 0.0 48.0 48.0 0.0 0.0 0.0 0.0 0.0 0.0 0.0 0 2
312.082 -1.580784545402632 -1.8467629753013064 -1.967103506070437 -1.2065908317885636 1.5643555725490146 -0.0058283296939523055 0.0 0.0 0.0 0.0 0.0 0.0 0.0 0.0 0.0 0.0 0.0 0.0 3.242333525299308e-17 2.7472729469470933 1.6124396717614946 0.20210212916279716 -0.0004433664631237486 0.0 3.219806440432234e-16 27.281854439662943 16.0123676341003 1.5707276427468015 -0.003445821983074618 0.0 -1.580784545402632 -1.8467629753013064 -1.967103506070437 -1.2065908317885636 1.5643555725490146 -0.0058283296939523055 0.0 0.0 0.0 0.0 0.0 0.0 3.242333525299308e-17 2.7472729469470933 1.6124396717614946 0.20210212916279716 -0.0004433664631237486 0.0 3.242333525299308e-17 2.7472729469470933 1.6124396717614946 0.20210212916279716 -0.0004433664631237486 0.0 -0.13880368290309342 -0.4861072195867951 0.20203002553360788 -0.004898576389600767 -3.1004921576356095 -0.4814594871319443 0.0 0.0 0.0 0.0 0.0 0.0 0.0 0.0 0.0 0.0 0.0 0.0 -0.13880368290309342 -0.4861072195867951 0.20203002553360788 -0.004898576389600767 -3.1004921576356095 -0.4814594871319443 0.0 0.0 0.0 0.0 0.0 0.0 0 25.5 25.0 24.5 24.0 23.5 23.5 0.38927300000000004 7 253 253 253 253 253 253 1 0.042914737479316616 2.977906143693819 -9.35749076006264 1.0 1.0 0.0 48.0 48.0 0.0 0.0 0.0 0.0 0.0 0.0 0.0 0 2
312.09 -1.580784545402632 -1.8467629753013064 -1.967103506070437 -1.2065908317885636 1.5643555725490146 -0.0058283296939523055 0.0 0.0 0.0 0.0 0.0 0.0 0.0 0.0 0.0 0.0 0.0 0.0 3.242333525299308e-17 2.7472729469470933 1.6124396717614946 0.20210212916279716 -0.0004433664631237486 0.0 3.219806440432234e-16 27.281854439662943 16.0123676341003 1.5707276427468015 -0.003445821983074618 0.0 -1.580784545402632 -1.8467629753013064 -1.967103506070437 -1.2065908317885636 1.5643555725490146 -0.0058283296939523055 0.0 0.0 0.0 0.0 0.0 0.0 3.242333525299308e-17 2.7472729469470933 1.6124396717614946 0.20210212916279716 -0.0004433664631237486 0.0 3.242333525299308e-17 2.7472729469470933 1.6124396717614946 0.20210212916279716 -0.0004433664631237486 0.0 -0.13880368290309342 -0.4861072195867951 0.20203002553360788 -0.004898576389600767 -3.1004921576356095 -0.4814594871319443 0.0 0.0 0.0 0.0 0.0 0.0 0.0 0.0 0.0 0.0 0.0 0.0 -0.13880368290309342 -0.4861072195867951 0.20203002553360788 -0.004898576389600767 -3.1004921576356095 -0.4814594871319443 0.0 0.0 0.0 0.0 0.0 0.0 0 25.5 25.0 24.5 24.0 23.5 23.5 0.422601 7 253 253 253 253 253 253 1 0.042914737479316616 2.977906143693819 -9.35749076006264 1.0 1.0 0.0 48.0 48.0 0.0 0.0 0.0 0.0 0.0 0.0 0.0 0 2
312.098 -1.580784545402632 -1.8467629753013064 -1.967103506070437 -1.2065908317885636 1.5643555725490146 -0.0058283296939523055 0.0 0.0 0.0 0.0 0.0 0.0 0.0 0.0 0.0 0.0 0.0 0.0 3.242333525299308e-17 2.7472729469470933 1.6124396717614946 0.20210212916279716 -0.0004433664631237486 0.0 3.219806440432234e-16 27.281854439662943 16.0123676341003 1.5707276427468015 -0.003445821983074618 0.0 -1.580784545402632 -1.8467629753013064 -1.967103506070437 -1.2065908317885636 1.5643555725490146 -0.0058283296939523055 0.0 0.0 0.0 0.0 0.0 0.0 3.242333525299308e-17 2.7472729469470933 1.6124396717614946 0.20210212916279716 -0.0004433664631237486 0.0 3.242333525299308e-17 2.7472729469470933 1.6124396717614946 0.20210212916279716 -0.0004433664631237486 0.0 -0.13880368290309342 -0.4861072195867951 0.20203002553360788 -0.004898576389600767 -3.1004921576356095 -0.4814594871319443 0.0 0.0 0.0 0.0 0.0 0.0 0.0 0.0 0.0 0.0 0.0 0.0 -0.13880368290309342 -0.4861072195867951 0.20203002553360788 -0.004898576389600767 -3.1004921576356095 -0.4814594871319443 0.0 0.0 0.0 0.0 0.0 0.0 0 25.5 25.0 24.5 24.0 23.5 23.5 0.417862 7 253 253 253 253 253 253 1 0.042914737479316616 2.977906143693819 -9.35749076006264 1.0 1.0 0.0 48.0 48.0 0.0 0.0 0.0 0.0 0.0 0.0 0.0 0 2
312.106 -1.580784545402632 -1.8467629753013064 -1.967103506070437 -1.2065908317885636 1.5643555725490146 -0.0058283296939523055 0.0 0.0 0.0 0.0 0.0 0.0 0.0 0.0 0.0 0.0 0.0 0.0 3.242333525299308e-17 2.7472729469470933 1.6124396717614946 0.20210212916279716 -0.0004433664631237486 0.0 3.219806440432234e-16 27.281854439662943 16.0123676341003 1.5707276427468015 -0.003445821983074618 0.0 -1.580784545402632 -1.8467629753013064 -1.967103506070437 -1.2065908317885636 1.5643555725490146 -0.0058283296939523055 0.0 0.0 0.0 0.0 0.0 0.0 3.242333525299308e-17 2.7472729469470933 1.6124396717614946 0.20210212916279716 -0.0004433664631237486 0.0 3.242333525299308e-17 2.7472729469470933 1.6124396717614946 0.20210212916279716 -0.0004433664631237486 0.0 -0.13880368290309342 -0.4861072195867951 0.20203002553360788 -0.004898576389600767 -3.1004921576356095 -0.4814594871319443 0.0 0.0 0.0 0.0 0.0 0.0 0.0 0.0 0.0 0.0 0.0 0.0 -0.13880368290309342 -0.4861072195867951 0.20203002553360788 -0.004898576389600767 -3.1004921576356095 -0.4814594871319443 0.0 0.0 0.0 0.0 0.0 0.0 0 25.5 25.0 24.5 24.0 23.5 23.5 0.296587 7 253 253 253 253 253 253 1 0.042914737479316616 2.977906143693819 -9.35749076006264 1.0 1.0 0.0 48.0 48.0 0.0 0.0 0.0 0.0 0.0 0.0 0.0 0 2
312.114 -1.580784545402632 -1.8467629753013064 -1.967103506070437 -1.2065908317885636 1.5643555725490146 -0.0058283296939523055 0.0 0.0 0.0 0.0 0.0 0.0 0.0 0.0 0.0 0.0 0.0 0.0 3.242333525299308e-17 2.7472729469470933 1.6124396717614946 0.20210212916279716 -0.0004433664631237486 0.0 3.219806440432234e-16 27.281854439662943 16.0123676341003 1.5707276427468015 -0.003445821983074618 0.0 -1.580784545402632 -1.8467629753013064 -1.967103506070437 -1.2065908317885636 1.5643555725490146 -0.0058283296939523055 0.0 0.0 0.0 0.0 0.0 0.0 3.242333525299308e-17 2.7472729469470933 1.6124396717614946 0.20210212916279716 -0.0004433664631237486 0.0 3.242333525299308e-17 2.7472729469470933 1.6124396717614946 0.20210212916279716 -0.0004433664631237486 0.0 -0.13880368290309342 -0.4861072195867951 0.20203002553360788 -0.004898576389600767 -3.1004921576356095 -0.4814594871319443 0.0 0.0 0.0 0.0 0.0 0.0 0.0 0.0 0.0 0.0 0.0 0.0 -0.13880368290309342 -0.4861072195867951 0.20203002553360788 -0.004898576389600767 -3.1004921576356095 -0.4814594871319443 0.0 0.0 0.0 0.0 0.0 0.0 0 25.5 25.0 24.5 24.0 23.5 23.5 0.363873 7 253 253 253 253 253 253 1 0.042914737479316616 2.977906143693819 -9.35749076006264 1.0 1.0 0.0 48.0 48.0 0.0 0.0 0.0 0.0 0.0 0.0 0.0 0 2
312.122 -1.580784545402632 -1.8467629753013064 -1.967103506070437 -1.2065908317885636 1.5643555725490146 -0.0058283296939523055 0.0 0.0 0.0 0.0 0.0 0.0 0.0 0.0 0.0 0.0 0.0 0.0 3.242333525299308e-17 2.7472729469470933 1.6124396717614946 0.20210212916279716 -0.0004433664631237486 0.0 3.219806440432234e-16 27.281854439662943 16.0123676341003 1.5707276427468015 -0.003445821983074618 0.0 -1.580784545402632 -1.8467629753013064 -1.967103506070437 -1.2065908317885636 1.5643555725490146 -0.0058283296939523055 0.0 0.0 0.0 0.0 0.0 0.0 3.242333525299308e-17 2.7472729469470933 1.6124396717614946 0.20210212916279716 -0.0004433664631237486 0.0 3.242333525299308e-17 2.7472729469470933 1.6124396717614946 0.20210212916279716 -0.0004433664631237486 0.0 -0.13880368290309342 -0.4861072195867951 0.20203002553360788 -0.004898576389600767 -3.1004921576356095 -0.4814594871319443 0.0 0.0 0.0 0.0 0.0 0.0 0.0 0.0 0.0 0.0 0.0 0.0 -0.13880368290309342 -0.4861072195867951 0.20203002553360788 -0.004898576389600767 -3.1004921576356095 -0.4814594871319443 0.0 0.0 0.0 0.0 0.0 0.0 0 25.5 25.0 24.5 24.0 23.5 23.5 0.152085 7 253 253 253 253 253 253 1 0.042914737479316616 2.977906143693819 -9.35749076006264 1.0 1.0 0.0 48.0 48.0 0.0 0.0 0.0 0.0 0.0 0.0 0.0 0 2
312.13 -1.580784545402632 -1.8467629753013064 -1.967103506070437 -1.2065908317885636 1.5643555725490146 -0.0058283296939523055 0.0 0.0 0.0 0.0 0.0 0.0 0.0 0.0 0.0 0.0 0.0 0.0 3.242333525299308e-17 2.7472729469470933 1.6124396717614946 0.20210212916279716 -0.0004433664631237486 0.0 3.219806440432234e-16 27.281854439662943 16.0123676341003 1.5707276427468015 -0.003445821983074618 0.0 -1.580784545402632 -1.8467629753013064 -1.967103506070437 -1.2065908317885636 1.5643555725490146 -0.0058283296939523055 0.0 0.0 0.0 0.0 0.0 0.0 3.242333525299308e-17 2.7472729469470933 1.6124396717614946 0.20210212916279716 -0.0004433664631237486 0.0 3.242333525299308e-17 2.7472729469470933 1.6124396717614946 0.20210212916279716 -0.0004433664631237486 0.0 -0.13880368290309342 -0.4861072195867951 0.20203002553360788 -0.004898576389600767 -3.1004921576356095 -0.4814594871319443 0.0 0.0 0.0 0.0 0.0 0.0 0.0 0.0 0.0 0.0 0.0 0.0 -0.13880368290309342 -0.4861072195867951 0.20203002553360788 -0.004898576389600767 -3.1004921576356095 -0.4814594871319443 0.0 0.0 0.0 0.0 0.0 0.0 0 25.5 25.0 24.5 24.0 23.5 23.5 0.18151599999999998 7 253 253 253 253 253 253 1 0.042914737479316616 2.977906143693819 -9.35749076006264 1.0 1.0 0.0 48.0 48.0 0.0 0.0 0.0 0.0 0.0 0.0 0.0 0 2
312.138 -1.580784545402632 -1.8467629753013064 -1.967103506070437 -1.2065908317885636 1.5643555725490146 -0.0058283296939523055 0.0 0.0 0.0 0.0 0.0 0.0 0.0 0.0 0.0 0.0 0.0 0.0 3.242333525299308e-17 2.7472729469470933 1.6124396717614946 0.20210212916279716 -0.0004433664631237486 0.0 3.219806440432234e-16 27.281854439662943 16.0123676341003 1.5707276427468015 -0.003445821983074618 0.0 -1.580784545402632 -1.8467629753013064 -1.967103506070437 -1.2065908317885636 1.5643555725490146 -0.0058283296939523055 0.0 0.0 0.0 0.0 0.0 0.0 3.242333525299308e-17 2.7472729469470933 1.6124396717614946 0.20210212916279716 -0.0004433664631237486 0.0 3.242333525299308e-17 2.7472729469470933 1.6124396717614946 0.20210212916279716 -0.0004433664631237486 0.0 -0.13880368290309342 -0.4861072195867951 0.20203002553360788 -0.004898576389600767 -3.1004921576356095 -0.4814594871319443 0.0 0.0 0.0 0.0 0.0 0.0 0.0 0.0 0.0 0.0 0.0 0.0 -0.13880368290309342 -0.4861072195867951 0.20203002553360788 -0.004898576389600767 -3.1004921576356095 -0.4814594871319443 0.0 0.0 0.0 0.0 0.0 0.0 0 25.5 25.0 24.5 24.0 23.5 23.5 0.433802 7 253 253 253 253 253 253 1 0.042914737479316616 2.977906143693819 -9.35749076006264 1.0 1.0 0.0 48.0 48.0 0.0 0.0 0.0 0.0 0.0 0.0 0.0 0 2
312.14599999999996 -1.580784545402632 -1.8467629753013064 -1.967103506070437 -1.2065908317885636 1.5643555725490146 -0.0058283296939523055 0.0 0.0 0.0 0.0 0.0 0.0 0.0 0.0 0.0 0.0 0.0 0.0 3.242333525299308e-17 2.7472729469470933 1.6124396717614946 0.20210212916279716 -0.0004433664631237486 0.0 3.219806440432234e-16 27.281854439662943 16.0123676341003 1.5707276427468015 -0.003445821983074618 0.0 -1.580784545402632 -1.8467629753013064 -1.967103506070437 -1.2065908317885636 1.5643555725490146 -0.0058283296939523055 0.0 0.0 0.0 0.0 0.0 0.0 3.242333525299308e-17 2.7472729469470933 1.6124396717614946 0.20210212916279716 -0.0004433664631237486 0.0 3.242333525299308e-17 2.7472729469470933 1.6124396717614946 0.20210212916279716 -0.0004433664631237486 0.0 -0.13880368290309342 -0.4861072195867951 0.20203002553360788 -0.004898576389600767 -3.1004921576356095 -0.4814594871319443 0.0 0.0 0.0 0.0 0.0 0.0 0.0 0.0 0.0 0.0 0.0 0.0 -0.13880368290309342 -0.4861072195867951 0.20203002553360788 -0.004898576389600767 -3.1004921576356095 -0.4814594871319443 0.0 0.0 0.0 0.0 0.0 0.0 0 25.5 25.0 24.5 24.0 23.5 23.5 0.414383 7 253 253 253 253 253 253 1 0.042914737479316616 2.977906143693819 -9.35749076006264 1.0 1.0 0.0 48.0 48.0 0.0 0.0 0.0 0.0 0.0 0.0 0.0 0 2
312.154 -1.580784545402632 -1.8467629753013064 -1.967103506070437 -1.2065908317885636 1.5643555725490146 -0.0058283296939523055 0.0 0.0 0.0 0.0 0.0 0.0 0.0 0.0 0.0 0.0 0.0 0.0 3.242333525299308e-17 2.7472729469470933 1.6124396717614946 0.20210212916279716 -0.0004433664631237486 0.0 3.219806440432234e-16 27.281854439662943 16.0123676341003 1.5707276427468015 -0.003445821983074618 0.0 -1.580784545402632 -1.8467629753013064 -1.967103506070437 -1.2065908317885636 1.5643555725490146 -0.0058283296939523055 0.0 0.0 0.0 0.0 0.0 0.0 3.242333525299308e-17 2.7472729469470933 1.6124396717614946 0.20210212916279716 -0.0004433664631237486 0.0 3.242333525299308e-17 2.7472729469470933 1.6124396717614946 0.20210212916279716 -0.0004433664631237486 0.0 -0.13880368290309342 -0.4861072195867951 0.20203002553360788 -0.004898576389600767 -3.1004921576356095 -0.4814594871319443 0.0 0.0 0.0 0.0 0.0 0.0 0.0 0.0 0.0 0.0 0.0 0.0 -0.13880368290309342 -0.4861072195867951 0.20203002553360788 -0.004898576389600767 -3.1004921576356095 -0.4814594871319443 0.0 0.0 0.0 0.0 0.0 0.0 0 25.5 25.0 24.5 24.0 23.5 23.5 0.411161 7 253 253 253 253 253 253 1 0.042914737479316616 2.977906143693819 -9.35749076006264 1.0 1.0 0.0 48.0 48.0 0.0 0.0 0.0 0.0 0.0 0.0 0.0 0 2
312.162 -1.580784545402632 -1.8467629753013064 -1.967103506070437 -1.2065908317885636 1.5643555725490146 -0.0058283296939523055 0.0 0.0 0.0 0.0 0.0 0.0 0.0 0.0 0.0 0.0 0.0 0.0 3.242333525299308e-17 2.7472729469470933 1.6124396717614946 0.20210212916279716 -0.0004433664631237486 0.0 3.219806440432234e-16 27.281854439662943 16.0123676341003 1.5707276427468015 -0.003445821983074618 0.0 -1.580784545402632 -1.8467629753013064 -1.967103506070437 -1.2065908317885636 1.5643555725490146 -0.0058283296939523055 0.0 0.0 0.0 0.0 0.0 0.0 3.242333525299308e-17 2.7472729469470933 1.6124396717614946 0.20210212916279716 -0.0004433664631237486 0.0 3.242333525299308e-17 2.7472729469470933 1.6124396717614946 0.20210212916279716 -0.0004433664631237486 0.0 -0.13880368290309342 -0.4861072195867951 0.20203002553360788 -0.004898576389600767 -3.1004921576356095 -0.4814594871319443 0.0 0.0 0.0 0.0 0.0 0.0 0.0 0.0 0.0 0.0 0.0 0.0 -0.13880368290309342 -0.4861072195867951 0.20203002553360788 -0.004898576389600767 -3.1004921576356095 -0.4814594871319443 0.0 0.0 0.0 0.0 0.0 0.0 0 25.5 25.0 24.5 24.0 23.5 23.5 0.5600069999999999 7 253 253 253 253 253 253 1 0.042914737479316616 2.977906143693819 -9.35749076006264 1.0 1.0 0.0 48.0 48.0 0.0 0.0 0.0 0.0 0.0 0.0 0.0 0 2
312.16999999999996 -1.580784545402632 -1.8467629753013064 -1.967103506070437 -1.2065908317885636 1.5643555725490146 -0.0058283296939523055 0.0 0.0 0.0 0.0 0.0 0.0 0.0 0.0 0.0 0.0 0.0 0.0 3.242333525299308e-17 2.7472729469470933 1.6124396717614946 0.20210212916279716 -0.0004433664631237486 0.0 3.219806440432234e-16 27.281854439662943 16.0123676341003 1.5707276427468015 -0.003445821983074618 0.0 -1.580784545402632 -1.8467629753013064 -1.967103506070437 -1.2065908317885636 1.5643555725490146 -0.0058283296939523055 0.0 0.0 0.0 0.0 0.0 0.0 3.242333525299308e-17 2.7472729469470933 1.6124396717614946 0.20210212916279716 -0.0004433664631237486 0.0 3.242333525299308e-17 2.7472729469470933 1.6124396717614946 0.20210212916279716 -0.0004433664631237486 0.0 -0.13880368290309342 -0.4861072195867951 0.20203002553360788 -0.004898576389600767 -3.1004921576356095 -0.4814594871319443 0.0 0.0 0.0 0.0 0.0 0.0 0.0 0.0 0.0 0.0 0.0 0.0 -0.13880368290309342 -0.4861072195867951 0.20203002553360788 -0.004898576389600767 -3.1004921576356095 -0.4814594871319443 0.0 0.0 0.0 0.0 0.0 0.0 0 25.5 25.0 24.5 24.0 23.5 23.5 0.42269 7 253 253 253 253 253 253 1 0.042914737479316616 2.977906143693819 -9.35749076006264 1.0 1.0 0.0 48.0 48.0 0.0 0.0 0.0 0.0 0.0 0.0 0.0 0 2
312.178 -1.580784545402632 -1.8467629753013064 -1.967103506070437 -1.2065908317885636 1.5643555725490146 -0.0058283296939523055 0.0 0.0 0.0 0.0 0.0 0.0 0.0 0.0 0.0 0.0 0.0 0.0 3.242333525299308e-17 2.7472729469470933 1.6124396717614946 0.20210212916279716 -0.0004433664631237486 0.0 3.219806440432234e-16 27.281854439662943 16.0123676341003 1.5707276427468015 -0.003445821983074618 0.0 -1.580784545402632 -1.8467629753013064 -1.967103506070437 -1.2065908317885636 1.5643555725490146 -0.0058283296939523055 0.0 0.0 0.0 0.0 0.0 0.0 3.242333525299308e-17 2.7472729469470933 1.6124396717614946 0.20210212916279716 -0.0004433664631237486 0.0 3.242333525299308e-17 2.7472729469470933 1.6124396717614946 0.20210212916279716 -0.0004433664631237486 0.0 -0.13880368290309342 -0.4861072195867951 0.20203002553360788 -0.004898576389600767 -3.1004921576356095 -0.4814594871319443 0.0 0.0 0.0 0.0 0.0 0.0 0.0 0.0 0.0 0.0 0.0 0.0 -0.13880368290309342 -0.4861072195867951 0.20203002553360788 -0.004898576389600767 -3.1004921576356095 -0.4814594871319443 0.0 0.0 0.0 0.0 0.0 0.0 0 25.5 25.0 24.5 24.0 23.5 23.5 0.5682079999999999 7 253 253 253 253 253 253 1 0.042914737479316616 2.977906143693819 -9.35749076006264 1.0 1.0 0.0 48.0 48.0 0.0 0.0 0.0 0.0 0.0 0.0 0.0 0 2
312.186 -1.580784545402632 -1.8467629753013064 -1.967103506070437 -1.2065908317885636 1.5643555725490146 -0.0058283296939523055 0.0 0.0 0.0 0.0 0.0 0.0 0.0 0.0 0.0 0.0 0.0 0.0 3.242333525299308e-17 2.7472729469470933 1.6124396717614946 0.20210212916279716 -0.0004433664631237486 0.0 3.219806440432234e-16 27.281854439662943 16.0123676341003 1.5707276427468015 -0.003445821983074618 0.0 -1.580784545402632 -1.8467629753013064 -1.967103506070437 -1.2065908317885636 1.5643555725490146 -0.0058283296939523055 0.0 0.0 0.0 0.0 0.0 0.0 3.242333525299308e-17 2.7472729469470933 1.6124396717614946 0.20210212916279716 -0.0004433664631237486 0.0 3.242333525299308e-17 2.7472729469470933 1.6124396717614946 0.20210212916279716 -0.0004433664631237486 0.0 -0.13880368290309342 -0.4861072195867951 0.20203002553360788 -0.004898576389600767 -3.1004921576356095 -0.4814594871319443 0.0 0.0 0.0 0.0 0.0 0.0 0.0 0.0 0.0 0.0 0.0 0.0 -0.13880368290309342 -0.4861072195867951 0.20203002553360788 -0.004898576389600767 -3.1004921576356095 -0.4814594871319443 0.0 0.0 0.0 0.0 0.0 0.0 0 25.5 25.0 24.5 24.0 23.5 23.5 0.314094 7 253 253 253 253 253 253 1 0.042914737479316616 2.977906143693819 -9.35749076006264 1.0 1.0 0.0 48.0 48.0 0.0 0.0 0.0 0.0 0.0 0.0 0.0 0 2
312.19399999999996 -1.580784545402632 -1.8467629753013064 -1.967103506070437 -1.2065908317885636 1.5643555725490146 -0.0058283296939523055 0.0 0.0 0.0 0.0 0.0 0.0 0.0 0.0 0.0 0.0 0.0 0.0 3.242333525299308e-17 2.7472729469470933 1.6124396717614946 0.20210212916279716 -0.0004433664631237486 0.0 3.219806440432234e-16 27.281854439662943 16.0123676341003 1.5707276427468015 -0.003445821983074618 0.0 -1.580784545402632 -1.8467629753013064 -1.967103506070437 -1.2065908317885636 1.5643555725490146 -0.0058283296939523055 0.0 0.0 0.0 0.0 0.0 0.0 3.242333525299308e-17 2.7472729469470933 1.6124396717614946 0.20210212916279716 -0.0004433664631237486 0.0 3.242333525299308e-17 2.7472729469470933 1.6124396717614946 0.20210212916279716 -0.0004433664631237486 0.0 -0.13880368290309342 -0.4861072195867951 0.20203002553360788 -0.004898576389600767 -3.1004921576356095 -0.4814594871319443 0.0 0.0 0.0 0.0 0.0 0.0 0.0 0.0 0.0 0.0 0.0 0.0 -0.13880368290309342 -0.4861072195867951 0.20203002553360788 -0.004898576389600767 -3.1004921576356095 -0.4814594871319443 0.0 0.0 0.0 0.0 0.0 0.0 0 25.5 25.0 24.5 24.0 23.5 23.5 0.329876 7 253 253 253 253 253 253 1 0.042914737479316616 2.977906143693819 -9.35749076006264 1.0 1.0 0.0 48.0 48.0 0.0 0.0 0.0 0.0 0.0 0.0 0.0 0 2
312.202 -1.580784545402632 -1.8467629753013064 -1.967103506070437 -1.2065908317885636 1.5643555725490146 -0.0058283296939523055 0.0 0.0 0.0 0.0 0.0 0.0 0.0 0.0 0.0 0.0 0.0 0.0 3.242333525299308e-17 2.7472729469470933 1.6124396717614946 0.20210212916279716 -0.0004433664631237486 0.0 3.219806440432234e-16 27.281854439662943 16.0123676341003 1.5707276427468015 -0.003445821983074618 0.0 -1.580784545402632 -1.8467629753013064 -1.967103506070437 -1.2065908317885636 1.5643555725490146 -0.0058283296939523055 0.0 0.0 0.0 0.0 0.0 0.0 3.242333525299308e-17 2.7472729469470933 1.6124396717614946 0.20210212916279716 -0.0004433664631237486 0.0 3.242333525299308e-17 2.7472729469470933 1.6124396717614946 0.20210212916279716 -0.0004433664631237486 0.0 -0.13880368290309342 -0.4861072195867951 0.20203002553360788 -0.004898576389600767 -3.1004921576356095 -0.4814594871319443 0.0 0.0 0.0 0.0 0.0 0.0 0.0 0.0 0.0 0.0 0.0 0.0 -0.13880368290309342 -0.4861072195867951 0.20203002553360788 -0.004898576389600767 -3.1004921576356095 -0.4814594871319443 0.0 0.0 0.0 0.0 0.0 0.0 0 25.5 25.0 24.5 24.0 23.5 23.5 0.413251 7 253 253 253 253 253 253 1 0.042914737479316616 2.977906143693819 -9.35749076006264 1.0 1.0 0.0 48.0 48.0 0.0 0.0 0.0 0.0 0.0 0.0 0.0 0 2
312.21 -1.580784545402632 -1.8467629753013064 -1.967103506070437 -1.2065908317885636 1.5643555725490146 -0.0058283296939523055 0.0 0.0 0.0 0.0 0.0 0.0 0.0 0.0 0.0 0.0 0.0 0.0 3.242333525299308e-17 2.7472729469470933 1.6124396717614946 0.20210212916279716 -0.0004433664631237486 0.0 3.219806440432234e-16 27.281854439662943 16.0123676341003 1.5707276427468015 -0.003445821983074618 0.0 -1.580784545402632 -1.8467629753013064 -1.967103506070437 -1.2065908317885636 1.5643555725490146 -0.0058283296939523055 0.0 0.0 0.0 0.0 0.0 0.0 3.242333525299308e-17 2.7472729469470933 1.6124396717614946 0.20210212916279716 -0.0004433664631237486 0.0 3.242333525299308e-17 2.7472729469470933 1.6124396717614946 0.20210212916279716 -0.0004433664631237486 0.0 -0.13880368290309342 -0.4861072195867951 0.20203002553360788 -0.004898576389600767 -3.1004921576356095 -0.4814594871319443 0.0 0.0 0.0 0.0 0.0 0.0 0.0 0.0 0.0 0.0 0.0 0.0 -0.13880368290309342 -0.4861072195867951 0.20203002553360788 -0.004898576389600767 -3.1004921576356095 -0.4814594871319443 0.0 0.0 0.0 0.0 0.0 0.0 0 25.5 25.0 24.5 24.0 23.5 23.5 0.601557 7 253 253 253 253 253 253 1 0.042914737479316616 2.977906143693819 -9.35749076006264 1.0 1.0 0.0 48.0 48.0 0.0 0.0 0.0 0.0 0.0 0.0 0.0 0 2
312.21799999999996 -1.580784545402632 -1.8467629753013064 -1.967103506070437 -1.2065908317885636 1.5643555725490146 -0.0058283296939523055 0.0 0.0 0.0 0.0 0.0 0.0 0.0 0.0 0.0 0.0 0.0 0.0 3.242333525299308e-17 2.7472729469470933 1.6124396717614946 0.20210212916279716 -0.0004433664631237486 0.0 3.219806440432234e-16 27.281854439662943 16.0123676341003 1.5707276427468015 -0.003445821983074618 0.0 -1.580784545402632 -1.8467629753013064 -1.967103506070437 -1.2065908317885636 1.5643555725490146 -0.0058283296939523055 0.0 0.0 0.0 0.0 0.0 0.0 3.242333525299308e-17 2.7472729469470933 1.6124396717614946 0.20210212916279716 -0.0004433664631237486 0.0 3.242333525299308e-17 2.7472729469470933 1.6124396717614946 0.20210212916279716 -0.0004433664631237486 0.0 -0.13880368290309342 -0.4861072195867951 0.20203002553360788 -0.004898576389600767 -3.1004921576356095 -0.4814594871319443 0.0 0.0 0.0 0.0 0.0 0.0 0.0 0.0 0.0 0.0 0.0 0.0 -0.13880368290309342 -0.4861072195867951 0.20203002553360788 -0.004898576389600767 -3.1004921576356095 -0.4814594871319443 0.0 0.0 0.0 0.0 0.0 0.0 0 25.5 25.0 24.5 24.0 23.5 23.5 0.382392 7 253 253 253 253 253 253 1 0.042914737479316616 2.977906143693819 -9.35749076006264 1.0 1.0 0.0 48.0 48.0 0.0 0.0 0.0 0.0 0.0 0.0 0.0 0 2
312.226 -1.580784545402632 -1.8467629753013064 -1.967103506070437 -1.2065908317885636 1.5643555725490146 -0.0058283296939523055 0.0 0.0 0.0 0.0 0.0 0.0 0.0 0.0 0.0 0.0 0.0 0.0 3.242333525299308e-17 2.7472729469470933 1.6124396717614946 0.20210212916279716 -0.0004433664631237486 0.0 3.219806440432234e-16 27.281854439662943 16.0123676341003 1.5707276427468015 -0.003445821983074618 0.0 -1.580784545402632 -1.8467629753013064 -1.967103506070437 -1.2065908317885636 1.5643555725490146 -0.0058283296939523055 0.0 0.0 0.0 0.0 0.0 0.0 3.242333525299308e-17 2.7472729469470933 1.6124396717614946 0.20210212916279716 -0.0004433664631237486 0.0 3.242333525299308e-17 2.7472729469470933 1.6124396717614946 0.20210212916279716 -0.0004433664631237486 0.0 -0.13880368290309342 -0.4861072195867951 0.20203002553360788 -0.004898576389600767 -3.1004921576356095 -0.4814594871319443 0.0 0.0 0.0 0.0 0.0 0.0 0.0 0.0 0.0 0.0 0.0 0.0 -0.13880368290309342 -0.4861072195867951 0.20203002553360788 -0.004898576389600767 -3.1004921576356095 -0.4814594871319443 0.0 0.0 0.0 0.0 0.0 0.0 0 25.5 25.0 24.5 24.0 23.5 23.5 0.57423 7 253 253 253 253 253 253 1 0.042914737479316616 2.977906143693819 -9.35749076006264 1.0 1.0 0.0 48.0 48.0 0.0 0.0 0.0 0.0 0.0 0.0 0.0 0 2
312.234 -1.580784545402632 -1.8467629753013064 -1.967103506070437 -1.2065908317885636 1.5643555725490146 -0.0058283296939523055 0.0 0.0 0.0 0.0 0.0 0.0 0.0 0.0 0.0 0.0 0.0 0.0 3.242333525299308e-17 2.7472729469470933 1.6124396717614946 0.20210212916279716 -0.0004433664631237486 0.0 3.219806440432234e-16 27.281854439662943 16.0123676341003 1.5707276427468015 -0.003445821983074618 0.0 -1.580784545402632 -1.8467629753013064 -1.967103506070437 -1.2065908317885636 1.5643555725490146 -0.0058283296939523055 0.0 0.0 0.0 0.0 0.0 0.0 3.242333525299308e-17 2.7472729469470933 1.6124396717614946 0.20210212916279716 -0.0004433664631237486 0.0 3.242333525299308e-17 2.7472729469470933 1.6124396717614946 0.20210212916279716 -0.0004433664631237486 0.0 -0.13880368290309342 -0.4861072195867951 0.20203002553360788 -0.004898576389600767 -3.1004921576356095 -0.4814594871319443 0.0 0.0 0.0 0.0 0.0 0.0 0.0 0.0 0.0 0.0 0.0 0.0 -0.13880368290309342 -0.4861072195867951 0.20203002553360788 -0.004898576389600767 -3.1004921576356095 -0.4814594871319443 0.0 0.0 0.0 0.0 0.0 0.0 0 25.5 25.0 24.5 24.0 23.5 23.5 0.230266 7 253 253 253 253 253 253 1 0.042914737479316616 2.977906143693819 -9.35749076006264 1.0 1.0 0.0 48.0 48.0 0.0 0.0 0.0 0.0 0.0 0.0 0.0 0 2
312.24199999999996 -1.580784545402632 -1.8467629753013064 -1.967103506070437 -1.2065908317885636 1.5643555725490146 -0.0058283296939523055 0.0 0.0 0.0 0.0 0.0 0.0 0.0 0.0 0.0 0.0 0.0 0.0 3.242333525299308e-17 2.7472729469470933 1.6124396717614946 0.20210212916279716 -0.0004433664631237486 0.0 3.219806440432234e-16 27.281854439662943 16.0123676341003 1.5707276427468015 -0.003445821983074618 0.0 -1.580784545402632 -1.8467629753013064 -1.967103506070437 -1.2065908317885636 1.5643555725490146 -0.0058283296939523055 0.0 0.0 0.0 0.0 0.0 0.0 3.242333525299308e-17 2.7472729469470933 1.6124396717614946 0.20210212916279716 -0.0004433664631237486 0.0 3.242333525299308e-17 2.7472729469470933 1.6124396717614946 0.20210212916279716 -0.0004433664631237486 0.0 -0.13880368290309342 -0.4861072195867951 0.20203002553360788 -0.004898576389600767 -3.1004921576356095 -0.4814594871319443 0.0 0.0 0.0 0.0 0.0 0.0 0.0 0.0 0.0 0.0 0.0 0.0 -0.13880368290309342 -0.4861072195867951 0.20203002553360788 -0.004898576389600767 -3.1004921576356095 -0.4814594871319443 0.0 0.0 0.0 0.0 0.0 0.0 0 25.5 25.0 24.5 24.0 23.5 23.5 0.27725700000000003 7 253 253 253 253 253 253 1 0.042914737479316616 2.977906143693819 -9.35749076006264 1.0 1.0 0.0 48.0 48.0 0.0 0.0 0.0 0.0 0.0 0.0 0.0 0 2
312.25 -1.580784545402632 -1.8467629753013064 -1.967103506070437 -1.2065908317885636 1.5643555725490146 -0.0058283296939523055 0.0 0.0 0.0 0.0 0.0 0.0 0.0 0.0 0.0 0.0 0.0 0.0 3.242333525299308e-17 2.7472729469470933 1.6124396717614946 0.20210212916279716 -0.0004433664631237486 0.0 3.219806440432234e-16 27.281854439662943 16.0123676341003 1.5707276427468015 -0.003445821983074618 0.0 -1.580784545402632 -1.8467629753013064 -1.967103506070437 -1.2065908317885636 1.5643555725490146 -0.0058283296939523055 0.0 0.0 0.0 0.0 0.0 0.0 3.242333525299308e-17 2.7472729469470933 1.6124396717614946 0.20210212916279716 -0.0004433664631237486 0.0 3.242333525299308e-17 2.7472729469470933 1.6124396717614946 0.20210212916279716 -0.0004433664631237486 0.0 -0.13880368290309342 -0.4861072195867951 0.20203002553360788 -0.004898576389600767 -3.1004921576356095 -0.4814594871319443 0.0 0.0 0.0 0.0 0.0 0.0 0.0 0.0 0.0 0.0 0.0 0.0 -0.13880368290309342 -0.4861072195867951 0.20203002553360788 -0.004898576389600767 -3.1004921576356095 -0.4814594871319443 0.0 0.0 0.0 0.0 0.0 0.0 0 25.5 25.0 24.5 24.0 23.5 23.5 0.15510200000000002 7 253 253 253 253 253 253 1 0.042914737479316616 2.977906143693819 -9.35749076006264 1.0 1.0 0.0 48.0 48.0 0.0 0.0 0.0 0.0 0.0 0.0 0.0 0 2
312.258 -1.580784545402632 -1.8467629753013064 -1.967103506070437 -1.2065908317885636 1.5643555725490146 -0.0058283296939523055 0.0 0.0 0.0 0.0 0.0 0.0 0.0 0.0 0.0 0.0 0.0 0.0 3.242333525299308e-17 2.7472729469470933 1.6124396717614946 0.20210212916279716 -0.0004433664631237486 0.0 3.219806440432234e-16 27.281854439662943 16.0123676341003 1.5707276427468015 -0.003445821983074618 0.0 -1.580784545402632 -1.8467629753013064 -1.967103506070437 -1.2065908317885636 1.5643555725490146 -0.0058283296939523055 0.0 0.0 0.0 0.0 0.0 0.0 3.242333525299308e-17 2.7472729469470933 1.6124396717614946 0.20210212916279716 -0.0004433664631237486 0.0 3.242333525299308e-17 2.7472729469470933 1.6124396717614946 0.20210212916279716 -0.0004433664631237486 0.0 -0.13880368290309342 -0.4861072195867951 0.20203002553360788 -0.004898576389600767 -3.1004921576356095 -0.4814594871319443 0.0 0.0 0.0 0.0 0.0 0.0 0.0 0.0 0.0 0.0 0.0 0.0 -0.13880368290309342 -0.4861072195867951 0.20203002553360788 -0.004898576389600767 -3.1004921576356095 -0.4814594871319443 0.0 0.0 0.0 0.0 0.0 0.0 0 25.5 25.0 24.5 24.0 23.5 23.5 0.172044 7 253 253 253 253 253 253 1 0.042914737479316616 2.977906143693819 -9.35749076006264 1.0 1.0 0.0 48.0 48.0 0.0 0.0 0.0 0.0 0.0 0.0 0.0 0 2
312.26599999999996 -1.580784545402632 -1.8467629753013064 -1.967103506070437 -1.2065908317885636 1.5643555725490146 -0.0058283296939523055 0.0 0.0 0.0 0.0 0.0 0.0 0.0 0.0 0.0 0.0 0.0 0.0 3.242333525299308e-17 2.7472729469470933 1.6124396717614946 0.20210212916279716 -0.0004433664631237486 0.0 3.219806440432234e-16 27.281854439662943 16.0123676341003 1.5707276427468015 -0.003445821983074618 0.0 -1.580784545402632 -1.8467629753013064 -1.967103506070437 -1.2065908317885636 1.5643555725490146 -0.0058283296939523055 0.0 0.0 0.0 0.0 0.0 0.0 3.242333525299308e-17 2.7472729469470933 1.6124396717614946 0.20210212916279716 -0.0004433664631237486 0.0 3.242333525299308e-17 2.7472729469470933 1.6124396717614946 0.20210212916279716 -0.0004433664631237486 0.0 -0.13880368290309342 -0.4861072195867951 0.20203002553360788 -0.004898576389600767 -3.1004921576356095 -0.4814594871319443 0.0 0.0 0.0 0.0 0.0 0.0 0.0 0.0 0.0 0.0 0.0 0.0 -0.13880368290309342 -0.4861072195867951 0.20203002553360788 -0.004898576389600767 -3.1004921576356095 -0.4814594871319443 0.0 0.0 0.0 0.0 0.0 0.0 0 25.5 25.0 24.5 24.0 23.5 23.5 0.312908 7 253 253 253 253 253 253 1 0.042914737479316616 2.977906143693819 -9.35749076006264 1.0 1.0 0.0 48.0 48.0 0.0 0.0 0.0 0.0 0.0 0.0 0.0 0 2
312.274 -1.580784545402632 -1.8467629753013064 -1.967103506070437 -1.2065908317885636 1.5643555725490146 -0.0058283296939523055 0.0 0.0 0.0 0.0 0.0 0.0 0.0 0.0 0.0 0.0 0.0 0.0 3.242333525299308e-17 2.7472729469470933 1.6124396717614946 0.20210212916279716 -0.0004433664631237486 0.0 3.219806440432234e-16 27.281854439662943 16.0123676341003 1.5707276427468015 -0.003445821983074618 0.0 -1.580784545402632 -1.8467629753013064 -1.967103506070437 -1.2065908317885636 1.5643555725490146 -0.0058283296939523055 0.0 0.0 0.0 0.0 0.0 0.0 3.242333525299308e-17 2.7472729469470933 1.6124396717614946 0.20210212916279716 -0.0004433664631237486 0.0 3.242333525299308e-17 2.7472729469470933 1.6124396717614946 0.20210212916279716 -0.0004433664631237486 0.0 -0.13880368290309342 -0.4861072195867951 0.20203002553360788 -0.004898576389600767 -3.1004921576356095 -0.4814594871319443 0.0 0.0 0.0 0.0 0.0 0.0 0.0 0.0 0.0 0.0 0.0 0.0 -0.13880368290309342 -0.4861072195867951 0.20203002553360788 -0.004898576389600767 -3.1004921576356095 -0.4814594871319443 0.0 0.0 0.0 0.0 0.0 0.0 0 25.5 25.0 24.5 24.0 23.5 23.5 0.141725 7 253 253 253 253 253 253 1 0.042914737479316616 2.977906143693819 -9.35749076006264 1.0 1.0 0.0 48.0 48.0 0.0 0.0 0.0 0.0 0.0 0.0 0.0 0 2
312.282 -1.580784545402632 -1.8467629753013064 -1.967103506070437 -1.2065908317885636 1.5643555725490146 -0.0058283296939523055 0.0 0.0 0.0 0.0 0.0 0.0 0.0 0.0 0.0 0.0 0.0 0.0 3.242333525299308e-17 2.7472729469470933 1.6124396717614946 0.20210212916279716 -0.0004433664631237486 0.0 3.219806440432234e-16 27.281854439662943 16.0123676341003 1.5707276427468015 -0.003445821983074618 0.0 -1.580784545402632 -1.8467629753013064 -1.967103506070437 -1.2065908317885636 1.5643555725490146 -0.0058283296939523055 0.0 0.0 0.0 0.0 0.0 0.0 3.242333525299308e-17 2.7472729469470933 1.6124396717614946 0.20210212916279716 -0.0004433664631237486 0.0 3.242333525299308e-17 2.7472729469470933 1.6124396717614946 0.20210212916279716 -0.0004433664631237486 0.0 -0.13880368290309342 -0.4861072195867951 0.20203002553360788 -0.004898576389600767 -3.1004921576356095 -0.4814594871319443 0.0 0.0 0.0 0.0 0.0 0.0 0.0 0.0 0.0 0.0 0.0 0.0 -0.13880368290309342 -0.4861072195867951 0.20203002553360788 -0.004898576389600767 -3.1004921576356095 -0.4814594871319443 0.0 0.0 0.0 0.0 0.0 0.0 0 25.5 25.0 24.5 24.0 23.5 23.5 0.154648 7 253 253 253 253 253 253 1 0.042914737479316616 2.977906143693819 -9.35749076006264 1.0 1.0 0.0 48.0 48.0 0.0 0.0 0.0 0.0 0.0 0.0 0.0 0 2
312.28999999999996 -1.580784545402632 -1.8467629753013064 -1.967103506070437 -1.2065908317885636 1.5643555725490146 -0.0058283296939523055 0.0 0.0 0.0 0.0 0.0 0.0 0.0 0.0 0.0 0.0 0.0 0.0 3.242333525299308e-17 2.7472729469470933 1.6124396717614946 0.20210212916279716 -0.0004433664631237486 0.0 3.219806440432234e-16 27.281854439662943 16.0123676341003 1.5707276427468015 -0.003445821983074618 0.0 -1.580784545402632 -1.8467629753013064 -1.967103506070437 -1.2065908317885636 1.5643555725490146 -0.0058283296939523055 0.0 0.0 0.0 0.0 0.0 0.0 3.242333525299308e-17 2.7472729469470933 1.6124396717614946 0.20210212916279716 -0.0004433664631237486 0.0 3.242333525299308e-17 2.7472729469470933 1.6124396717614946 0.20210212916279716 -0.0004433664631237486 0.0 -0.13880368290309342 -0.4861072195867951 0.20203002553360788 -0.004898576389600767 -3.1004921576356095 -0.4814594871319443 0.0 0.0 0.0 0.0 0.0 0.0 0.0 0.0 0.0 0.0 0.0 0.0 -0.13880368290309342 -0.4861072195867951 0.20203002553360788 -0.004898576389600767 -3.1004921576356095 -0.4814594871319443 0.0 0.0 0.0 0.0 0.0 0.0 0 25.5 25.0 24.5 24.0 23.5 23.5 0.125092 7 253 253 253 253 253 253 1 0.042914737479316616 2.977906143693819 -9.35749076006264 1.0 1.0 0.0 48.0 48.0 0.0 0.0 0.0 0.0 0.0 0.0 0.0 0 2
312.298 -1.580784545402632 -1.8467629753013064 -1.967103506070437 -1.2065908317885636 1.5643555725490146 -0.0058283296939523055 0.0 0.0 0.0 0.0 0.0 0.0 0.0 0.0 0.0 0.0 0.0 0.0 3.242333525299308e-17 2.7472729469470933 1.6124396717614946 0.20210212916279716 -0.0004433664631237486 0.0 3.219806440432234e-16 27.281854439662943 16.0123676341003 1.5707276427468015 -0.003445821983074618 0.0 -1.580784545402632 -1.8467629753013064 -1.967103506070437 -1.2065908317885636 1.5643555725490146 -0.0058283296939523055 0.0 0.0 0.0 0.0 0.0 0.0 3.242333525299308e-17 2.7472729469470933 1.6124396717614946 0.20210212916279716 -0.0004433664631237486 0.0 3.242333525299308e-17 2.7472729469470933 1.6124396717614946 0.20210212916279716 -0.0004433664631237486 0.0 -0.13880368290309342 -0.4861072195867951 0.20203002553360788 -0.004898576389600767 -3.1004921576356095 -0.4814594871319443 0.0 0.0 0.0 0.0 0.0 0.0 0.0 0.0 0.0 0.0 0.0 0.0 -0.13880368290309342 -0.4861072195867951 0.20203002553360788 -0.004898576389600767 -3.1004921576356095 -0.4814594871319443 0.0 0.0 0.0 0.0 0.0 0.0 0 25.5 25.0 24.5 24.0 23.5 23.5 0.14526 7 253 253 253 253 253 253 1 0.042914737479316616 2.977906143693819 -9.35749076006264 1.0 1.0 0.0 48.0 48.0 0.0 0.0 0.0 0.0 0.0 0.0 0.0 0 2
312.306 -1.580784545402632 -1.8467629753013064 -1.967103506070437 -1.2065908317885636 1.5643555725490146 -0.0058283296939523055 0.0 0.0 0.0 0.0 0.0 0.0 0.0 0.0 0.0 0.0 0.0 0.0 3.242333525299308e-17 2.7472729469470933 1.6124396717614946 0.20210212916279716 -0.0004433664631237486 0.0 3.219806440432234e-16 27.281854439662943 16.0123676341003 1.5707276427468015 -0.003445821983074618 0.0 -1.580784545402632 -1.8467629753013064 -1.967103506070437 -1.2065908317885636 1.5643555725490146 -0.0058283296939523055 0.0 0.0 0.0 0.0 0.0 0.0 3.242333525299308e-17 2.7472729469470933 1.6124396717614946 0.20210212916279716 -0.0004433664631237486 0.0 3.242333525299308e-17 2.7472729469470933 1.6124396717614946 0.20210212916279716 -0.0004433664631237486 0.0 -0.13880368290309342 -0.4861072195867951 0.20203002553360788 -0.004898576389600767 -3.1004921576356095 -0.4814594871319443 0.0 0.0 0.0 0.0 0.0 0.0 0.0 0.0 0.0 0.0 0.0 0.0 -0.13880368290309342 -0.4861072195867951 0.20203002553360788 -0.004898576389600767 -3.1004921576356095 -0.4814594871319443 0.0 0.0 0.0 0.0 0.0 0.0 0 25.5 25.0 24.5 24.0 23.5 23.5 0.159443 7 253 253 253 253 253 253 1 0.042914737479316616 2.977906143693819 -9.35749076006264 1.0 1.0 0.0 48.0 48.0 0.0 0.0 0.0 0.0 0.0 0.0 0.0 0 2
312.31399999999996 -1.580784545402632 -1.8467629753013064 -1.967103506070437 -1.2065908317885636 1.5643555725490146 -0.0058283296939523055 0.0 0.0 0.0 0.0 0.0 0.0 0.0 0.0 0.0 0.0 0.0 0.0 3.242333525299308e-17 2.7472729469470933 1.6124396717614946 0.20210212916279716 -0.0004433664631237486 0.0 3.219806440432234e-16 27.281854439662943 16.0123676341003 1.5707276427468015 -0.003445821983074618 0.0 -1.580784545402632 -1.8467629753013064 -1.967103506070437 -1.2065908317885636 1.5643555725490146 -0.0058283296939523055 0.0 0.0 0.0 0.0 0.0 0.0 3.242333525299308e-17 2.7472729469470933 1.6124396717614946 0.20210212916279716 -0.0004433664631237486 0.0 3.242333525299308e-17 2.7472729469470933 1.6124396717614946 0.20210212916279716 -0.0004433664631237486 0.0 -0.13880368290309342 -0.4861072195867951 0.20203002553360788 -0.004898576389600767 -3.1004921576356095 -0.4814594871319443 0.0 0.0 0.0 0.0 0.0 0.0 0.0 0.0 0.0 0.0 0.0 0.0 -0.13880368290309342 -0.4861072195867951 0.20203002553360788 -0.004898576389600767 -3.1004921576356095 -0.4814594871319443 0.0 0.0 0.0 0.0 0.0 0.0 0 25.5 25.0 24.5 24.0 23.5 23.5 0.17475100000000002 7 253 253 253 253 253 253 1 0.042914737479316616 2.977906143693819 -9.35749076006264 1.0 1.0 0.0 48.0 48.0 0.0 0.0 0.0 0.0 0.0 0.0 0.0 0 2
312.322 -1.580784545402632 -1.8467629753013064 -1.967103506070437 -1.2065908317885636 1.5643555725490146 -0.0058283296939523055 0.0 0.0 0.0 0.0 0.0 0.0 0.0 0.0 0.0 0.0 0.0 0.0 3.242333525299308e-17 2.7472729469470933 1.6124396717614946 0.20210212916279716 -0.0004433664631237486 0.0 3.219806440432234e-16 27.281854439662943 16.0123676341003 1.5707276427468015 -0.003445821983074618 0.0 -1.580784545402632 -1.8467629753013064 -1.967103506070437 -1.2065908317885636 1.5643555725490146 -0.0058283296939523055 0.0 0.0 0.0 0.0 0.0 0.0 3.242333525299308e-17 2.7472729469470933 1.6124396717614946 0.20210212916279716 -0.0004433664631237486 0.0 3.242333525299308e-17 2.7472729469470933 1.6124396717614946 0.20210212916279716 -0.0004433664631237486 0.0 -0.13880368290309342 -0.4861072195867951 0.20203002553360788 -0.004898576389600767 -3.1004921576356095 -0.4814594871319443 0.0 0.0 0.0 0.0 0.0 0.0 0.0 0.0 0.0 0.0 0.0 0.0 -0.13880368290309342 -0.4861072195867951 0.20203002553360788 -0.004898576389600767 -3.1004921576356095 -0.4814594871319443 0.0 0.0 0.0 0.0 0.0 0.0 0 25.5 25.0 24.5 24.0 23.5 23.5 0.122104 7 253 253 253 253 253 253 1 0.042914737479316616 2.977906143693819 -9.35749076006264 1.0 1.0 0.0 48.0 48.0 0.0 0.0 0.0 0.0 0.0 0.0 0.0 0 2
312.33 -1.580784545402632 -1.8467629753013064 -1.967103506070437 -1.2065908317885636 1.5643555725490146 -0.0058283296939523055 0.0 0.0 0.0 0.0 0.0 0.0 0.0 0.0 0.0 0.0 0.0 0.0 3.242333525299308e-17 2.7472729469470933 1.6124396717614946 0.20210212916279716 -0.0004433664631237486 0.0 3.219806440432234e-16 27.281854439662943 16.0123676341003 1.5707276427468015 -0.003445821983074618 0.0 -1.580784545402632 -1.8467629753013064 -1.967103506070437 -1.2065908317885636 1.5643555725490146 -0.0058283296939523055 0.0 0.0 0.0 0.0 0.0 0.0 3.242333525299308e-17 2.7472729469470933 1.6124396717614946 0.20210212916279716 -0.0004433664631237486 0.0 3.242333525299308e-17 2.7472729469470933 1.6124396717614946 0.20210212916279716 -0.0004433664631237486 0.0 -0.13880368290309342 -0.4861072195867951 0.20203002553360788 -0.004898576389600767 -3.1004921576356095 -0.4814594871319443 0.0 0.0 0.0 0.0 0.0 0.0 0.0 0.0 0.0 0.0 0.0 0.0 -0.13880368290309342 -0.4861072195867951 0.20203002553360788 -0.004898576389600767 -3.1004921576356095 -0.4814594871319443 0.0 0.0 0.0 0.0 0.0 0.0 0 25.5 25.0 24.5 24.0 23.5 23.5 0.121264 7 253 253 253 253 253 253 1 0.042914737479316616 2.977906143693819 -9.35749076006264 1.0 1.0 0.0 48.0 48.0 0.0 0.0 0.0 0.0 0.0 0.0 0.0 0 2
312.33799999999997 -1.580784545402632 -1.8467629753013064 -1.967103506070437 -1.2065908317885636 1.5643555725490146 -0.0058283296939523055 0.0 0.0 0.0 0.0 0.0 0.0 0.0 0.0 0.0 0.0 0.0 0.0 3.242333525299308e-17 2.7472729469470933 1.6124396717614946 0.20210212916279716 -0.0004433664631237486 0.0 3.219806440432234e-16 27.281854439662943 16.0123676341003 1.5707276427468015 -0.003445821983074618 0.0 -1.580784545402632 -1.8467629753013064 -1.967103506070437 -1.2065908317885636 1.5643555725490146 -0.0058283296939523055 0.0 0.0 0.0 0.0 0.0 0.0 3.242333525299308e-17 2.7472729469470933 1.6124396717614946 0.20210212916279716 -0.0004433664631237486 0.0 3.242333525299308e-17 2.7472729469470933 1.6124396717614946 0.20210212916279716 -0.0004433664631237486 0.0 -0.13880368290309342 -0.4861072195867951 0.20203002553360788 -0.004898576389600767 -3.1004921576356095 -0.4814594871319443 0.0 0.0 0.0 0.0 0.0 0.0 0.0 0.0 0.0 0.0 0.0 0.0 -0.13880368290309342 -0.4861072195867951 0.20203002553360788 -0.004898576389600767 -3.1004921576356095 -0.4814594871319443 0.0 0.0 0.0 0.0 0.0 0.0 0 25.5 25.0 24.5 24.0 23.5 23.5 0.12108 7 253 253 253 253 253 253 1 0.042914737479316616 2.977906143693819 -9.35749076006264 1.0 1.0 0.0 48.0 48.0 0.0 0.0 0.0 0.0 0.0 0.0 0.0 0 2
312.346 -1.580784545402632 -1.8467629753013064 -1.967103506070437 -1.2065908317885636 1.5643555725490146 -0.0058283296939523055 0.0 0.0 0.0 0.0 0.0 0.0 0.0 0.0 0.0 0.0 0.0 0.0 3.242333525299308e-17 2.7472729469470933 1.6124396717614946 0.20210212916279716 -0.0004433664631237486 0.0 3.219806440432234e-16 27.281854439662943 16.0123676341003 1.5707276427468015 -0.003445821983074618 0.0 -1.580784545402632 -1.8467629753013064 -1.967103506070437 -1.2065908317885636 1.5643555725490146 -0.0058283296939523055 0.0 0.0 0.0 0.0 0.0 0.0 3.242333525299308e-17 2.7472729469470933 1.6124396717614946 0.20210212916279716 -0.0004433664631237486 0.0 3.242333525299308e-17 2.7472729469470933 1.6124396717614946 0.20210212916279716 -0.0004433664631237486 0.0 -0.13880368290309342 -0.4861072195867951 0.20203002553360788 -0.004898576389600767 -3.1004921576356095 -0.4814594871319443 0.0 0.0 0.0 0.0 0.0 0.0 0.0 0.0 0.0 0.0 0.0 0.0 -0.13880368290309342 -0.4861072195867951 0.20203002553360788 -0.004898576389600767 -3.1004921576356095 -0.4814594871319443 0.0 0.0 0.0 0.0 0.0 0.0 0 25.5 25.0 24.5 24.0 23.5 23.5 0.163168 7 253 253 253 253 253 253 1 0.042914737479316616 2.977906143693819 -9.35749076006264 1.0 1.0 0.0 48.0 48.0 0.0 0.0 0.0 0.0 0.0 0.0 0.0 0 2
312.354 -1.580784545402632 -1.8467629753013064 -1.967103506070437 -1.2065908317885636 1.5643555725490146 -0.0058283296939523055 0.0 0.0 0.0 0.0 0.0 0.0 0.0 0.0 0.0 0.0 0.0 0.0 3.242333525299308e-17 2.7472729469470933 1.6124396717614946 0.20210212916279716 -0.0004433664631237486 0.0 3.219806440432234e-16 27.281854439662943 16.0123676341003 1.5707276427468015 -0.003445821983074618 0.0 -1.580784545402632 -1.8467629753013064 -1.967103506070437 -1.2065908317885636 1.5643555725490146 -0.0058283296939523055 0.0 0.0 0.0 0.0 0.0 0.0 3.242333525299308e-17 2.7472729469470933 1.6124396717614946 0.20210212916279716 -0.0004433664631237486 0.0 3.242333525299308e-17 2.7472729469470933 1.6124396717614946 0.20210212916279716 -0.0004433664631237486 0.0 -0.13880368290309342 -0.4861072195867951 0.20203002553360788 -0.004898576389600767 -3.1004921576356095 -0.4814594871319443 0.0 0.0 0.0 0.0 0.0 0.0 0.0 0.0 0.0 0.0 0.0 0.0 -0.13880368290309342 -0.4861072195867951 0.20203002553360788 -0.004898576389600767 -3.1004921576356095 -0.4814594871319443 0.0 0.0 0.0 0.0 0.0 0.0 0 25.5 25.0 24.5 24.0 23.5 23.5 0.270583 7 253 253 253 253 253 253 1 0.042914737479316616 2.977906143693819 -9.35749076006264 1.0 1.0 0.0 48.0 48.0 0.0 0.0 0.0 0.0 0.0 0.0 0.0 0 2
312.36199999999997 -1.580784545402632 -1.8467629753013064 -1.967103506070437 -1.2065908317885636 1.5643555725490146 -0.0058283296939523055 0.0 0.0 0.0 0.0 0.0 0.0 0.0 0.0 0.0 0.0 0.0 0.0 3.242333525299308e-17 2.7472729469470933 1.6124396717614946 0.20210212916279716 -0.0004433664631237486 0.0 3.219806440432234e-16 27.281854439662943 16.0123676341003 1.5707276427468015 -0.003445821983074618 0.0 -1.580784545402632 -1.8467629753013064 -1.967103506070437 -1.2065908317885636 1.5643555725490146 -0.0058283296939523055 0.0 0.0 0.0 0.0 0.0 0.0 3.242333525299308e-17 2.7472729469470933 1.6124396717614946 0.20210212916279716 -0.0004433664631237486 0.0 3.242333525299308e-17 2.7472729469470933 1.6124396717614946 0.20210212916279716 -0.0004433664631237486 0.0 -0.13880368290309342 -0.4861072195867951 0.20203002553360788 -0.004898576389600767 -3.1004921576356095 -0.4814594871319443 0.0 0.0 0.0 0.0 0.0 0.0 0.0 0.0 0.0 0.0 0.0 0.0 -0.13880368290309342 -0.4861072195867951 0.20203002553360788 -0.004898576389600767 -3.1004921576356095 -0.4814594871319443 0.0 0.0 0.0 0.0 0.0 0.0 0 25.5 25.0 24.5 24.0 23.5 23.5 0.22003999999999999 7 253 253 253 253 253 253 1 0.042914737479316616 2.977906143693819 -9.35749076006264 1.0 1.0 0.0 48.0 48.0 0.0 0.0 0.0 0.0 0.0 0.0 0.0 0 2
312.37 -1.580784545402632 -1.8467629753013064 -1.967103506070437 -1.2065908317885636 1.5643555725490146 -0.0058283296939523055 0.0 0.0 0.0 0.0 0.0 0.0 0.0 0.0 0.0 0.0 0.0 0.0 3.242333525299308e-17 2.7472729469470933 1.6124396717614946 0.20210212916279716 -0.0004433664631237486 0.0 3.219806440432234e-16 27.281854439662943 16.0123676341003 1.5707276427468015 -0.003445821983074618 0.0 -1.580784545402632 -1.8467629753013064 -1.967103506070437 -1.2065908317885636 1.5643555725490146 -0.0058283296939523055 0.0 0.0 0.0 0.0 0.0 0.0 3.242333525299308e-17 2.7472729469470933 1.6124396717614946 0.20210212916279716 -0.0004433664631237486 0.0 3.242333525299308e-17 2.7472729469470933 1.6124396717614946 0.20210212916279716 -0.0004433664631237486 0.0 -0.13880368290309342 -0.4861072195867951 0.20203002553360788 -0.004898576389600767 -3.1004921576356095 -0.4814594871319443 0.0 0.0 0.0 0.0 0.0 0.0 0.0 0.0 0.0 0.0 0.0 0.0 -0.13880368290309342 -0.4861072195867951 0.20203002553360788 -0.004898576389600767 -3.1004921576356095 -0.4814594871319443 0.0 0.0 0.0 0.0 0.0 0.0 0 25.5 25.0 24.5 24.0 23.5 23.5 0.221037 7 253 253 253 253 253 253 1 0.042914737479316616 2.977906143693819 -9.35749076006264 1.0 1.0 0.0 48.0 48.0 0.0 0.0 0.0 0.0 0.0 0.0 0.0 0 2
312.378 -1.580784545402632 -1.8467629753013064 -1.967103506070437 -1.2065908317885636 1.5643555725490146 -0.0058283296939523055 0.0 0.0 0.0 0.0 0.0 0.0 0.0 0.0 0.0 0.0 0.0 0.0 3.242333525299308e-17 2.7472729469470933 1.6124396717614946 0.20210212916279716 -0.0004433664631237486 0.0 3.219806440432234e-16 27.281854439662943 16.0123676341003 1.5707276427468015 -0.003445821983074618 0.0 -1.580784545402632 -1.8467629753013064 -1.967103506070437 -1.2065908317885636 1.5643555725490146 -0.0058283296939523055 0.0 0.0 0.0 0.0 0.0 0.0 3.242333525299308e-17 2.7472729469470933 1.6124396717614946 0.20210212916279716 -0.0004433664631237486 0.0 3.242333525299308e-17 2.7472729469470933 1.6124396717614946 0.20210212916279716 -0.0004433664631237486 0.0 -0.13880368290309342 -0.4861072195867951 0.20203002553360788 -0.004898576389600767 -3.1004921576356095 -0.4814594871319443 0.0 0.0 0.0 0.0 0.0 0.0 0.0 0.0 0.0 0.0 0.0 0.0 -0.13880368290309342 -0.4861072195867951 0.20203002553360788 -0.004898576389600767 -3.1004921576356095 -0.4814594871319443 0.0 0.0 0.0 0.0 0.0 0.0 0 25.5 25.0 24.5 24.0 23.5 23.5 0.310159 7 253 253 253 253 253 253 1 0.042914737479316616 2.977906143693819 -9.35749076006264 1.0 1.0 0.0 48.0 48.0 0.0 0.0 0.0 0.0 0.0 0.0 0.0 0 2
312.38599999999997 -1.580784545402632 -1.8467629753013064 -1.967103506070437 -1.2065908317885636 1.5643555725490146 -0.0058283296939523055 0.0 0.0 0.0 0.0 0.0 0.0 0.0 0.0 0.0 0.0 0.0 0.0 3.242333525299308e-17 2.7472729469470933 1.6124396717614946 0.20210212916279716 -0.0004433664631237486 0.0 3.219806440432234e-16 27.281854439662943 16.0123676341003 1.5707276427468015 -0.003445821983074618 0.0 -1.580784545402632 -1.8467629753013064 -1.967103506070437 -1.2065908317885636 1.5643555725490146 -0.0058283296939523055 0.0 0.0 0.0 0.0 0.0 0.0 3.242333525299308e-17 2.7472729469470933 1.6124396717614946 0.20210212916279716 -0.0004433664631237486 0.0 3.242333525299308e-17 2.7472729469470933 1.6124396717614946 0.20210212916279716 -0.0004433664631237486 0.0 -0.13880368290309342 -0.4861072195867951 0.20203002553360788 -0.004898576389600767 -3.1004921576356095 -0.4814594871319443 0.0 0.0 0.0 0.0 0.0 0.0 0.0 0.0 0.0 0.0 0.0 0.0 -0.13880368290309342 -0.4861072195867951 0.20203002553360788 -0.004898576389600767 -3.1004921576356095 -0.4814594871319443 0.0 0.0 0.0 0.0 0.0 0.0 0 25.5 25.0 24.5 24.0 23.5 23.5 0.41349400000000003 7 253 253 253 253 253 253 1 0.042914737479316616 2.977906143693819 -9.35749076006264 1.0 1.0 0.0 48.0 48.0 0.0 0.0 0.0 0.0 0.0 0.0 0.0 0 2
312.394 -1.580784545402632 -1.8467629753013064 -1.967103506070437 -1.2065908317885636 1.5643555725490146 -0.0058283296939523055 0.0 0.0 0.0 0.0 0.0 0.0 0.0 0.0 0.0 0.0 0.0 0.0 3.242333525299308e-17 2.7472729469470933 1.6124396717614946 0.20210212916279716 -0.0004433664631237486 0.0 3.219806440432234e-16 27.281854439662943 16.0123676341003 1.5707276427468015 -0.003445821983074618 0.0 -1.580784545402632 -1.8467629753013064 -1.967103506070437 -1.2065908317885636 1.5643555725490146 -0.0058283296939523055 0.0 0.0 0.0 0.0 0.0 0.0 3.242333525299308e-17 2.7472729469470933 1.6124396717614946 0.20210212916279716 -0.0004433664631237486 0.0 3.242333525299308e-17 2.7472729469470933 1.6124396717614946 0.20210212916279716 -0.0004433664631237486 0.0 -0.13880368290309342 -0.4861072195867951 0.20203002553360788 -0.004898576389600767 -3.1004921576356095 -0.4814594871319443 0.0 0.0 0.0 0.0 0.0 0.0 0.0 0.0 0.0 0.0 0.0 0.0 -0.13880368290309342 -0.4861072195867951 0.20203002553360788 -0.004898576389600767 -3.1004921576356095 -0.4814594871319443 0.0 0.0 0.0 0.0 0.0 0.0 0 25.5 25.0 24.5 24.0 23.5 23.5 0.434178 7 253 253 253 253 253 253 1 0.042914737479316616 2.977906143693819 -9.35749076006264 1.0 1.0 0.0 48.0 48.0 0.0 0.0 0.0 0.0 0.0 0.0 0.0 0 2
312.402 -1.580784545402632 -1.8467629753013064 -1.967103506070437 -1.2065908317885636 1.5643555725490146 -0.0058283296939523055 0.0 0.0 0.0 0.0 0.0 0.0 0.0 0.0 0.0 0.0 0.0 0.0 3.242333525299308e-17 2.7472729469470933 1.6124396717614946 0.20210212916279716 -0.0004433664631237486 0.0 3.219806440432234e-16 27.281854439662943 16.0123676341003 1.5707276427468015 -0.003445821983074618 0.0 -1.580784545402632 -1.8467629753013064 -1.967103506070437 -1.2065908317885636 1.5643555725490146 -0.0058283296939523055 0.0 0.0 0.0 0.0 0.0 0.0 3.242333525299308e-17 2.7472729469470933 1.6124396717614946 0.20210212916279716 -0.0004433664631237486 0.0 3.242333525299308e-17 2.7472729469470933 1.6124396717614946 0.20210212916279716 -0.0004433664631237486 0.0 -0.13880368290309342 -0.4861072195867951 0.20203002553360788 -0.004898576389600767 -3.1004921576356095 -0.4814594871319443 0.0 0.0 0.0 0.0 0.0 0.0 0.0 0.0 0.0 0.0 0.0 0.0 -0.13880368290309342 -0.4861072195867951 0.20203002553360788 -0.004898576389600767 -3.1004921576356095 -0.4814594871319443 0.0 0.0 0.0 0.0 0.0 0.0 0 25.5 25.0 24.5 24.0 23.5 23.5 0.46554700000000004 7 253 253 253 253 253 253 1 0.042914737479316616 2.977906143693819 -9.35749076006264 1.0 1.0 0.0 48.0 48.0 0.0 0.0 0.0 0.0 0.0 0.0 0.0 0 2
312.40999999999997 -1.580784545402632 -1.8467629753013064 -1.967103506070437 -1.2065908317885636 1.5643555725490146 -0.0058283296939523055 0.0 0.0 0.0 0.0 0.0 0.0 0.0 0.0 0.0 0.0 0.0 0.0 3.242333525299308e-17 2.7472729469470933 1.6124396717614946 0.20210212916279716 -0.0004433664631237486 0.0 3.219806440432234e-16 27.281854439662943 16.0123676341003 1.5707276427468015 -0.003445821983074618 0.0 -1.580784545402632 -1.8467629753013064 -1.967103506070437 -1.2065908317885636 1.5643555725490146 -0.0058283296939523055 0.0 0.0 0.0 0.0 0.0 0.0 3.242333525299308e-17 2.7472729469470933 1.6124396717614946 0.20210212916279716 -0.0004433664631237486 0.0 3.242333525299308e-17 2.7472729469470933 1.6124396717614946 0.20210212916279716 -0.0004433664631237486 0.0 -0.13880368290309342 -0.4861072195867951 0.20203002553360788 -0.004898576389600767 -3.1004921576356095 -0.4814594871319443 0.0 0.0 0.0 0.0 0.0 0.0 0.0 0.0 0.0 0.0 0.0 0.0 -0.13880368290309342 -0.4861072195867951 0.20203002553360788 -0.004898576389600767 -3.1004921576356095 -0.4814594871319443 0.0 0.0 0.0 0.0 0.0 0.0 0 25.5 25.0 24.5 24.0 23.5 23.5 0.41788400000000003 7 253 253 253 253 253 253 1 0.042914737479316616 2.977906143693819 -9.35749076006264 1.0 1.0 0.0 48.0 48.0 0.0 0.0 0.0 0.0 0.0 0.0 0.0 0 2
312.418 -1.580784545402632 -1.8467629753013064 -1.967103506070437 -1.2065908317885636 1.5643555725490146 -0.0058283296939523055 0.0 0.0 0.0 0.0 0.0 0.0 0.0 0.0 0.0 0.0 0.0 0.0 3.242333525299308e-17 2.7472729469470933 1.6124396717614946 0.20210212916279716 -0.0004433664631237486 0.0 3.219806440432234e-16 27.281854439662943 16.0123676341003 1.5707276427468015 -0.003445821983074618 0.0 -1.580784545402632 -1.8467629753013064 -1.967103506070437 -1.2065908317885636 1.5643555725490146 -0.0058283296939523055 0.0 0.0 0.0 0.0 0.0 0.0 3.242333525299308e-17 2.7472729469470933 1.6124396717614946 0.20210212916279716 -0.0004433664631237486 0.0 3.242333525299308e-17 2.7472729469470933 1.6124396717614946 0.20210212916279716 -0.0004433664631237486 0.0 -0.13880368290309342 -0.4861072195867951 0.20203002553360788 -0.004898576389600767 -3.1004921576356095 -0.4814594871319443 0.0 0.0 0.0 0.0 0.0 0.0 0.0 0.0 0.0 0.0 0.0 0.0 -0.13880368290309342 -0.4861072195867951 0.20203002553360788 -0.004898576389600767 -3.1004921576356095 -0.4814594871319443 0.0 0.0 0.0 0.0 0.0 0.0 0 25.5 25.0 24.5 24.0 23.5 23.5 0.5763630000000001 7 253 253 253 253 253 253 1 0.042914737479316616 2.977906143693819 -9.35749076006264 1.0 1.0 0.0 48.0 48.0 0.0 0.0 0.0 0.0 0.0 0.0 0.0 0 2
312.426 -1.580784545402632 -1.8467629753013064 -1.967103506070437 -1.2065908317885636 1.5643555725490146 -0.0058283296939523055 0.0 0.0 0.0 0.0 0.0 0.0 0.0 0.0 0.0 0.0 0.0 0.0 3.242333525299308e-17 2.7472729469470933 1.6124396717614946 0.20210212916279716 -0.0004433664631237486 0.0 3.219806440432234e-16 27.281854439662943 16.0123676341003 1.5707276427468015 -0.003445821983074618 0.0 -1.580784545402632 -1.8467629753013064 -1.967103506070437 -1.2065908317885636 1.5643555725490146 -0.0058283296939523055 0.0 0.0 0.0 0.0 0.0 0.0 3.242333525299308e-17 2.7472729469470933 1.6124396717614946 0.20210212916279716 -0.0004433664631237486 0.0 3.242333525299308e-17 2.7472729469470933 1.6124396717614946 0.20210212916279716 -0.0004433664631237486 0.0 -0.13880368290309342 -0.4861072195867951 0.20203002553360788 -0.004898576389600767 -3.1004921576356095 -0.4814594871319443 0.0 0.0 0.0 0.0 0.0 0.0 0.0 0.0 0.0 0.0 0.0 0.0 -0.13880368290309342 -0.4861072195867951 0.20203002553360788 -0.004898576389600767 -3.1004921576356095 -0.4814594871319443 0.0 0.0 0.0 0.0 0.0 0.0 0 25.5 25.0 24.5 24.0 23.5 23.5 0.24806299999999998 7 253 253 253 253 253 253 1 0.042914737479316616 2.977906143693819 -9.35749076006264 1.0 1.0 0.0 48.0 48.0 0.0 0.0 0.0 0.0 0.0 0.0 0.0 0 2
312.43399999999997 -1.580784545402632 -1.8467629753013064 -1.967103506070437 -1.2065908317885636 1.5643555725490146 -0.0058283296939523055 0.0 0.0 0.0 0.0 0.0 0.0 0.0 0.0 0.0 0.0 0.0 0.0 3.242333525299308e-17 2.7472729469470933 1.6124396717614946 0.20210212916279716 -0.0004433664631237486 0.0 3.219806440432234e-16 27.281854439662943 16.0123676341003 1.5707276427468015 -0.003445821983074618 0.0 -1.580784545402632 -1.8467629753013064 -1.967103506070437 -1.2065908317885636 1.5643555725490146 -0.0058283296939523055 0.0 0.0 0.0 0.0 0.0 0.0 3.242333525299308e-17 2.7472729469470933 1.6124396717614946 0.20210212916279716 -0.0004433664631237486 0.0 3.242333525299308e-17 2.7472729469470933 1.6124396717614946 0.20210212916279716 -0.0004433664631237486 0.0 -0.13880368290309342 -0.4861072195867951 0.20203002553360788 -0.004898576389600767 -3.1004921576356095 -0.4814594871319443 0.0 0.0 0.0 0.0 0.0 0.0 0.0 0.0 0.0 0.0 0.0 0.0 -0.13880368290309342 -0.4861072195867951 0.20203002553360788 -0.004898576389600767 -3.1004921576356095 -0.4814594871319443 0.0 0.0 0.0 0.0 0.0 0.0 0 25.5 25.0 24.5 24.0 23.5 23.5 0.218886 7 253 253 253 253 253 253 1 0.042914737479316616 2.977906143693819 -9.35749076006264 1.0 1.0 0.0 48.0 48.0 0.0 0.0 0.0 0.0 0.0 0.0 0.0 0 2
312.442 -1.580784545402632 -1.8467629753013064 -1.967103506070437 -1.2065908317885636 1.5643555725490146 -0.0058283296939523055 0.0 0.0 0.0 0.0 0.0 0.0 0.0 0.0 0.0 0.0 0.0 0.0 3.242333525299308e-17 2.7472729469470933 1.6124396717614946 0.20210212916279716 -0.0004433664631237486 0.0 3.219806440432234e-16 27.281854439662943 16.0123676341003 1.5707276427468015 -0.003445821983074618 0.0 -1.580784545402632 -1.8467629753013064 -1.967103506070437 -1.2065908317885636 1.5643555725490146 -0.0058283296939523055 0.0 0.0 0.0 0.0 0.0 0.0 3.242333525299308e-17 2.7472729469470933 1.6124396717614946 0.20210212916279716 -0.0004433664631237486 0.0 3.242333525299308e-17 2.7472729469470933 1.6124396717614946 0.20210212916279716 -0.0004433664631237486 0.0 -0.13880368290309342 -0.4861072195867951 0.20203002553360788 -0.004898576389600767 -3.1004921576356095 -0.4814594871319443 0.0 0.0 0.0 0.0 0.0 0.0 0.0 0.0 0.0 0.0 0.0 0.0 -0.13880368290309342 -0.4861072195867951 0.20203002553360788 -0.004898576389600767 -3.1004921576356095 -0.4814594871319443 0.0 0.0 0.0 0.0 0.0 0.0 0 25.5 25.0 24.5 24.0 23.5 23.5 0.19758699999999998 7 253 253 253 253 253 253 1 0.042914737479316616 2.977906143693819 -9.35749076006264 1.0 1.0 0.0 48.0 48.0 0.0 0.0 0.0 0.0 0.0 0.0 0.0 0 2
312.45 -1.580784545402632 -1.8467629753013064 -1.967103506070437 -1.2065908317885636 1.5643555725490146 -0.0058283296939523055 0.0 0.0 0.0 0.0 0.0 0.0 0.0 0.0 0.0 0.0 0.0 0.0 3.242333525299308e-17 2.7472729469470933 1.6124396717614946 0.20210212916279716 -0.0004433664631237486 0.0 3.219806440432234e-16 27.281854439662943 16.0123676341003 1.5707276427468015 -0.003445821983074618 0.0 -1.580784545402632 -1.8467629753013064 -1.967103506070437 -1.2065908317885636 1.5643555725490146 -0.0058283296939523055 0.0 0.0 0.0 0.0 0.0 0.0 3.242333525299308e-17 2.7472729469470933 1.6124396717614946 0.20210212916279716 -0.0004433664631237486 0.0 3.242333525299308e-17 2.7472729469470933 1.6124396717614946 0.20210212916279716 -0.0004433664631237486 0.0 -0.13880368290309342 -0.4861072195867951 0.20203002553360788 -0.004898576389600767 -3.1004921576356095 -0.4814594871319443 0.0 0.0 0.0 0.0 0.0 0.0 0.0 0.0 0.0 0.0 0.0 0.0 -0.13880368290309342 -0.4861072195867951 0.20203002553360788 -0.004898576389600767 -3.1004921576356095 -0.4814594871319443 0.0 0.0 0.0 0.0 0.0 0.0 0 25.5 25.0 24.5 24.0 23.5 23.5 0.23278000000000001 7 253 253 253 253 253 253 1 0.042914737479316616 2.977906143693819 -9.35749076006264 1.0 1.0 0.0 48.0 48.0 0.0 0.0 0.0 0.0 0.0 0.0 0.0 0 2
