UthiraS/rtde-2.8/rtde/csv files/robot_data_1.csv
timestamp target_q_0 target_q_1 target_q_2 target_q_3 target_q_4 target_q_5 target_qd_0 target_qd_1 target_qd_2 target_qd_3 target_qd_4 target_qd_5 target_qdd_0 target_qdd_1 target_qdd_2 target_qdd_3 target_qdd_4 target_qdd_5 target_current_0 target_current_1 target_current_2 target_current_3 target_current_4 target_current_5 target_moment_0 target_moment_1 target_moment_2 target_moment_3 target_moment_4 target_moment_5 actual_q_0 actual_q_1 actual_q_2 actual_q_3 actual_q_4 actual_q_5 actual_qd_0 actual_qd_1 actual_qd_2 actual_qd_3 actual_qd_4 actual_qd_5 actual_current_0 actual_current_1 actual_current_2 actual_current_3 actual_current_4 actual_current_5 joint_control_output_0 joint_control_output_1 joint_control_output_2 joint_control_output_3 joint_control_output_4 joint_control_output_5 actual_TCP_pose_0 actual_TCP_pose_1 actual_TCP_pose_2 actual_TCP_pose_3 actual_TCP_pose_4 actual_TCP_pose_5 actual_TCP_speed_0 actual_TCP_speed_1 actual_TCP_speed_2 actual_TCP_speed_3 actual_TCP_speed_4 actual_TCP_speed_5 actual_TCP_force_0 actual_TCP_force_1 actual_TCP_force_2 actual_TCP_force_3 actual_TCP_force_4 actual_TCP_force_5 target_TCP_pose_0 target_TCP_pose_1 target_TCP_pose_2 target_TCP_pose_3 target_TCP_pose_4 target_TCP_pose_5 target_TCP_speed_0 target_TCP_speed_1 target_TCP_speed_2 target_TCP_speed_3 target_TCP_speed_4 target_TCP_speed_5 actual_digital_input_bits joint_temperatures_0 joint_temperatures_1 joint_temperatures_2 joint_temperatures_3 joint_temperatures_4 joint_temperatures_5 actual_execution_time robot_mode joint_mode_0 joint_mode_1 joint_mode_2 joint_mode_3 joint_mode_4 joint_mode_5 safety_mode actual_tool_accelerometer_0 actual_tool_accelerometer_1 actual_tool_accelerometer_2 speed_scaling target_speed_fraction actual_momentum actual_main_voltage actual_robot_voltage actual_robot_current actual_joint_voltage_0 actual_joint_voltage_1 actual_joint_voltage_2 actual_joint_voltage_3 actual_joint_voltage_4 actual_joint_voltage_5 actual_digital_output_bits runtime_state
421.31 8.881784197001252e-16 -1.5707963705062866 1.5707963705062866 0.0 1.5707963705062866 3.1415927410125732 0.0 0.0 0.0 0.0 0.0 0.0 0.0 0.0 0.0 0.0 0.0 0.0 2.8320908837222194e-24 -1.915245304568991 -1.9152454866214774 -0.07223907980561979 2.9632965881849946e-11 0.0 2.812414082680294e-23 -19.019385632419066 -19.019387440295286 -0.5614385162952867 2.303059291854437e-10 0.0 8.881784197001252e-16 -1.5707963705062866 1.5707963705062866 0.0 1.5707963705062866 3.1415927410125732 0.0 0.0 0.0 0.0 0.0 0.0 2.8320908837222194e-24 -1.915245304568991 -1.9152454866214774 -0.07223907980561979 2.9632965881849946e-11 0.0 2.8320908837222194e-24 -1.915245304568991 -1.9152454866214774 -0.07223907980561979 2.9632965881849946e-11 0.0 -0.4917999814226589 -0.13329999569261733 0.48779999999308776 -1.2091996607478837 -1.2091995026765232 1.2091996081401042 0.0 0.0 0.0 0.0 0.0 0.0 0.0 0.0 0.0 0.0 0.0 0.0 -0.4917999814226589 -0.13329999569261733 0.48779999999308776 -1.2091996607478837 -1.2091995026765232 1.2091996081401042 0.0 0.0 0.0 0.0 0.0 0.0 0 25.5 25.0 24.5 24.0 23.5 23.5 0.160342 7 253 253 253 253 253 253 1 -8.544634683005359e-07 -9.819999999999963 2.0141182493064963e-09 1.0 1.0 0.0 48.0 48.0 0.0 0.0 0.0 0.0 0.0 0.0 0.0 0 2
421.318 8.881784197001252e-16 -1.5707963705062866 1.5707963705062866 0.0 1.5707963705062866 3.1415927410125732 0.0 0.0 0.0 0.0 0.0 0.0 0.0 0.0 0.0 0.0 0.0 0.0 2.8320908837222194e-24 -1.915245304568991 -1.9152454866214774 -0.07223907980561979 2.9632965881849946e-11 0.0 2.812414082680294e-23 -19.019385632419066 -19.019387440295286 -0.5614385162952867 2.303059291854437e-10 0.0 8.881784197001252e-16 -1.5707963705062866 1.5707963705062866 0.0 1.5707963705062866 3.1415927410125732 0.0 0.0 0.0 0.0 0.0 0.0 2.8320908837222194e-24 -1.915245304568991 -1.9152454866214774 -0.07223907980561979 2.9632965881849946e-11 0.0 2.8320908837222194e-24 -1.915245304568991 -1.9152454866214774 -0.07223907980561979 2.9632965881849946e-11 0.0 -0.4917999814226589 -0.13329999569261733 0.48779999999308776 -1.2091996607478837 -1.2091995026765232 1.2091996081401042 0.0 0.0 0.0 0.0 0.0 0.0 0.0 0.0 0.0 0.0 0.0 0.0 -0.4917999814226589 -0.13329999569261733 0.48779999999308776 -1.2091996607478837 -1.2091995026765232 1.2091996081401042 0.0 0.0 0.0 0.0 0.0 0.0 0 25.5 25.0 24.5 24.0 23.5 23.5 0.15034999999999998 7 253 253 253 253 253 253 1 -8.544634683005359e-07 -9.819999999999963 2.0141182493064963e-09 1.0 1.0 0.0 48.0 48.0 0.0 0.0 0.0 0.0 0.0 0.0 0.0 0 2
421.32599999999996 8.881784197001252e-16 -1.5707963705062866 1.5707963705062866 0.0 1.5707963705062866 3.1415927410125732 0.0 0.0 0.0 0.0 0.0 0.0 0.0 0.0 0.0 0.0 0.0 0.0 2.8320908837222194e-24 -1.915245304568991 -1.9152454866214774 -0.07223907980561979 2.9632965881849946e-11 0.0 2.812414082680294e-23 -19.019385632419066 -19.019387440295286 -0.5614385162952867 2.303059291854437e-10 0.0 8.881784197001252e-16 -1.5707963705062866 1.5707963705062866 0.0 1.5707963705062866 3.1415927410125732 0.0 0.0 0.0 0.0 0.0 0.0 2.8320908837222194e-24 -1.915245304568991 -1.9152454866214774 -0.07223907980561979 2.9632965881849946e-11 0.0 2.8320908837222194e-24 -1.915245304568991 -1.9152454866214774 -0.07223907980561979 2.9632965881849946e-11 0.0 -0.4917999814226589 -0.13329999569261733 0.48779999999308776 -1.2091996607478837 -1.2091995026765232 1.2091996081401042 0.0 0.0 0.0 0.0 0.0 0.0 0.0 0.0 0.0 0.0 0.0 0.0 -0.4917999814226589 -0.13329999569261733 0.48779999999308776 -1.2091996607478837 -1.2091995026765232 1.2091996081401042 0.0 0.0 0.0 0.0 0.0 0.0 0 25.5 25.0 24.5 24.0 23.5 23.5 0.126362 7 253 253 253 253 253 253 1 -8.544634683005359e-07 -9.819999999999963 2.0141182493064963e-09 1.0 1.0 0.0 48.0 48.0 0.0 0.0 0.0 0.0 0.0 0.0 0.0 0 2
421.334 8.881784197001252e-16 -1.5707963705062866 1.5707963705062866 0.0 1.5707963705062866 3.1415927410125732 0.0 0.0 0.0 0.0 0.0 0.0 0.0 0.0 0.0 0.0 0.0 0.0 2.8320908837222194e-24 -1.915245304568991 -1.9152454866214774 -0.07223907980561979 2.9632965881849946e-11 0.0 2.812414082680294e-23 -19.019385632419066 -19.019387440295286 -0.5614385162952867 2.303059291854437e-10 0.0 8.881784197001252e-16 -1.5707963705062866 1.5707963705062866 0.0 1.5707963705062866 3.1415927410125732 0.0 0.0 0.0 0.0 0.0 0.0 2.8320908837222194e-24 -1.915245304568991 -1.9152454866214774 -0.07223907980561979 2.9632965881849946e-11 0.0 2.8320908837222194e-24 -1.915245304568991 -1.9152454866214774 -0.07223907980561979 2.9632965881849946e-11 0.0 -0.4917999814226589 -0.13329999569261733 0.48779999999308776 -1.2091996607478837 -1.2091995026765232 1.2091996081401042 0.0 0.0 0.0 0.0 0.0 0.0 0.0 0.0 0.0 0.0 0.0 0.0 -0.4917999814226589 -0.13329999569261733 0.48779999999308776 -1.2091996607478837 -1.2091995026765232 1.2091996081401042 0.0 0.0 0.0 0.0 0.0 0.0 0 25.5 25.0 24.5 24.0 23.5 23.5 0.101998 7 253 253 253 253 253 253 1 -8.544634683005359e-07 -9.819999999999963 2.0141182493064963e-09 1.0 1.0 0.0 48.0 48.0 0.0 0.0 0.0 0.0 0.0 0.0 0.0 0 2
421.342 8.881784197001252e-16 -1.5707963705062866 1.5707963705062866 0.0 1.5707963705062866 3.1415927410125732 0.0 0.0 0.0 0.0 0.0 0.0 0.0 0.0 0.0 0.0 0.0 0.0 2.8320908837222194e-24 -1.915245304568991 -1.9152454866214774 -0.07223907980561979 2.9632965881849946e-11 0.0 2.812414082680294e-23 -19.019385632419066 -19.019387440295286 -0.5614385162952867 2.303059291854437e-10 0.0 8.881784197001252e-16 -1.5707963705062866 1.5707963705062866 0.0 1.5707963705062866 3.1415927410125732 0.0 0.0 0.0 0.0 0.0 0.0 2.8320908837222194e-24 -1.915245304568991 -1.9152454866214774 -0.07223907980561979 2.9632965881849946e-11 0.0 2.8320908837222194e-24 -1.915245304568991 -1.9152454866214774 -0.07223907980561979 2.9632965881849946e-11 0.0 -0.4917999814226589 -0.13329999569261733 0.48779999999308776 -1.2091996607478837 -1.2091995026765232 1.2091996081401042 0.0 0.0 0.0 0.0 0.0 0.0 0.0 0.0 0.0 0.0 0.0 0.0 -0.4917999814226589 -0.13329999569261733 0.48779999999308776 -1.2091996607478837 -1.2091995026765232 1.2091996081401042 0.0 0.0 0.0 0.0 0.0 0.0 0 25.5 25.0 24.5 24.0 23.5 23.5 0.312302 7 253 253 253 253 253 253 1 -8.544634683005359e-07 -9.819999999999963 2.0141182493064963e-09 1.0 1.0 0.0 48.0 48.0 0.0 0.0 0.0 0.0 0.0 0.0 0.0 0 2
421.34999999999997 8.881784197001252e-16 -1.5707963705062866 1.5707963705062866 0.0 1.5707963705062866 3.1415927410125732 0.0 0.0 0.0 0.0 0.0 0.0 0.0 0.0 0.0 0.0 0.0 0.0 2.8320908837222194e-24 -1.915245304568991 -1.9152454866214774 -0.07223907980561979 2.9632965881849946e-11 0.0 2.812414082680294e-23 -19.019385632419066 -19.019387440295286 -0.5614385162952867 2.303059291854437e-10 0.0 8.881784197001252e-16 -1.5707963705062866 1.5707963705062866 0.0 1.5707963705062866 3.1415927410125732 0.0 0.0 0.0 0.0 0.0 0.0 2.8320908837222194e-24 -1.915245304568991 -1.9152454866214774 -0.07223907980561979 2.9632965881849946e-11 0.0 2.8320908837222194e-24 -1.915245304568991 -1.9152454866214774 -0.07223907980561979 2.9632965881849946e-11 0.0 -0.4917999814226589 -0.13329999569261733 0.48779999999308776 -1.2091996607478837 -1.2091995026765232 1.2091996081401042 0.0 0.0 0.0 0.0 0.0 0.0 0.0 0.0 0.0 0.0 0.0 0.0 -0.4917999814226589 -0.13329999569261733 0.48779999999308776 -1.2091996607478837 -1.2091995026765232 1.2091996081401042 0.0 0.0 0.0 0.0 0.0 0.0 0 25.5 25.0 24.5 24.0 23.5 23.5 0.459315 7 253 253 253 253 253 253 1 -8.544634683005359e-07 -9.819999999999963 2.0141182493064963e-09 1.0 1.0 0.0 48.0 48.0 0.0 0.0 0.0 0.0 0.0 0.0 0.0 0 2
421.358 8.881784197001252e-16 -1.5707963705062866 1.5707963705062866 0.0 1.5707963705062866 3.1415927410125732 0.0 0.0 0.0 0.0 0.0 0.0 0.0 0.0 0.0 0.0 0.0 0.0 2.8320908837222194e-24 -1.915245304568991 -1.9152454866214774 -0.07223907980561979 2.9632965881849946e-11 0.0 2.812414082680294e-23 -19.019385632419066 -19.019387440295286 -0.5614385162952867 2.303059291854437e-10 0.0 8.881784197001252e-16 -1.5707963705062866 1.5707963705062866 0.0 1.5707963705062866 3.1415927410125732 0.0 0.0 0.0 0.0 0.0 0.0 2.8320908837222194e-24 -1.915245304568991 -1.9152454866214774 -0.07223907980561979 2.9632965881849946e-11 0.0 2.8320908837222194e-24 -1.915245304568991 -1.9152454866214774 -0.07223907980561979 2.9632965881849946e-11 0.0 -0.4917999814226589 -0.13329999569261733 0.48779999999308776 -1.2091996607478837 -1.2091995026765232 1.2091996081401042 0.0 0.0 0.0 0.0 0.0 0.0 0.0 0.0 0.0 0.0 0.0 0.0 -0.4917999814226589 -0.13329999569261733 0.48779999999308776 -1.2091996607478837 -1.2091995026765232 1.2091996081401042 0.0 0.0 0.0 0.0 0.0 0.0 0 25.5 25.0 24.5 24.0 23.5 23.5 0.422999 7 253 253 253 253 253 253 1 -8.544634683005359e-07 -9.819999999999963 2.0141182493064963e-09 1.0 1.0 0.0 48.0 48.0 0.0 0.0 0.0 0.0 0.0 0.0 0.0 0 2
421.366 8.881784197001252e-16 -1.5707963705062866 1.5707963705062866 0.0 1.5707963705062866 3.1415927410125732 0.0 0.0 0.0 0.0 0.0 0.0 0.0 0.0 0.0 0.0 0.0 0.0 2.8320908837222194e-24 -1.915245304568991 -1.9152454866214774 -0.07223907980561979 2.9632965881849946e-11 0.0 2.812414082680294e-23 -19.019385632419066 -19.019387440295286 -0.5614385162952867 2.303059291854437e-10 0.0 8.881784197001252e-16 -1.5707963705062866 1.5707963705062866 0.0 1.5707963705062866 3.1415927410125732 0.0 0.0 0.0 0.0 0.0 0.0 2.8320908837222194e-24 -1.915245304568991 -1.9152454866214774 -0.07223907980561979 2.9632965881849946e-11 0.0 2.8320908837222194e-24 -1.915245304568991 -1.9152454866214774 -0.07223907980561979 2.9632965881849946e-11 0.0 -0.4917999814226589 -0.13329999569261733 0.48779999999308776 -1.2091996607478837 -1.2091995026765232 1.2091996081401042 0.0 0.0 0.0 0.0 0.0 0.0 0.0 0.0 0.0 0.0 0.0 0.0 -0.4917999814226589 -0.13329999569261733 0.48779999999308776 -1.2091996607478837 -1.2091995026765232 1.2091996081401042 0.0 0.0 0.0 0.0 0.0 0.0 0 25.5 25.0 24.5 24.0 23.5 23.5 0.403474 7 253 253 253 253 253 253 1 -8.544634683005359e-07 -9.819999999999963 2.0141182493064963e-09 1.0 1.0 0.0 48.0 48.0 0.0 0.0 0.0 0.0 0.0 0.0 0.0 0 2
421.37399999999997 8.881784197001252e-16 -1.5707963705062866 1.5707963705062866 0.0 1.5707963705062866 3.1415927410125732 0.0 0.0 0.0 0.0 0.0 0.0 0.0 0.0 0.0 0.0 0.0 0.0 2.8320908837222194e-24 -1.915245304568991 -1.9152454866214774 -0.07223907980561979 2.9632965881849946e-11 0.0 2.812414082680294e-23 -19.019385632419066 -19.019387440295286 -0.5614385162952867 2.303059291854437e-10 0.0 8.881784197001252e-16 -1.5707963705062866 1.5707963705062866 0.0 1.5707963705062866 3.1415927410125732 0.0 0.0 0.0 0.0 0.0 0.0 2.8320908837222194e-24 -1.915245304568991 -1.9152454866214774 -0.07223907980561979 2.9632965881849946e-11 0.0 2.8320908837222194e-24 -1.915245304568991 -1.9152454866214774 -0.07223907980561979 2.9632965881849946e-11 0.0 -0.4917999814226589 -0.13329999569261733 0.48779999999308776 -1.2091996607478837 -1.2091995026765232 1.2091996081401042 0.0 0.0 0.0 0.0 0.0 0.0 0.0 0.0 0.0 0.0 0.0 0.0 -0.4917999814226589 -0.13329999569261733 0.48779999999308776 -1.2091996607478837 -1.2091995026765232 1.2091996081401042 0.0 0.0 0.0 0.0 0.0 0.0 0 25.5 25.0 24.5 24.0 23.5 23.5 0.39761399999999997 7 253 253 253 253 253 253 1 -8.544634683005359e-07 -9.819999999999963 2.0141182493064963e-09 1.0 1.0 0.0 48.0 48.0 0.0 0.0 0.0 0.0 0.0 0.0 0.0 0 2
421.382 8.881784197001252e-16 -1.5707963705062866 1.5707963705062866 0.0 1.5707963705062866 3.1415927410125732 0.0 0.0 0.0 0.0 0.0 0.0 0.0 0.0 0.0 0.0 0.0 0.0 2.8320908837222194e-24 -1.915245304568991 -1.9152454866214774 -0.07223907980561979 2.9632965881849946e-11 0.0 2.812414082680294e-23 -19.019385632419066 -19.019387440295286 -0.5614385162952867 2.303059291854437e-10 0.0 8.881784197001252e-16 -1.5707963705062866 1.5707963705062866 0.0 1.5707963705062866 3.1415927410125732 0.0 0.0 0.0 0.0 0.0 0.0 2.8320908837222194e-24 -1.915245304568991 -1.9152454866214774 -0.07223907980561979 2.9632965881849946e-11 0.0 2.8320908837222194e-24 -1.915245304568991 -1.9152454866214774 -0.07223907980561979 2.9632965881849946e-11 0.0 -0.4917999814226589 -0.13329999569261733 0.48779999999308776 -1.2091996607478837 -1.2091995026765232 1.2091996081401042 0.0 0.0 0.0 0.0 0.0 0.0 0.0 0.0 0.0 0.0 0.0 0.0 -0.4917999814226589 -0.13329999569261733 0.48779999999308776 -1.2091996607478837 -1.2091995026765232 1.2091996081401042 0.0 0.0 0.0 0.0 0.0 0.0 0 25.5 25.0 24.5 24.0 23.5 23.5 0.334475 7 253 253 253 253 253 253 1 -8.544634683005359e-07 -9.819999999999963 2.0141182493064963e-09 1.0 1.0 0.0 48.0 48.0 0.0 0.0 0.0 0.0 0.0 0.0 0.0 0 2
421.39 8.881784197001252e-16 -1.5707963705062866 1.5707963705062866 0.0 1.5707963705062866 3.1415927410125732 0.0 0.0 0.0 0.0 0.0 0.0 0.0 0.0 0.0 0.0 0.0 0.0 2.8320908837222194e-24 -1.915245304568991 -1.9152454866214774 -0.07223907980561979 2.9632965881849946e-11 0.0 2.812414082680294e-23 -19.019385632419066 -19.019387440295286 -0.5614385162952867 2.303059291854437e-10 0.0 8.881784197001252e-16 -1.5707963705062866 1.5707963705062866 0.0 1.5707963705062866 3.1415927410125732 0.0 0.0 0.0 0.0 0.0 0.0 2.8320908837222194e-24 -1.915245304568991 -1.9152454866214774 -0.07223907980561979 2.9632965881849946e-11 0.0 2.8320908837222194e-24 -1.915245304568991 -1.9152454866214774 -0.07223907980561979 2.9632965881849946e-11 0.0 -0.4917999814226589 -0.13329999569261733 0.48779999999308776 -1.2091996607478837 -1.2091995026765232 1.2091996081401042 0.0 0.0 0.0 0.0 0.0 0.0 0.0 0.0 0.0 0.0 0.0 0.0 -0.4917999814226589 -0.13329999569261733 0.48779999999308776 -1.2091996607478837 -1.2091995026765232 1.2091996081401042 0.0 0.0 0.0 0.0 0.0 0.0 0 25.5 25.0 24.5 24.0 23.5 23.5 0.196488 7 253 253 253 253 253 253 1 -8.544634683005359e-07 -9.819999999999963 2.0141182493064963e-09 1.0 1.0 0.0 48.0 48.0 0.0 0.0 0.0 0.0 0.0 0.0 0.0 0 2
421.39799999999997 8.881784197001252e-16 -1.5707963705062866 1.5707963705062866 0.0 1.5707963705062866 3.1415927410125732 0.0 0.0 0.0 0.0 0.0 0.0 0.0 0.0 0.0 0.0 0.0 0.0 2.8320908837222194e-24 -1.915245304568991 -1.9152454866214774 -0.07223907980561979 2.9632965881849946e-11 0.0 2.812414082680294e-23 -19.019385632419066 -19.019387440295286 -0.5614385162952867 2.303059291854437e-10 0.0 8.881784197001252e-16 -1.5707963705062866 1.5707963705062866 0.0 1.5707963705062866 3.1415927410125732 0.0 0.0 0.0 0.0 0.0 0.0 2.8320908837222194e-24 -1.915245304568991 -1.9152454866214774 -0.07223907980561979 2.9632965881849946e-11 0.0 2.8320908837222194e-24 -1.915245304568991 -1.9152454866214774 -0.07223907980561979 2.9632965881849946e-11 0.0 -0.4917999814226589 -0.13329999569261733 0.48779999999308776 -1.2091996607478837 -1.2091995026765232 1.2091996081401042 0.0 0.0 0.0 0.0 0.0 0.0 0.0 0.0 0.0 0.0 0.0 0.0 -0.4917999814226589 -0.13329999569261733 0.48779999999308776 -1.2091996607478837 -1.2091995026765232 1.2091996081401042 0.0 0.0 0.0 0.0 0.0 0.0 0 25.5 25.0 24.5 24.0 23.5 23.5 0.129475 7 253 253 253 253 253 253 1 -8.544634683005359e-07 -9.819999999999963 2.0141182493064963e-09 1.0 1.0 0.0 48.0 48.0 0.0 0.0 0.0 0.0 0.0 0.0 0.0 0 2
421.406 8.881784197001252e-16 -1.5707963705062866 1.5707963705062866 0.0 1.5707963705062866 3.1415927410125732 0.0 0.0 0.0 0.0 0.0 0.0 0.0 0.0 0.0 0.0 0.0 0.0 2.8320908837222194e-24 -1.915245304568991 -1.9152454866214774 -0.07223907980561979 2.9632965881849946e-11 0.0 2.812414082680294e-23 -19.019385632419066 -19.019387440295286 -0.5614385162952867 2.303059291854437e-10 0.0 8.881784197001252e-16 -1.5707963705062866 1.5707963705062866 0.0 1.5707963705062866 3.1415927410125732 0.0 0.0 0.0 0.0 0.0 0.0 2.8320908837222194e-24 -1.915245304568991 -1.9152454866214774 -0.07223907980561979 2.9632965881849946e-11 0.0 2.8320908837222194e-24 -1.915245304568991 -1.9152454866214774 -0.07223907980561979 2.9632965881849946e-11 0.0 -0.4917999814226589 -0.13329999569261733 0.48779999999308776 -1.2091996607478837 -1.2091995026765232 1.2091996081401042 0.0 0.0 0.0 0.0 0.0 0.0 0.0 0.0 0.0 0.0 0.0 0.0 -0.4917999814226589 -0.13329999569261733 0.48779999999308776 -1.2091996607478837 -1.2091995026765232 1.2091996081401042 0.0 0.0 0.0 0.0 0.0 0.0 0 25.5 25.0 24.5 24.0 23.5 23.5 0.146763 7 253 253 253 253 253 253 1 -8.544634683005359e-07 -9.819999999999963 2.0141182493064963e-09 1.0 1.0 0.0 48.0 48.0 0.0 0.0 0.0 0.0 0.0 0.0 0.0 0 2
421.414 8.881784197001252e-16 -1.5707963705062866 1.5707963705062866 0.0 1.5707963705062866 3.1415927410125732 0.0 0.0 0.0 0.0 0.0 0.0 0.0 0.0 0.0 0.0 0.0 0.0 2.8320908837222194e-24 -1.915245304568991 -1.9152454866214774 -0.07223907980561979 2.9632965881849946e-11 0.0 2.812414082680294e-23 -19.019385632419066 -19.019387440295286 -0.5614385162952867 2.303059291854437e-10 0.0 8.881784197001252e-16 -1.5707963705062866 1.5707963705062866 0.0 1.5707963705062866 3.1415927410125732 0.0 0.0 0.0 0.0 0.0 0.0 2.8320908837222194e-24 -1.915245304568991 -1.9152454866214774 -0.07223907980561979 2.9632965881849946e-11 0.0 2.8320908837222194e-24 -1.915245304568991 -1.9152454866214774 -0.07223907980561979 2.9632965881849946e-11 0.0 -0.4917999814226589 -0.13329999569261733 0.48779999999308776 -1.2091996607478837 -1.2091995026765232 1.2091996081401042 0.0 0.0 0.0 0.0 0.0 0.0 0.0 0.0 0.0 0.0 0.0 0.0 -0.4917999814226589 -0.13329999569261733 0.48779999999308776 -1.2091996607478837 -1.2091995026765232 1.2091996081401042 0.0 0.0 0.0 0.0 0.0 0.0 0 25.5 25.0 24.5 24.0 23.5 23.5 0.117675 7 253 253 253 253 253 253 1 -8.544634683005359e-07 -9.819999999999963 2.0141182493064963e-09 1.0 1.0 0.0 48.0 48.0 0.0 0.0 0.0 0.0 0.0 0.0 0.0 0 2
421.42199999999997 8.881784197001252e-16 -1.5707963705062866 1.5707963705062866 0.0 1.5707963705062866 3.1415927410125732 0.0 0.0 0.0 0.0 0.0 0.0 0.0 0.0 0.0 0.0 0.0 0.0 2.8320908837222194e-24 -1.915245304568991 -1.9152454866214774 -0.07223907980561979 2.9632965881849946e-11 0.0 2.812414082680294e-23 -19.019385632419066 -19.019387440295286 -0.5614385162952867 2.303059291854437e-10 0.0 8.881784197001252e-16 -1.5707963705062866 1.5707963705062866 0.0 1.5707963705062866 3.1415927410125732 0.0 0.0 0.0 0.0 0.0 0.0 2.8320908837222194e-24 -1.915245304568991 -1.9152454866214774 -0.07223907980561979 2.9632965881849946e-11 0.0 2.8320908837222194e-24 -1.915245304568991 -1.9152454866214774 -0.07223907980561979 2.9632965881849946e-11 0.0 -0.4917999814226589 -0.13329999569261733 0.48779999999308776 -1.2091996607478837 -1.2091995026765232 1.2091996081401042 0.0 0.0 0.0 0.0 0.0 0.0 0.0 0.0 0.0 0.0 0.0 0.0 -0.4917999814226589 -0.13329999569261733 0.48779999999308776 -1.2091996607478837 -1.2091995026765232 1.2091996081401042 0.0 0.0 0.0 0.0 0.0 0.0 0 25.5 25.0 24.5 24.0 23.5 23.5 0.13863399999999998 7 253 253 253 253 253 253 1 -8.544634683005359e-07 -9.819999999999963 2.0141182493064963e-09 1.0 1.0 0.0 48.0 48.0 0.0 0.0 0.0 0.0 0.0 0.0 0.0 0 2
421.43 8.881784197001252e-16 -1.5707963705062866 1.5707963705062866 0.0 1.5707963705062866 3.1415927410125732 0.0 0.0 0.0 0.0 0.0 0.0 0.0 0.0 0.0 0.0 0.0 0.0 2.8320908837222194e-24 -1.915245304568991 -1.9152454866214774 -0.07223907980561979 2.9632965881849946e-11 0.0 2.812414082680294e-23 -19.019385632419066 -19.019387440295286 -0.5614385162952867 2.303059291854437e-10 0.0 8.881784197001252e-16 -1.5707963705062866 1.5707963705062866 0.0 1.5707963705062866 3.1415927410125732 0.0 0.0 0.0 0.0 0.0 0.0 2.8320908837222194e-24 -1.915245304568991 -1.9152454866214774 -0.07223907980561979 2.9632965881849946e-11 0.0 2.8320908837222194e-24 -1.915245304568991 -1.9152454866214774 -0.07223907980561979 2.9632965881849946e-11 0.0 -0.4917999814226589 -0.13329999569261733 0.48779999999308776 -1.2091996607478837 -1.2091995026765232 1.2091996081401042 0.0 0.0 0.0 0.0 0.0 0.0 0.0 0.0 0.0 0.0 0.0 0.0 -0.4917999814226589 -0.13329999569261733 0.48779999999308776 -1.2091996607478837 -1.2091995026765232 1.2091996081401042 0.0 0.0 0.0 0.0 0.0 0.0 0 25.5 25.0 24.5 24.0 23.5 23.5 0.137756 7 253 253 253 253 253 253 1 -8.544634683005359e-07 -9.819999999999963 2.0141182493064963e-09 1.0 1.0 0.0 48.0 48.0 0.0 0.0 0.0 0.0 0.0 0.0 0.0 0 2
421.438 8.881784197001252e-16 -1.5707963705062866 1.5707963705062866 0.0 1.5707963705062866 3.1415927410125732 0.0 0.0 0.0 0.0 0.0 0.0 0.0 0.0 0.0 0.0 0.0 0.0 2.8320908837222194e-24 -1.915245304568991 -1.9152454866214774 -0.07223907980561979 2.9632965881849946e-11 0.0 2.812414082680294e-23 -19.019385632419066 -19.019387440295286 -0.5614385162952867 2.303059291854437e-10 0.0 8.881784197001252e-16 -1.5707963705062866 1.5707963705062866 0.0 1.5707963705062866 3.1415927410125732 0.0 0.0 0.0 0.0 0.0 0.0 2.8320908837222194e-24 -1.915245304568991 -1.9152454866214774 -0.07223907980561979 2.9632965881849946e-11 0.0 2.8320908837222194e-24 -1.915245304568991 -1.9152454866214774 -0.07223907980561979 2.9632965881849946e-11 0.0 -0.4917999814226589 -0.13329999569261733 0.48779999999308776 -1.2091996607478837 -1.2091995026765232 1.2091996081401042 0.0 0.0 0.0 0.0 0.0 0.0 0.0 0.0 0.0 0.0 0.0 0.0 -0.4917999814226589 -0.13329999569261733 0.48779999999308776 -1.2091996607478837 -1.2091995026765232 1.2091996081401042 0.0 0.0 0.0 0.0 0.0 0.0 0 25.5 25.0 24.5 24.0 23.5 23.5 0.119937 7 253 253 253 253 253 253 1 -8.544634683005359e-07 -9.819999999999963 2.0141182493064963e-09 1.0 1.0 0.0 48.0 48.0 0.0 0.0 0.0 0.0 0.0 0.0 0.0 0 2
421.44599999999997 8.881784197001252e-16 -1.5707963705062866 1.5707963705062866 0.0 1.5707963705062866 3.1415927410125732 0.0 0.0 0.0 0.0 0.0 0.0 0.0 0.0 0.0 0.0 0.0 0.0 2.8320908837222194e-24 -1.915245304568991 -1.9152454866214774 -0.07223907980561979 2.9632965881849946e-11 0.0 2.812414082680294e-23 -19.019385632419066 -19.019387440295286 -0.5614385162952867 2.303059291854437e-10 0.0 8.881784197001252e-16 -1.5707963705062866 1.5707963705062866 0.0 1.5707963705062866 3.1415927410125732 0.0 0.0 0.0 0.0 0.0 0.0 2.8320908837222194e-24 -1.915245304568991 -1.9152454866214774 -0.07223907980561979 2.9632965881849946e-11 0.0 2.8320908837222194e-24 -1.915245304568991 -1.9152454866214774 -0.07223907980561979 2.9632965881849946e-11 0.0 -0.4917999814226589 -0.13329999569261733 0.48779999999308776 -1.2091996607478837 -1.2091995026765232 1.2091996081401042 0.0 0.0 0.0 0.0 0.0 0.0 0.0 0.0 0.0 0.0 0.0 0.0 -0.4917999814226589 -0.13329999569261733 0.48779999999308776 -1.2091996607478837 -1.2091995026765232 1.2091996081401042 0.0 0.0 0.0 0.0 0.0 0.0 0 25.5 25.0 24.5 24.0 23.5 23.5 0.125771 7 253 253 253 253 253 253 1 -8.544634683005359e-07 -9.819999999999963 2.0141182493064963e-09 1.0 1.0 0.0 48.0 48.0 0.0 0.0 0.0 0.0 0.0 0.0 0.0 0 2
421.454 8.881784197001252e-16 -1.5707963705062866 1.5707963705062866 0.0 1.5707963705062866 3.1415927410125732 0.0 0.0 0.0 0.0 0.0 0.0 0.0 0.0 0.0 0.0 0.0 0.0 2.8320908837222194e-24 -1.915245304568991 -1.9152454866214774 -0.07223907980561979 2.9632965881849946e-11 0.0 2.812414082680294e-23 -19.019385632419066 -19.019387440295286 -0.5614385162952867 2.303059291854437e-10 0.0 8.881784197001252e-16 -1.5707963705062866 1.5707963705062866 0.0 1.5707963705062866 3.1415927410125732 0.0 0.0 0.0 0.0 0.0 0.0 2.8320908837222194e-24 -1.915245304568991 -1.9152454866214774 -0.07223907980561979 2.9632965881849946e-11 0.0 2.8320908837222194e-24 -1.915245304568991 -1.9152454866214774 -0.07223907980561979 2.9632965881849946e-11 0.0 -0.4917999814226589 -0.13329999569261733 0.48779999999308776 -1.2091996607478837 -1.2091995026765232 1.2091996081401042 0.0 0.0 0.0 0.0 0.0 0.0 0.0 0.0 0.0 0.0 0.0 0.0 -0.4917999814226589 -0.13329999569261733 0.48779999999308776 -1.2091996607478837 -1.2091995026765232 1.2091996081401042 0.0 0.0 0.0 0.0 0.0 0.0 0 25.5 25.0 24.5 24.0 23.5 23.5 0.238064 7 253 253 253 253 253 253 1 -8.544634683005359e-07 -9.819999999999963 2.0141182493064963e-09 1.0 1.0 0.0 48.0 48.0 0.0 0.0 0.0 0.0 0.0 0.0 0.0 0 2
421.462 8.881784197001252e-16 -1.5707963705062866 1.5707963705062866 0.0 1.5707963705062866 3.1415927410125732 0.0 0.0 0.0 0.0 0.0 0.0 0.0 0.0 0.0 0.0 0.0 0.0 2.8320908837222194e-24 -1.915245304568991 -1.9152454866214774 -0.07223907980561979 2.9632965881849946e-11 0.0 2.812414082680294e-23 -19.019385632419066 -19.019387440295286 -0.5614385162952867 2.303059291854437e-10 0.0 8.881784197001252e-16 -1.5707963705062866 1.5707963705062866 0.0 1.5707963705062866 3.1415927410125732 0.0 0.0 0.0 0.0 0.0 0.0 2.8320908837222194e-24 -1.915245304568991 -1.9152454866214774 -0.07223907980561979 2.9632965881849946e-11 0.0 2.8320908837222194e-24 -1.915245304568991 -1.9152454866214774 -0.07223907980561979 2.9632965881849946e-11 0.0 -0.4917999814226589 -0.13329999569261733 0.48779999999308776 -1.2091996607478837 -1.2091995026765232 1.2091996081401042 0.0 0.0 0.0 0.0 0.0 0.0 0.0 0.0 0.0 0.0 0.0 0.0 -0.4917999814226589 -0.13329999569261733 0.48779999999308776 -1.2091996607478837 -1.2091995026765232 1.2091996081401042 0.0 0.0 0.0 0.0 0.0 0.0 0 25.5 25.0 24.5 24.0 23.5 23.5 0.122932 7 253 253 253 253 253 253 1 -8.544634683005359e-07 -9.819999999999963 2.0141182493064963e-09 1.0 1.0 0.0 48.0 48.0 0.0 0.0 0.0 0.0 0.0 0.0 0.0 0 2
421.46999999999997 8.881784197001252e-16 -1.5707963705062866 1.5707963705062866 0.0 1.5707963705062866 3.1415927410125732 0.0 0.0 0.0 0.0 0.0 0.0 0.0 0.0 0.0 0.0 0.0 0.0 2.8320908837222194e-24 -1.915245304568991 -1.9152454866214774 -0.07223907980561979 2.9632965881849946e-11 0.0 2.812414082680294e-23 -19.019385632419066 -19.019387440295286 -0.5614385162952867 2.303059291854437e-10 0.0 8.881784197001252e-16 -1.5707963705062866 1.5707963705062866 0.0 1.5707963705062866 3.1415927410125732 0.0 0.0 0.0 0.0 0.0 0.0 2.8320908837222194e-24 -1.915245304568991 -1.9152454866214774 -0.07223907980561979 2.9632965881849946e-11 0.0 2.8320908837222194e-24 -1.915245304568991 -1.9152454866214774 -0.07223907980561979 2.9632965881849946e-11 0.0 -0.4917999814226589 -0.13329999569261733 0.48779999999308776 -1.2091996607478837 -1.2091995026765232 1.2091996081401042 0.0 0.0 0.0 0.0 0.0 0.0 0.0 0.0 0.0 0.0 0.0 0.0 -0.4917999814226589 -0.13329999569261733 0.48779999999308776 -1.2091996607478837 -1.2091995026765232 1.2091996081401042 0.0 0.0 0.0 0.0 0.0 0.0 0 25.5 25.0 24.5 24.0 23.5 23.5 0.155371 7 253 253 253 253 253 253 1 -8.544634683005359e-07 -9.819999999999963 2.0141182493064963e-09 1.0 1.0 0.0 48.0 48.0 0.0 0.0 0.0 0.0 0.0 0.0 0.0 0 2
421.478 8.881784197001252e-16 -1.5707963705062866 1.5707963705062866 0.0 1.5707963705062866 3.1415927410125732 0.0 0.0 0.0 0.0 0.0 0.0 0.0 0.0 0.0 0.0 0.0 0.0 2.8320908837222194e-24 -1.915245304568991 -1.9152454866214774 -0.07223907980561979 2.9632965881849946e-11 0.0 2.812414082680294e-23 -19.019385632419066 -19.019387440295286 -0.5614385162952867 2.303059291854437e-10 0.0 8.881784197001252e-16 -1.5707963705062866 1.5707963705062866 0.0 1.5707963705062866 3.1415927410125732 0.0 0.0 0.0 0.0 0.0 0.0 2.8320908837222194e-24 -1.915245304568991 -1.9152454866214774 -0.07223907980561979 2.9632965881849946e-11 0.0 2.8320908837222194e-24 -1.915245304568991 -1.9152454866214774 -0.07223907980561979 2.9632965881849946e-11 0.0 -0.4917999814226589 -0.13329999569261733 0.48779999999308776 -1.2091996607478837 -1.2091995026765232 1.2091996081401042 0.0 0.0 0.0 0.0 0.0 0.0 0.0 0.0 0.0 0.0 0.0 0.0 -0.4917999814226589 -0.13329999569261733 0.48779999999308776 -1.2091996607478837 -1.2091995026765232 1.2091996081401042 0.0 0.0 0.0 0.0 0.0 0.0 0 25.5 25.0 24.5 24.0 23.5 23.5 0.154115 7 253 253 253 253 253 253 1 -8.544634683005359e-07 -9.819999999999963 2.0141182493064963e-09 1.0 1.0 0.0 48.0 48.0 0.0 0.0 0.0 0.0 0.0 0.0 0.0 0 2
421.486 8.881784197001252e-16 -1.5707963705062866 1.5707963705062866 0.0 1.5707963705062866 3.1415927410125732 0.0 0.0 0.0 0.0 0.0 0.0 0.0 0.0 0.0 0.0 0.0 0.0 2.8320908837222194e-24 -1.915245304568991 -1.9152454866214774 -0.07223907980561979 2.9632965881849946e-11 0.0 2.812414082680294e-23 -19.019385632419066 -19.019387440295286 -0.5614385162952867 2.303059291854437e-10 0.0 8.881784197001252e-16 -1.5707963705062866 1.5707963705062866 0.0 1.5707963705062866 3.1415927410125732 0.0 0.0 0.0 0.0 0.0 0.0 2.8320908837222194e-24 -1.915245304568991 -1.9152454866214774 -0.07223907980561979 2.9632965881849946e-11 0.0 2.8320908837222194e-24 -1.915245304568991 -1.9152454866214774 -0.07223907980561979 2.9632965881849946e-11 0.0 -0.4917999814226589 -0.13329999569261733 0.48779999999308776 -1.2091996607478837 -1.2091995026765232 1.2091996081401042 0.0 0.0 0.0 0.0 0.0 0.0 0.0 0.0 0.0 0.0 0.0 0.0 -0.4917999814226589 -0.13329999569261733 0.48779999999308776 -1.2091996607478837 -1.2091995026765232 1.2091996081401042 0.0 0.0 0.0 0.0 0.0 0.0 0 25.5 25.0 24.5 24.0 23.5 23.5 0.131552 7 253 253 253 253 253 253 1 -8.544634683005359e-07 -9.819999999999963 2.0141182493064963e-09 1.0 1.0 0.0 48.0 48.0 0.0 0.0 0.0 0.0 0.0 0.0 0.0 0 2
421.49399999999997 8.881784197001252e-16 -1.5707963705062866 1.5707963705062866 0.0 1.5707963705062866 3.1415927410125732 0.0 0.0 0.0 0.0 0.0 0.0 0.0 0.0 0.0 0.0 0.0 0.0 2.8320908837222194e-24 -1.915245304568991 -1.9152454866214774 -0.07223907980561979 2.9632965881849946e-11 0.0 2.812414082680294e-23 -19.019385632419066 -19.019387440295286 -0.5614385162952867 2.303059291854437e-10 0.0 8.881784197001252e-16 -1.5707963705062866 1.5707963705062866 0.0 1.5707963705062866 3.1415927410125732 0.0 0.0 0.0 0.0 0.0 0.0 2.8320908837222194e-24 -1.915245304568991 -1.9152454866214774 -0.07223907980561979 2.9632965881849946e-11 0.0 2.8320908837222194e-24 -1.915245304568991 -1.9152454866214774 -0.07223907980561979 2.9632965881849946e-11 0.0 -0.4917999814226589 -0.13329999569261733 0.48779999999308776 -1.2091996607478837 -1.2091995026765232 1.2091996081401042 0.0 0.0 0.0 0.0 0.0 0.0 0.0 0.0 0.0 0.0 0.0 0.0 -0.4917999814226589 -0.13329999569261733 0.48779999999308776 -1.2091996607478837 -1.2091995026765232 1.2091996081401042 0.0 0.0 0.0 0.0 0.0 0.0 0 25.5 25.0 24.5 24.0 23.5 23.5 0.103177 7 253 253 253 253 253 253 1 -8.544634683005359e-07 -9.819999999999963 2.0141182493064963e-09 1.0 1.0 0.0 48.0 48.0 0.0 0.0 0.0 0.0 0.0 0.0 0.0 0 2
421.50199999999995 8.881784197001252e-16 -1.5707963705062866 1.5707963705062866 0.0 1.5707963705062866 3.1415927410125732 0.0 0.0 0.0 0.0 0.0 0.0 0.0 0.0 0.0 0.0 0.0 0.0 2.8320908837222194e-24 -1.915245304568991 -1.9152454866214774 -0.07223907980561979 2.9632965881849946e-11 0.0 2.812414082680294e-23 -19.019385632419066 -19.019387440295286 -0.5614385162952867 2.303059291854437e-10 0.0 8.881784197001252e-16 -1.5707963705062866 1.5707963705062866 0.0 1.5707963705062866 3.1415927410125732 0.0 0.0 0.0 0.0 0.0 0.0 2.8320908837222194e-24 -1.915245304568991 -1.9152454866214774 -0.07223907980561979 2.9632965881849946e-11 0.0 2.8320908837222194e-24 -1.915245304568991 -1.9152454866214774 -0.07223907980561979 2.9632965881849946e-11 0.0 -0.4917999814226589 -0.13329999569261733 0.48779999999308776 -1.2091996607478837 -1.2091995026765232 1.2091996081401042 0.0 0.0 0.0 0.0 0.0 0.0 0.0 0.0 0.0 0.0 0.0 0.0 -0.4917999814226589 -0.13329999569261733 0.48779999999308776 -1.2091996607478837 -1.2091995026765232 1.2091996081401042 0.0 0.0 0.0 0.0 0.0 0.0 0 25.5 25.0 24.5 24.0 23.5 23.5 0.163154 7 253 253 253 253 253 253 1 -8.544634683005359e-07 -9.819999999999963 2.0141182493064963e-09 1.0 1.0 0.0 48.0 48.0 0.0 0.0 0.0 0.0 0.0 0.0 0.0 0 2
421.51 8.881784197001252e-16 -1.5707963705062866 1.5707963705062866 0.0 1.5707963705062866 3.1415927410125732 0.0 0.0 0.0 0.0 0.0 0.0 0.0 0.0 0.0 0.0 0.0 0.0 2.8320908837222194e-24 -1.915245304568991 -1.9152454866214774 -0.07223907980561979 2.9632965881849946e-11 0.0 2.812414082680294e-23 -19.019385632419066 -19.019387440295286 -0.5614385162952867 2.303059291854437e-10 0.0 8.881784197001252e-16 -1.5707963705062866 1.5707963705062866 0.0 1.5707963705062866 3.1415927410125732 0.0 0.0 0.0 0.0 0.0 0.0 2.8320908837222194e-24 -1.915245304568991 -1.9152454866214774 -0.07223907980561979 2.9632965881849946e-11 0.0 2.8320908837222194e-24 -1.915245304568991 -1.9152454866214774 -0.07223907980561979 2.9632965881849946e-11 0.0 -0.4917999814226589 -0.13329999569261733 0.48779999999308776 -1.2091996607478837 -1.2091995026765232 1.2091996081401042 0.0 0.0 0.0 0.0 0.0 0.0 0.0 0.0 0.0 0.0 0.0 0.0 -0.4917999814226589 -0.13329999569261733 0.48779999999308776 -1.2091996607478837 -1.2091995026765232 1.2091996081401042 0.0 0.0 0.0 0.0 0.0 0.0 0 25.5 25.0 24.5 24.0 23.5 23.5 0.142763 7 253 253 253 253 253 253 1 -8.544634683005359e-07 -9.819999999999963 2.0141182493064963e-09 1.0 1.0 0.0 48.0 48.0 0.0 0.0 0.0 0.0 0.0 0.0 0.0 0 2
421.518 8.881784197001252e-16 -1.5707963705062866 1.5707963705062866 0.0 1.5707963705062866 3.1415927410125732 0.0 0.0 0.0 0.0 0.0 0.0 0.0 0.0 0.0 0.0 0.0 0.0 2.8320908837222194e-24 -1.915245304568991 -1.9152454866214774 -0.07223907980561979 2.9632965881849946e-11 0.0 2.812414082680294e-23 -19.019385632419066 -19.019387440295286 -0.5614385162952867 2.303059291854437e-10 0.0 8.881784197001252e-16 -1.5707963705062866 1.5707963705062866 0.0 1.5707963705062866 3.1415927410125732 0.0 0.0 0.0 0.0 0.0 0.0 2.8320908837222194e-24 -1.915245304568991 -1.9152454866214774 -0.07223907980561979 2.9632965881849946e-11 0.0 2.8320908837222194e-24 -1.915245304568991 -1.9152454866214774 -0.07223907980561979 2.9632965881849946e-11 0.0 -0.4917999814226589 -0.13329999569261733 0.48779999999308776 -1.2091996607478837 -1.2091995026765232 1.2091996081401042 0.0 0.0 0.0 0.0 0.0 0.0 0.0 0.0 0.0 0.0 0.0 0.0 -0.4917999814226589 -0.13329999569261733 0.48779999999308776 -1.2091996607478837 -1.2091995026765232 1.2091996081401042 0.0 0.0 0.0 0.0 0.0 0.0 0 25.5 25.0 24.5 24.0 23.5 23.5 0.249679 7 253 253 253 253 253 253 1 -8.544634683005359e-07 -9.819999999999963 2.0141182493064963e-09 1.0 1.0 0.0 48.0 48.0 0.0 0.0 0.0 0.0 0.0 0.0 0.0 0 2
421.52599999999995 8.881784197001252e-16 -1.5707963705062866 1.5707963705062866 0.0 1.5707963705062866 3.1415927410125732 0.0 0.0 0.0 0.0 0.0 0.0 0.0 0.0 0.0 0.0 0.0 0.0 2.8320908837222194e-24 -1.915245304568991 -1.9152454866214774 -0.07223907980561979 2.9632965881849946e-11 0.0 2.812414082680294e-23 -19.019385632419066 -19.019387440295286 -0.5614385162952867 2.303059291854437e-10 0.0 8.881784197001252e-16 -1.5707963705062866 1.5707963705062866 0.0 1.5707963705062866 3.1415927410125732 0.0 0.0 0.0 0.0 0.0 0.0 2.8320908837222194e-24 -1.915245304568991 -1.9152454866214774 -0.07223907980561979 2.9632965881849946e-11 0.0 2.8320908837222194e-24 -1.915245304568991 -1.9152454866214774 -0.07223907980561979 2.9632965881849946e-11 0.0 -0.4917999814226589 -0.13329999569261733 0.48779999999308776 -1.2091996607478837 -1.2091995026765232 1.2091996081401042 0.0 0.0 0.0 0.0 0.0 0.0 0.0 0.0 0.0 0.0 0.0 0.0 -0.4917999814226589 -0.13329999569261733 0.48779999999308776 -1.2091996607478837 -1.2091995026765232 1.2091996081401042 0.0 0.0 0.0 0.0 0.0 0.0 0 25.5 25.0 24.5 24.0 23.5 23.5 0.13219999999999998 7 253 253 253 253 253 253 1 -8.544634683005359e-07 -9.819999999999963 2.0141182493064963e-09 1.0 1.0 0.0 48.0 48.0 0.0 0.0 0.0 0.0 0.0 0.0 0.0 0 2
421.534 8.881784197001252e-16 -1.5707963705062866 1.5707963705062866 0.0 1.5707963705062866 3.1415927410125732 0.0 0.0 0.0 0.0 0.0 0.0 0.0 0.0 0.0 0.0 0.0 0.0 2.8320908837222194e-24 -1.915245304568991 -1.9152454866214774 -0.07223907980561979 2.9632965881849946e-11 0.0 2.812414082680294e-23 -19.019385632419066 -19.019387440295286 -0.5614385162952867 2.303059291854437e-10 0.0 8.881784197001252e-16 -1.5707963705062866 1.5707963705062866 0.0 1.5707963705062866 3.1415927410125732 0.0 0.0 0.0 0.0 0.0 0.0 2.8320908837222194e-24 -1.915245304568991 -1.9152454866214774 -0.07223907980561979 2.9632965881849946e-11 0.0 2.8320908837222194e-24 -1.915245304568991 -1.9152454866214774 -0.07223907980561979 2.9632965881849946e-11 0.0 -0.4917999814226589 -0.13329999569261733 0.48779999999308776 -1.2091996607478837 -1.2091995026765232 1.2091996081401042 0.0 0.0 0.0 0.0 0.0 0.0 0.0 0.0 0.0 0.0 0.0 0.0 -0.4917999814226589 -0.13329999569261733 0.48779999999308776 -1.2091996607478837 -1.2091995026765232 1.2091996081401042 0.0 0.0 0.0 0.0 0.0 0.0 0 25.5 25.0 24.5 24.0 23.5 23.5 0.143077 7 253 253 253 253 253 253 1 -8.544634683005359e-07 -9.819999999999963 2.0141182493064963e-09 1.0 1.0 0.0 48.0 48.0 0.0 0.0 0.0 0.0 0.0 0.0 0.0 0 2
421.542 8.881784197001252e-16 -1.5707963705062866 1.5707963705062866 0.0 1.5707963705062866 3.1415927410125732 0.0 0.0 0.0 0.0 0.0 0.0 0.0 0.0 0.0 0.0 0.0 0.0 2.8320908837222194e-24 -1.915245304568991 -1.9152454866214774 -0.07223907980561979 2.9632965881849946e-11 0.0 2.812414082680294e-23 -19.019385632419066 -19.019387440295286 -0.5614385162952867 2.303059291854437e-10 0.0 8.881784197001252e-16 -1.5707963705062866 1.5707963705062866 0.0 1.5707963705062866 3.1415927410125732 0.0 0.0 0.0 0.0 0.0 0.0 2.8320908837222194e-24 -1.915245304568991 -1.9152454866214774 -0.07223907980561979 2.9632965881849946e-11 0.0 2.8320908837222194e-24 -1.915245304568991 -1.9152454866214774 -0.07223907980561979 2.9632965881849946e-11 0.0 -0.4917999814226589 -0.13329999569261733 0.48779999999308776 -1.2091996607478837 -1.2091995026765232 1.2091996081401042 0.0 0.0 0.0 0.0 0.0 0.0 0.0 0.0 0.0 0.0 0.0 0.0 -0.4917999814226589 -0.13329999569261733 0.48779999999308776 -1.2091996607478837 -1.2091995026765232 1.2091996081401042 0.0 0.0 0.0 0.0 0.0 0.0 0 25.5 25.0 24.5 24.0 23.5 23.5 0.132744 7 253 253 253 253 253 253 1 -8.544634683005359e-07 -9.819999999999963 2.0141182493064963e-09 1.0 1.0 0.0 48.0 48.0 0.0 0.0 0.0 0.0 0.0 0.0 0.0 0 2
421.54999999999995 8.881784197001252e-16 -1.5707963705062866 1.5707963705062866 0.0 1.5707963705062866 3.1415927410125732 0.0 0.0 0.0 0.0 0.0 0.0 0.0 0.0 0.0 0.0 0.0 0.0 2.8320908837222194e-24 -1.915245304568991 -1.9152454866214774 -0.07223907980561979 2.9632965881849946e-11 0.0 2.812414082680294e-23 -19.019385632419066 -19.019387440295286 -0.5614385162952867 2.303059291854437e-10 0.0 8.881784197001252e-16 -1.5707963705062866 1.5707963705062866 0.0 1.5707963705062866 3.1415927410125732 0.0 0.0 0.0 0.0 0.0 0.0 2.8320908837222194e-24 -1.915245304568991 -1.9152454866214774 -0.07223907980561979 2.9632965881849946e-11 0.0 2.8320908837222194e-24 -1.915245304568991 -1.9152454866214774 -0.07223907980561979 2.9632965881849946e-11 0.0 -0.4917999814226589 -0.13329999569261733 0.48779999999308776 -1.2091996607478837 -1.2091995026765232 1.2091996081401042 0.0 0.0 0.0 0.0 0.0 0.0 0.0 0.0 0.0 0.0 0.0 0.0 -0.4917999814226589 -0.13329999569261733 0.48779999999308776 -1.2091996607478837 -1.2091995026765232 1.2091996081401042 0.0 0.0 0.0 0.0 0.0 0.0 0 25.5 25.0 24.5 24.0 23.5 23.5 0.35033 7 253 253 253 253 253 253 1 -8.544634683005359e-07 -9.819999999999963 2.0141182493064963e-09 1.0 1.0 0.0 48.0 48.0 0.0 0.0 0.0 0.0 0.0 0.0 0.0 0 2
421.558 8.881784197001252e-16 -1.5707963705062866 1.5707963705062866 0.0 1.5707963705062866 3.1415927410125732 0.0 0.0 0.0 0.0 0.0 0.0 0.0 0.0 0.0 0.0 0.0 0.0 2.8320908837222194e-24 -1.915245304568991 -1.9152454866214774 -0.07223907980561979 2.9632965881849946e-11 0.0 2.812414082680294e-23 -19.019385632419066 -19.019387440295286 -0.5614385162952867 2.303059291854437e-10 0.0 8.881784197001252e-16 -1.5707963705062866 1.5707963705062866 0.0 1.5707963705062866 3.1415927410125732 0.0 0.0 0.0 0.0 0.0 0.0 2.8320908837222194e-24 -1.915245304568991 -1.9152454866214774 -0.07223907980561979 2.9632965881849946e-11 0.0 2.8320908837222194e-24 -1.915245304568991 -1.9152454866214774 -0.07223907980561979 2.9632965881849946e-11 0.0 -0.4917999814226589 -0.13329999569261733 0.48779999999308776 -1.2091996607478837 -1.2091995026765232 1.2091996081401042 0.0 0.0 0.0 0.0 0.0 0.0 0.0 0.0 0.0 0.0 0.0 0.0 -0.4917999814226589 -0.13329999569261733 0.48779999999308776 -1.2091996607478837 -1.2091995026765232 1.2091996081401042 0.0 0.0 0.0 0.0 0.0 0.0 0 25.5 25.0 24.5 24.0 23.5 23.5 0.120395 7 253 253 253 253 253 253 1 -8.544634683005359e-07 -9.819999999999963 2.0141182493064963e-09 1.0 1.0 0.0 48.0 48.0 0.0 0.0 0.0 0.0 0.0 0.0 0.0 0 2
421.566 8.881784197001252e-16 -1.5707963705062866 1.5707963705062866 0.0 1.5707963705062866 3.1415927410125732 0.0 0.0 0.0 0.0 0.0 0.0 0.0 0.0 0.0 0.0 0.0 0.0 2.8320908837222194e-24 -1.915245304568991 -1.9152454866214774 -0.07223907980561979 2.9632965881849946e-11 0.0 2.812414082680294e-23 -19.019385632419066 -19.019387440295286 -0.5614385162952867 2.303059291854437e-10 0.0 8.881784197001252e-16 -1.5707963705062866 1.5707963705062866 0.0 1.5707963705062866 3.1415927410125732 0.0 0.0 0.0 0.0 0.0 0.0 2.8320908837222194e-24 -1.915245304568991 -1.9152454866214774 -0.07223907980561979 2.9632965881849946e-11 0.0 2.8320908837222194e-24 -1.915245304568991 -1.9152454866214774 -0.07223907980561979 2.9632965881849946e-11 0.0 -0.4917999814226589 -0.13329999569261733 0.48779999999308776 -1.2091996607478837 -1.2091995026765232 1.2091996081401042 0.0 0.0 0.0 0.0 0.0 0.0 0.0 0.0 0.0 0.0 0.0 0.0 -0.4917999814226589 -0.13329999569261733 0.48779999999308776 -1.2091996607478837 -1.2091995026765232 1.2091996081401042 0.0 0.0 0.0 0.0 0.0 0.0 0 25.5 25.0 24.5 24.0 23.5 23.5 0.140475 7 253 253 253 253 253 253 1 -8.544634683005359e-07 -9.819999999999963 2.0141182493064963e-09 1.0 1.0 0.0 48.0 48.0 0.0 0.0 0.0 0.0 0.0 0.0 0.0 0 2
421.57399999999996 8.881784197001252e-16 -1.5707963705062866 1.5707963705062866 0.0 1.5707963705062866 3.1415927410125732 0.0 0.0 0.0 0.0 0.0 0.0 0.0 0.0 0.0 0.0 0.0 0.0 2.8320908837222194e-24 -1.915245304568991 -1.9152454866214774 -0.07223907980561979 2.9632965881849946e-11 0.0 2.812414082680294e-23 -19.019385632419066 -19.019387440295286 -0.5614385162952867 2.303059291854437e-10 0.0 8.881784197001252e-16 -1.5707963705062866 1.5707963705062866 0.0 1.5707963705062866 3.1415927410125732 0.0 0.0 0.0 0.0 0.0 0.0 2.8320908837222194e-24 -1.915245304568991 -1.9152454866214774 -0.07223907980561979 2.9632965881849946e-11 0.0 2.8320908837222194e-24 -1.915245304568991 -1.9152454866214774 -0.07223907980561979 2.9632965881849946e-11 0.0 -0.4917999814226589 -0.13329999569261733 0.48779999999308776 -1.2091996607478837 -1.2091995026765232 1.2091996081401042 0.0 0.0 0.0 0.0 0.0 0.0 0.0 0.0 0.0 0.0 0.0 0.0 -0.4917999814226589 -0.13329999569261733 0.48779999999308776 -1.2091996607478837 -1.2091995026765232 1.2091996081401042 0.0 0.0 0.0 0.0 0.0 0.0 0 25.5 25.0 24.5 24.0 23.5 23.5 0.125345 7 253 253 253 253 253 253 1 -8.544634683005359e-07 -9.819999999999963 2.0141182493064963e-09 1.0 1.0 0.0 48.0 48.0 0.0 0.0 0.0 0.0 0.0 0.0 0.0 0 2
421.582 8.881784197001252e-16 -1.5707963705062866 1.5707963705062866 0.0 1.5707963705062866 3.1415927410125732 0.0 0.0 0.0 0.0 0.0 0.0 0.0 0.0 0.0 0.0 0.0 0.0 2.8320908837222194e-24 -1.915245304568991 -1.9152454866214774 -0.07223907980561979 2.9632965881849946e-11 0.0 2.812414082680294e-23 -19.019385632419066 -19.019387440295286 -0.5614385162952867 2.303059291854437e-10 0.0 8.881784197001252e-16 -1.5707963705062866 1.5707963705062866 0.0 1.5707963705062866 3.1415927410125732 0.0 0.0 0.0 0.0 0.0 0.0 2.8320908837222194e-24 -1.915245304568991 -1.9152454866214774 -0.07223907980561979 2.9632965881849946e-11 0.0 2.8320908837222194e-24 -1.915245304568991 -1.9152454866214774 -0.07223907980561979 2.9632965881849946e-11 0.0 -0.4917999814226589 -0.13329999569261733 0.48779999999308776 -1.2091996607478837 -1.2091995026765232 1.2091996081401042 0.0 0.0 0.0 0.0 0.0 0.0 0.0 0.0 0.0 0.0 0.0 0.0 -0.4917999814226589 -0.13329999569261733 0.48779999999308776 -1.2091996607478837 -1.2091995026765232 1.2091996081401042 0.0 0.0 0.0 0.0 0.0 0.0 0 25.5 25.0 24.5 24.0 23.5 23.5 0.129957 7 253 253 253 253 253 253 1 -8.544634683005359e-07 -9.819999999999963 2.0141182493064963e-09 1.0 1.0 0.0 48.0 48.0 0.0 0.0 0.0 0.0 0.0 0.0 0.0 0 2
421.59 8.881784197001252e-16 -1.5707963705062866 1.5707963705062866 0.0 1.5707963705062866 3.1415927410125732 0.0 0.0 0.0 0.0 0.0 0.0 0.0 0.0 0.0 0.0 0.0 0.0 2.8320908837222194e-24 -1.915245304568991 -1.9152454866214774 -0.07223907980561979 2.9632965881849946e-11 0.0 2.812414082680294e-23 -19.019385632419066 -19.019387440295286 -0.5614385162952867 2.303059291854437e-10 0.0 8.881784197001252e-16 -1.5707963705062866 1.5707963705062866 0.0 1.5707963705062866 3.1415927410125732 0.0 0.0 0.0 0.0 0.0 0.0 2.8320908837222194e-24 -1.915245304568991 -1.9152454866214774 -0.07223907980561979 2.9632965881849946e-11 0.0 2.8320908837222194e-24 -1.915245304568991 -1.9152454866214774 -0.07223907980561979 2.9632965881849946e-11 0.0 -0.4917999814226589 -0.13329999569261733 0.48779999999308776 -1.2091996607478837 -1.2091995026765232 1.2091996081401042 0.0 0.0 0.0 0.0 0.0 0.0 0.0 0.0 0.0 0.0 0.0 0.0 -0.4917999814226589 -0.13329999569261733 0.48779999999308776 -1.2091996607478837 -1.2091995026765232 1.2091996081401042 0.0 0.0 0.0 0.0 0.0 0.0 0 25.5 25.0 24.5 24.0 23.5 23.5 0.141963 7 253 253 253 253 253 253 1 -8.544634683005359e-07 -9.819999999999963 2.0141182493064963e-09 1.0 1.0 0.0 48.0 48.0 0.0 0.0 0.0 0.0 0.0 0.0 0.0 0 2
421.59799999999996 8.881784197001252e-16 -1.5707963705062866 1.5707963705062866 0.0 1.5707963705062866 3.1415927410125732 0.0 0.0 0.0 0.0 0.0 0.0 0.0 0.0 0.0 0.0 0.0 0.0 2.8320908837222194e-24 -1.915245304568991 -1.9152454866214774 -0.07223907980561979 2.9632965881849946e-11 0.0 2.812414082680294e-23 -19.019385632419066 -19.019387440295286 -0.5614385162952867 2.303059291854437e-10 0.0 8.881784197001252e-16 -1.5707963705062866 1.5707963705062866 0.0 1.5707963705062866 3.1415927410125732 0.0 0.0 0.0 0.0 0.0 0.0 2.8320908837222194e-24 -1.915245304568991 -1.9152454866214774 -0.07223907980561979 2.9632965881849946e-11 0.0 2.8320908837222194e-24 -1.915245304568991 -1.9152454866214774 -0.07223907980561979 2.9632965881849946e-11 0.0 -0.4917999814226589 -0.13329999569261733 0.48779999999308776 -1.2091996607478837 -1.2091995026765232 1.2091996081401042 0.0 0.0 0.0 0.0 0.0 0.0 0.0 0.0 0.0 0.0 0.0 0.0 -0.4917999814226589 -0.13329999569261733 0.48779999999308776 -1.2091996607478837 -1.2091995026765232 1.2091996081401042 0.0 0.0 0.0 0.0 0.0 0.0 0 25.5 25.0 24.5 24.0 23.5 23.5 0.227599 7 253 253 253 253 253 253 1 -8.544634683005359e-07 -9.819999999999963 2.0141182493064963e-09 1.0 1.0 0.0 48.0 48.0 0.0 0.0 0.0 0.0 0.0 0.0 0.0 0 2
421.606 8.881784197001252e-16 -1.5707963705062866 1.5707963705062866 0.0 1.5707963705062866 3.1415927410125732 0.0 0.0 0.0 0.0 0.0 0.0 0.0 0.0 0.0 0.0 0.0 0.0 2.8320908837222194e-24 -1.915245304568991 -1.9152454866214774 -0.07223907980561979 2.9632965881849946e-11 0.0 2.812414082680294e-23 -19.019385632419066 -19.019387440295286 -0.5614385162952867 2.303059291854437e-10 0.0 8.881784197001252e-16 -1.5707963705062866 1.5707963705062866 0.0 1.5707963705062866 3.1415927410125732 0.0 0.0 0.0 0.0 0.0 0.0 2.8320908837222194e-24 -1.915245304568991 -1.9152454866214774 -0.07223907980561979 2.9632965881849946e-11 0.0 2.8320908837222194e-24 -1.915245304568991 -1.9152454866214774 -0.07223907980561979 2.9632965881849946e-11 0.0 -0.4917999814226589 -0.13329999569261733 0.48779999999308776 -1.2091996607478837 -1.2091995026765232 1.2091996081401042 0.0 0.0 0.0 0.0 0.0 0.0 0.0 0.0 0.0 0.0 0.0 0.0 -0.4917999814226589 -0.13329999569261733 0.48779999999308776 -1.2091996607478837 -1.2091995026765232 1.2091996081401042 0.0 0.0 0.0 0.0 0.0 0.0 0 25.5 25.0 24.5 24.0 23.5 23.5 0.105357 7 253 253 253 253 253 253 1 -8.544634683005359e-07 -9.819999999999963 2.0141182493064963e-09 1.0 1.0 0.0 48.0 48.0 0.0 0.0 0.0 0.0 0.0 0.0 0.0 0 2
421.614 8.881784197001252e-16 -1.5707963705062866 1.5707963705062866 0.0 1.5707963705062866 3.1415927410125732 0.0 0.0 0.0 0.0 0.0 0.0 0.0 0.0 0.0 0.0 0.0 0.0 2.8320908837222194e-24 -1.915245304568991 -1.9152454866214774 -0.07223907980561979 2.9632965881849946e-11 0.0 2.812414082680294e-23 -19.019385632419066 -19.019387440295286 -0.5614385162952867 2.303059291854437e-10 0.0 8.881784197001252e-16 -1.5707963705062866 1.5707963705062866 0.0 1.5707963705062866 3.1415927410125732 0.0 0.0 0.0 0.0 0.0 0.0 2.8320908837222194e-24 -1.915245304568991 -1.9152454866214774 -0.07223907980561979 2.9632965881849946e-11 0.0 2.8320908837222194e-24 -1.915245304568991 -1.9152454866214774 -0.07223907980561979 2.9632965881849946e-11 0.0 -0.4917999814226589 -0.13329999569261733 0.48779999999308776 -1.2091996607478837 -1.2091995026765232 1.2091996081401042 0.0 0.0 0.0 0.0 0.0 0.0 0.0 0.0 0.0 0.0 0.0 0.0 -0.4917999814226589 -0.13329999569261733 0.48779999999308776 -1.2091996607478837 -1.2091995026765232 1.2091996081401042 0.0 0.0 0.0 0.0 0.0 0.0 0 25.5 25.0 24.5 24.0 23.5 23.5 0.118993 7 253 253 253 253 253 253 1 -8.544634683005359e-07 -9.819999999999963 2.0141182493064963e-09 1.0 1.0 0.0 48.0 48.0 0.0 0.0 0.0 0.0 0.0 0.0 0.0 0 2
421.62199999999996 8.881784197001252e-16 -1.5707963705062866 1.5707963705062866 0.0 1.5707963705062866 3.1415927410125732 0.0 0.0 0.0 0.0 0.0 0.0 0.0 0.0 0.0 0.0 0.0 0.0 2.8320908837222194e-24 -1.915245304568991 -1.9152454866214774 -0.07223907980561979 2.9632965881849946e-11 0.0 2.812414082680294e-23 -19.019385632419066 -19.019387440295286 -0.5614385162952867 2.303059291854437e-10 0.0 8.881784197001252e-16 -1.5707963705062866 1.5707963705062866 0.0 1.5707963705062866 3.1415927410125732 0.0 0.0 0.0 0.0 0.0 0.0 2.8320908837222194e-24 -1.915245304568991 -1.9152454866214774 -0.07223907980561979 2.9632965881849946e-11 0.0 2.8320908837222194e-24 -1.915245304568991 -1.9152454866214774 -0.07223907980561979 2.9632965881849946e-11 0.0 -0.4917999814226589 -0.13329999569261733 0.48779999999308776 -1.2091996607478837 -1.2091995026765232 1.2091996081401042 0.0 0.0 0.0 0.0 0.0 0.0 0.0 0.0 0.0 0.0 0.0 0.0 -0.4917999814226589 -0.13329999569261733 0.48779999999308776 -1.2091996607478837 -1.2091995026765232 1.2091996081401042 0.0 0.0 0.0 0.0 0.0 0.0 0 25.5 25.0 24.5 24.0 23.5 23.5 0.121459 7 253 253 253 253 253 253 1 -8.544634683005359e-07 -9.819999999999963 2.0141182493064963e-09 1.0 1.0 0.0 48.0 48.0 0.0 0.0 0.0 0.0 0.0 0.0 0.0 0 2
421.63 8.881784197001252e-16 -1.5707963705062866 1.5707963705062866 0.0 1.5707963705062866 3.1415927410125732 0.0 0.0 0.0 0.0 0.0 0.0 0.0 0.0 0.0 0.0 0.0 0.0 2.8320908837222194e-24 -1.915245304568991 -1.9152454866214774 -0.07223907980561979 2.9632965881849946e-11 0.0 2.812414082680294e-23 -19.019385632419066 -19.019387440295286 -0.5614385162952867 2.303059291854437e-10 0.0 8.881784197001252e-16 -1.5707963705062866 1.5707963705062866 0.0 1.5707963705062866 3.1415927410125732 0.0 0.0 0.0 0.0 0.0 0.0 2.8320908837222194e-24 -1.915245304568991 -1.9152454866214774 -0.07223907980561979 2.9632965881849946e-11 0.0 2.8320908837222194e-24 -1.915245304568991 -1.9152454866214774 -0.07223907980561979 2.9632965881849946e-11 0.0 -0.4917999814226589 -0.13329999569261733 0.48779999999308776 -1.2091996607478837 -1.2091995026765232 1.2091996081401042 0.0 0.0 0.0 0.0 0.0 0.0 0.0 0.0 0.0 0.0 0.0 0.0 -0.4917999814226589 -0.13329999569261733 0.48779999999308776 -1.2091996607478837 -1.2091995026765232 1.2091996081401042 0.0 0.0 0.0 0.0 0.0 0.0 0 25.5 25.0 24.5 24.0 23.5 23.5 0.135199 7 253 253 253 253 253 253 1 -8.544634683005359e-07 -9.819999999999963 2.0141182493064963e-09 1.0 1.0 0.0 48.0 48.0 0.0 0.0 0.0 0.0 0.0 0.0 0.0 0 2
421.638 8.881784197001252e-16 -1.5707963705062866 1.5707963705062866 0.0 1.5707963705062866 3.1415927410125732 0.0 0.0 0.0 0.0 0.0 0.0 0.0 0.0 0.0 0.0 0.0 0.0 2.8320908837222194e-24 -1.915245304568991 -1.9152454866214774 -0.07223907980561979 2.9632965881849946e-11 0.0 2.812414082680294e-23 -19.019385632419066 -19.019387440295286 -0.5614385162952867 2.303059291854437e-10 0.0 8.881784197001252e-16 -1.5707963705062866 1.5707963705062866 0.0 1.5707963705062866 3.1415927410125732 0.0 0.0 0.0 0.0 0.0 0.0 2.8320908837222194e-24 -1.915245304568991 -1.9152454866214774 -0.07223907980561979 2.9632965881849946e-11 0.0 2.8320908837222194e-24 -1.915245304568991 -1.9152454866214774 -0.07223907980561979 2.9632965881849946e-11 0.0 -0.4917999814226589 -0.13329999569261733 0.48779999999308776 -1.2091996607478837 -1.2091995026765232 1.2091996081401042 0.0 0.0 0.0 0.0 0.0 0.0 0.0 0.0 0.0 0.0 0.0 0.0 -0.4917999814226589 -0.13329999569261733 0.48779999999308776 -1.2091996607478837 -1.2091995026765232 1.2091996081401042 0.0 0.0 0.0 0.0 0.0 0.0 0 25.5 25.0 24.5 24.0 23.5 23.5 0.134136 7 253 253 253 253 253 253 1 -8.544634683005359e-07 -9.819999999999963 2.0141182493064963e-09 1.0 1.0 0.0 48.0 48.0 0.0 0.0 0.0 0.0 0.0 0.0 0.0 0 2
421.64599999999996 8.881784197001252e-16 -1.5707963705062866 1.5707963705062866 0.0 1.5707963705062866 3.1415927410125732 0.0 0.0 0.0 0.0 0.0 0.0 0.0 0.0 0.0 0.0 0.0 0.0 2.8320908837222194e-24 -1.915245304568991 -1.9152454866214774 -0.07223907980561979 2.9632965881849946e-11 0.0 2.812414082680294e-23 -19.019385632419066 -19.019387440295286 -0.5614385162952867 2.303059291854437e-10 0.0 8.881784197001252e-16 -1.5707963705062866 1.5707963705062866 0.0 1.5707963705062866 3.1415927410125732 0.0 0.0 0.0 0.0 0.0 0.0 2.8320908837222194e-24 -1.915245304568991 -1.9152454866214774 -0.07223907980561979 2.9632965881849946e-11 0.0 2.8320908837222194e-24 -1.915245304568991 -1.9152454866214774 -0.07223907980561979 2.9632965881849946e-11 0.0 -0.4917999814226589 -0.13329999569261733 0.48779999999308776 -1.2091996607478837 -1.2091995026765232 1.2091996081401042 0.0 0.0 0.0 0.0 0.0 0.0 0.0 0.0 0.0 0.0 0.0 0.0 -0.4917999814226589 -0.13329999569261733 0.48779999999308776 -1.2091996607478837 -1.2091995026765232 1.2091996081401042 0.0 0.0 0.0 0.0 0.0 0.0 0 25.5 25.0 24.5 24.0 23.5 23.5 0.206724 7 253 253 253 253 253 253 1 -8.544634683005359e-07 -9.819999999999963 2.0141182493064963e-09 1.0 1.0 0.0 48.0 48.0 0.0 0.0 0.0 0.0 0.0 0.0 0.0 0 2
421.654 8.881784197001252e-16 -1.5707963705062866 1.5707963705062866 0.0 1.5707963705062866 3.1415927410125732 0.0 0.0 0.0 0.0 0.0 0.0 0.0 0.0 0.0 0.0 0.0 0.0 2.8320908837222194e-24 -1.915245304568991 -1.9152454866214774 -0.07223907980561979 2.9632965881849946e-11 0.0 2.812414082680294e-23 -19.019385632419066 -19.019387440295286 -0.5614385162952867 2.303059291854437e-10 0.0 8.881784197001252e-16 -1.5707963705062866 1.5707963705062866 0.0 1.5707963705062866 3.1415927410125732 0.0 0.0 0.0 0.0 0.0 0.0 2.8320908837222194e-24 -1.915245304568991 -1.9152454866214774 -0.07223907980561979 2.9632965881849946e-11 0.0 2.8320908837222194e-24 -1.915245304568991 -1.9152454866214774 -0.07223907980561979 2.9632965881849946e-11 0.0 -0.4917999814226589 -0.13329999569261733 0.48779999999308776 -1.2091996607478837 -1.2091995026765232 1.2091996081401042 0.0 0.0 0.0 0.0 0.0 0.0 0.0 0.0 0.0 0.0 0.0 0.0 -0.4917999814226589 -0.13329999569261733 0.48779999999308776 -1.2091996607478837 -1.2091995026765232 1.2091996081401042 0.0 0.0 0.0 0.0 0.0 0.0 0 25.5 25.0 24.5 24.0 23.5 23.5 0.119983 7 253 253 253 253 253 253 1 -8.544634683005359e-07 -9.819999999999963 2.0141182493064963e-09 1.0 1.0 0.0 48.0 48.0 0.0 0.0 0.0 0.0 0.0 0.0 0.0 0 2
421.662 8.881784197001252e-16 -1.5707963705062866 1.5707963705062866 0.0 1.5707963705062866 3.1415927410125732 0.0 0.0 0.0 0.0 0.0 0.0 0.0 0.0 0.0 0.0 0.0 0.0 2.8320908837222194e-24 -1.915245304568991 -1.9152454866214774 -0.07223907980561979 2.9632965881849946e-11 0.0 2.812414082680294e-23 -19.019385632419066 -19.019387440295286 -0.5614385162952867 2.303059291854437e-10 0.0 8.881784197001252e-16 -1.5707963705062866 1.5707963705062866 0.0 1.5707963705062866 3.1415927410125732 0.0 0.0 0.0 0.0 0.0 0.0 2.8320908837222194e-24 -1.915245304568991 -1.9152454866214774 -0.07223907980561979 2.9632965881849946e-11 0.0 2.8320908837222194e-24 -1.915245304568991 -1.9152454866214774 -0.07223907980561979 2.9632965881849946e-11 0.0 -0.4917999814226589 -0.13329999569261733 0.48779999999308776 -1.2091996607478837 -1.2091995026765232 1.2091996081401042 0.0 0.0 0.0 0.0 0.0 0.0 0.0 0.0 0.0 0.0 0.0 0.0 -0.4917999814226589 -0.13329999569261733 0.48779999999308776 -1.2091996607478837 -1.2091995026765232 1.2091996081401042 0.0 0.0 0.0 0.0 0.0 0.0 0 25.5 25.0 24.5 24.0 23.5 23.5 0.141427 7 253 253 253 253 253 253 1 -8.544634683005359e-07 -9.819999999999963 2.0141182493064963e-09 1.0 1.0 0.0 48.0 48.0 0.0 0.0 0.0 0.0 0.0 0.0 0.0 0 2
421.66999999999996 8.881784197001252e-16 -1.5707963705062866 1.5707963705062866 0.0 1.5707963705062866 3.1415927410125732 0.0 0.0 0.0 0.0 0.0 0.0 0.0 0.0 0.0 0.0 0.0 0.0 2.8320908837222194e-24 -1.915245304568991 -1.9152454866214774 -0.07223907980561979 2.9632965881849946e-11 0.0 2.812414082680294e-23 -19.019385632419066 -19.019387440295286 -0.5614385162952867 2.303059291854437e-10 0.0 8.881784197001252e-16 -1.5707963705062866 1.5707963705062866 0.0 1.5707963705062866 3.1415927410125732 0.0 0.0 0.0 0.0 0.0 0.0 2.8320908837222194e-24 -1.915245304568991 -1.9152454866214774 -0.07223907980561979 2.9632965881849946e-11 0.0 2.8320908837222194e-24 -1.915245304568991 -1.9152454866214774 -0.07223907980561979 2.9632965881849946e-11 0.0 -0.4917999814226589 -0.13329999569261733 0.48779999999308776 -1.2091996607478837 -1.2091995026765232 1.2091996081401042 0.0 0.0 0.0 0.0 0.0 0.0 0.0 0.0 0.0 0.0 0.0 0.0 -0.4917999814226589 -0.13329999569261733 0.48779999999308776 -1.2091996607478837 -1.2091995026765232 1.2091996081401042 0.0 0.0 0.0 0.0 0.0 0.0 0 25.5 25.0 24.5 24.0 23.5 23.5 0.311446 7 253 253 253 253 253 253 1 -8.544634683005359e-07 -9.819999999999963 2.0141182493064963e-09 1.0 1.0 0.0 48.0 48.0 0.0 0.0 0.0 0.0 0.0 0.0 0.0 0 2
421.678 8.881784197001252e-16 -1.5707963705062866 1.5707963705062866 0.0 1.5707963705062866 3.1415927410125732 0.0 0.0 0.0 0.0 0.0 0.0 0.0 0.0 0.0 0.0 0.0 0.0 2.8320908837222194e-24 -1.915245304568991 -1.9152454866214774 -0.07223907980561979 2.9632965881849946e-11 0.0 2.812414082680294e-23 -19.019385632419066 -19.019387440295286 -0.5614385162952867 2.303059291854437e-10 0.0 8.881784197001252e-16 -1.5707963705062866 1.5707963705062866 0.0 1.5707963705062866 3.1415927410125732 0.0 0.0 0.0 0.0 0.0 0.0 2.8320908837222194e-24 -1.915245304568991 -1.9152454866214774 -0.07223907980561979 2.9632965881849946e-11 0.0 2.8320908837222194e-24 -1.915245304568991 -1.9152454866214774 -0.07223907980561979 2.9632965881849946e-11 0.0 -0.4917999814226589 -0.13329999569261733 0.48779999999308776 -1.2091996607478837 -1.2091995026765232 1.2091996081401042 0.0 0.0 0.0 0.0 0.0 0.0 0.0 0.0 0.0 0.0 0.0 0.0 -0.4917999814226589 -0.13329999569261733 0.48779999999308776 -1.2091996607478837 -1.2091995026765232 1.2091996081401042 0.0 0.0 0.0 0.0 0.0 0.0 0 25.5 25.0 24.5 24.0 23.5 23.5 0.15313200000000002 7 253 253 253 253 253 253 1 -8.544634683005359e-07 -9.819999999999963 2.0141182493064963e-09 1.0 1.0 0.0 48.0 48.0 0.0 0.0 0.0 0.0 0.0 0.0 0.0 0 2
421.686 8.881784197001252e-16 -1.5707963705062866 1.5707963705062866 0.0 1.5707963705062866 3.1415927410125732 0.0 0.0 0.0 0.0 0.0 0.0 0.0 0.0 0.0 0.0 0.0 0.0 2.8320908837222194e-24 -1.915245304568991 -1.9152454866214774 -0.07223907980561979 2.9632965881849946e-11 0.0 2.812414082680294e-23 -19.019385632419066 -19.019387440295286 -0.5614385162952867 2.303059291854437e-10 0.0 8.881784197001252e-16 -1.5707963705062866 1.5707963705062866 0.0 1.5707963705062866 3.1415927410125732 0.0 0.0 0.0 0.0 0.0 0.0 2.8320908837222194e-24 -1.915245304568991 -1.9152454866214774 -0.07223907980561979 2.9632965881849946e-11 0.0 2.8320908837222194e-24 -1.915245304568991 -1.9152454866214774 -0.07223907980561979 2.9632965881849946e-11 0.0 -0.4917999814226589 -0.13329999569261733 0.48779999999308776 -1.2091996607478837 -1.2091995026765232 1.2091996081401042 0.0 0.0 0.0 0.0 0.0 0.0 0.0 0.0 0.0 0.0 0.0 0.0 -0.4917999814226589 -0.13329999569261733 0.48779999999308776 -1.2091996607478837 -1.2091995026765232 1.2091996081401042 0.0 0.0 0.0 0.0 0.0 0.0 0 25.5 25.0 24.5 24.0 23.5 23.5 0.15328899999999998 7 253 253 253 253 253 253 1 -8.544634683005359e-07 -9.819999999999963 2.0141182493064963e-09 1.0 1.0 0.0 48.0 48.0 0.0 0.0 0.0 0.0 0.0 0.0 0.0 0 2
421.69399999999996 8.881784197001252e-16 -1.5707963705062866 1.5707963705062866 0.0 1.5707963705062866 3.1415927410125732 0.0 0.0 0.0 0.0 0.0 0.0 0.0 0.0 0.0 0.0 0.0 0.0 2.8320908837222194e-24 -1.915245304568991 -1.9152454866214774 -0.07223907980561979 2.9632965881849946e-11 0.0 2.812414082680294e-23 -19.019385632419066 -19.019387440295286 -0.5614385162952867 2.303059291854437e-10 0.0 8.881784197001252e-16 -1.5707963705062866 1.5707963705062866 0.0 1.5707963705062866 3.1415927410125732 0.0 0.0 0.0 0.0 0.0 0.0 2.8320908837222194e-24 -1.915245304568991 -1.9152454866214774 -0.07223907980561979 2.9632965881849946e-11 0.0 2.8320908837222194e-24 -1.915245304568991 -1.9152454866214774 -0.07223907980561979 2.9632965881849946e-11 0.0 -0.4917999814226589 -0.13329999569261733 0.48779999999308776 -1.2091996607478837 -1.2091995026765232 1.2091996081401042 0.0 0.0 0.0 0.0 0.0 0.0 0.0 0.0 0.0 0.0 0.0 0.0 -0.4917999814226589 -0.13329999569261733 0.48779999999308776 -1.2091996607478837 -1.2091995026765232 1.2091996081401042 0.0 0.0 0.0 0.0 0.0 0.0 0 25.5 25.0 24.5 24.0 23.5 23.5 0.104662 7 253 253 253 253 253 253 1 -8.544634683005359e-07 -9.819999999999963 2.0141182493064963e-09 1.0 1.0 0.0 48.0 48.0 0.0 0.0 0.0 0.0 0.0 0.0 0.0 0 2
421.702 8.881784197001252e-16 -1.5707963705062866 1.5707963705062866 0.0 1.5707963705062866 3.1415927410125732 0.0 0.0 0.0 0.0 0.0 0.0 0.0 0.0 0.0 0.0 0.0 0.0 2.8320908837222194e-24 -1.915245304568991 -1.9152454866214774 -0.07223907980561979 2.9632965881849946e-11 0.0 2.812414082680294e-23 -19.019385632419066 -19.019387440295286 -0.5614385162952867 2.303059291854437e-10 0.0 8.881784197001252e-16 -1.5707963705062866 1.5707963705062866 0.0 1.5707963705062866 3.1415927410125732 0.0 0.0 0.0 0.0 0.0 0.0 2.8320908837222194e-24 -1.915245304568991 -1.9152454866214774 -0.07223907980561979 2.9632965881849946e-11 0.0 2.8320908837222194e-24 -1.915245304568991 -1.9152454866214774 -0.07223907980561979 2.9632965881849946e-11 0.0 -0.4917999814226589 -0.13329999569261733 0.48779999999308776 -1.2091996607478837 -1.2091995026765232 1.2091996081401042 0.0 0.0 0.0 0.0 0.0 0.0 0.0 0.0 0.0 0.0 0.0 0.0 -0.4917999814226589 -0.13329999569261733 0.48779999999308776 -1.2091996607478837 -1.2091995026765232 1.2091996081401042 0.0 0.0 0.0 0.0 0.0 0.0 0 25.5 25.0 24.5 24.0 23.5 23.5 0.102775 7 253 253 253 253 253 253 1 -8.544634683005359e-07 -9.819999999999963 2.0141182493064963e-09 1.0 1.0 0.0 48.0 48.0 0.0 0.0 0.0 0.0 0.0 0.0 0.0 0 2
421.71 8.881784197001252e-16 -1.5707963705062866 1.5707963705062866 0.0 1.5707963705062866 3.1415927410125732 0.0 0.0 0.0 0.0 0.0 0.0 0.0 0.0 0.0 0.0 0.0 0.0 2.8320908837222194e-24 -1.915245304568991 -1.9152454866214774 -0.07223907980561979 2.9632965881849946e-11 0.0 2.812414082680294e-23 -19.019385632419066 -19.019387440295286 -0.5614385162952867 2.303059291854437e-10 0.0 8.881784197001252e-16 -1.5707963705062866 1.5707963705062866 0.0 1.5707963705062866 3.1415927410125732 0.0 0.0 0.0 0.0 0.0 0.0 2.8320908837222194e-24 -1.915245304568991 -1.9152454866214774 -0.07223907980561979 2.9632965881849946e-11 0.0 2.8320908837222194e-24 -1.915245304568991 -1.9152454866214774 -0.07223907980561979 2.9632965881849946e-11 0.0 -0.4917999814226589 -0.13329999569261733 0.48779999999308776 -1.2091996607478837 -1.2091995026765232 1.2091996081401042 0.0 0.0 0.0 0.0 0.0 0.0 0.0 0.0 0.0 0.0 0.0 0.0 -0.4917999814226589 -0.13329999569261733 0.48779999999308776 -1.2091996607478837 -1.2091995026765232 1.2091996081401042 0.0 0.0 0.0 0.0 0.0 0.0 0 25.5 25.0 24.5 24.0 23.5 23.5 0.160548 7 253 253 253 253 253 253 1 -8.544634683005359e-07 -9.819999999999963 2.0141182493064963e-09 1.0 1.0 0.0 48.0 48.0 0.0 0.0 0.0 0.0 0.0 0.0 0.0 0 2
421.71799999999996 8.881784197001252e-16 -1.5707963705062866 1.5707963705062866 0.0 1.5707963705062866 3.1415927410125732 0.0 0.0 0.0 0.0 0.0 0.0 0.0 0.0 0.0 0.0 0.0 0.0 2.8320908837222194e-24 -1.915245304568991 -1.9152454866214774 -0.07223907980561979 2.9632965881849946e-11 0.0 2.812414082680294e-23 -19.019385632419066 -19.019387440295286 -0.5614385162952867 2.303059291854437e-10 0.0 8.881784197001252e-16 -1.5707963705062866 1.5707963705062866 0.0 1.5707963705062866 3.1415927410125732 0.0 0.0 0.0 0.0 0.0 0.0 2.8320908837222194e-24 -1.915245304568991 -1.9152454866214774 -0.07223907980561979 2.9632965881849946e-11 0.0 2.8320908837222194e-24 -1.915245304568991 -1.9152454866214774 -0.07223907980561979 2.9632965881849946e-11 0.0 -0.4917999814226589 -0.13329999569261733 0.48779999999308776 -1.2091996607478837 -1.2091995026765232 1.2091996081401042 0.0 0.0 0.0 0.0 0.0 0.0 0.0 0.0 0.0 0.0 0.0 0.0 -0.4917999814226589 -0.13329999569261733 0.48779999999308776 -1.2091996607478837 -1.2091995026765232 1.2091996081401042 0.0 0.0 0.0 0.0 0.0 0.0 0 25.5 25.0 24.5 24.0 23.5 23.5 0.37267 7 253 253 253 253 253 253 1 -8.544634683005359e-07 -9.819999999999963 2.0141182493064963e-09 1.0 1.0 0.0 48.0 48.0 0.0 0.0 0.0 0.0 0.0 0.0 0.0 0 2
421.726 8.881784197001252e-16 -1.5707963705062866 1.5707963705062866 0.0 1.5707963705062866 3.1415927410125732 0.0 0.0 0.0 0.0 0.0 0.0 0.0 0.0 0.0 0.0 0.0 0.0 2.8320908837222194e-24 -1.915245304568991 -1.9152454866214774 -0.07223907980561979 2.9632965881849946e-11 0.0 2.812414082680294e-23 -19.019385632419066 -19.019387440295286 -0.5614385162952867 2.303059291854437e-10 0.0 8.881784197001252e-16 -1.5707963705062866 1.5707963705062866 0.0 1.5707963705062866 3.1415927410125732 0.0 0.0 0.0 0.0 0.0 0.0 2.8320908837222194e-24 -1.915245304568991 -1.9152454866214774 -0.07223907980561979 2.9632965881849946e-11 0.0 2.8320908837222194e-24 -1.915245304568991 -1.9152454866214774 -0.07223907980561979 2.9632965881849946e-11 0.0 -0.4917999814226589 -0.13329999569261733 0.48779999999308776 -1.2091996607478837 -1.2091995026765232 1.2091996081401042 0.0 0.0 0.0 0.0 0.0 0.0 0.0 0.0 0.0 0.0 0.0 0.0 -0.4917999814226589 -0.13329999569261733 0.48779999999308776 -1.2091996607478837 -1.2091995026765232 1.2091996081401042 0.0 0.0 0.0 0.0 0.0 0.0 0 25.5 25.0 24.5 24.0 23.5 23.5 0.37040300000000004 7 253 253 253 253 253 253 1 -8.544634683005359e-07 -9.819999999999963 2.0141182493064963e-09 1.0 1.0 0.0 48.0 48.0 0.0 0.0 0.0 0.0 0.0 0.0 0.0 0 2
421.734 8.881784197001252e-16 -1.5707963705062866 1.5707963705062866 0.0 1.5707963705062866 3.1415927410125732 0.0 0.0 0.0 0.0 0.0 0.0 0.0 0.0 0.0 0.0 0.0 0.0 2.8320908837222194e-24 -1.915245304568991 -1.9152454866214774 -0.07223907980561979 2.9632965881849946e-11 0.0 2.812414082680294e-23 -19.019385632419066 -19.019387440295286 -0.5614385162952867 2.303059291854437e-10 0.0 8.881784197001252e-16 -1.5707963705062866 1.5707963705062866 0.0 1.5707963705062866 3.1415927410125732 0.0 0.0 0.0 0.0 0.0 0.0 2.8320908837222194e-24 -1.915245304568991 -1.9152454866214774 -0.07223907980561979 2.9632965881849946e-11 0.0 2.8320908837222194e-24 -1.915245304568991 -1.9152454866214774 -0.07223907980561979 2.9632965881849946e-11 0.0 -0.4917999814226589 -0.13329999569261733 0.48779999999308776 -1.2091996607478837 -1.2091995026765232 1.2091996081401042 0.0 0.0 0.0 0.0 0.0 0.0 0.0 0.0 0.0 0.0 0.0 0.0 -0.4917999814226589 -0.13329999569261733 0.48779999999308776 -1.2091996607478837 -1.2091995026765232 1.2091996081401042 0.0 0.0 0.0 0.0 0.0 0.0 0 25.5 25.0 24.5 24.0 23.5 23.5 0.469962 7 253 253 253 253 253 253 1 -8.544634683005359e-07 -9.819999999999963 2.0141182493064963e-09 1.0 1.0 0.0 48.0 48.0 0.0 0.0 0.0 0.0 0.0 0.0 0.0 0 2
421.74199999999996 8.881784197001252e-16 -1.5707963705062866 1.5707963705062866 0.0 1.5707963705062866 3.1415927410125732 0.0 0.0 0.0 0.0 0.0 0.0 0.0 0.0 0.0 0.0 0.0 0.0 2.8320908837222194e-24 -1.915245304568991 -1.9152454866214774 -0.07223907980561979 2.9632965881849946e-11 0.0 2.812414082680294e-23 -19.019385632419066 -19.019387440295286 -0.5614385162952867 2.303059291854437e-10 0.0 8.881784197001252e-16 -1.5707963705062866 1.5707963705062866 0.0 1.5707963705062866 3.1415927410125732 0.0 0.0 0.0 0.0 0.0 0.0 2.8320908837222194e-24 -1.915245304568991 -1.9152454866214774 -0.07223907980561979 2.9632965881849946e-11 0.0 2.8320908837222194e-24 -1.915245304568991 -1.9152454866214774 -0.07223907980561979 2.9632965881849946e-11 0.0 -0.4917999814226589 -0.13329999569261733 0.48779999999308776 -1.2091996607478837 -1.2091995026765232 1.2091996081401042 0.0 0.0 0.0 0.0 0.0 0.0 0.0 0.0 0.0 0.0 0.0 0.0 -0.4917999814226589 -0.13329999569261733 0.48779999999308776 -1.2091996607478837 -1.2091995026765232 1.2091996081401042 0.0 0.0 0.0 0.0 0.0 0.0 0 25.5 25.0 24.5 24.0 23.5 23.5 0.419025 7 253 253 253 253 253 253 1 -8.544634683005359e-07 -9.819999999999963 2.0141182493064963e-09 1.0 1.0 0.0 48.0 48.0 0.0 0.0 0.0 0.0 0.0 0.0 0.0 0 2
421.75 8.881784197001252e-16 -1.5707963705062866 1.5707963705062866 0.0 1.5707963705062866 3.1415927410125732 0.0 0.0 0.0 0.0 0.0 0.0 0.0 0.0 0.0 0.0 0.0 0.0 2.8320908837222194e-24 -1.915245304568991 -1.9152454866214774 -0.07223907980561979 2.9632965881849946e-11 0.0 2.812414082680294e-23 -19.019385632419066 -19.019387440295286 -0.5614385162952867 2.303059291854437e-10 0.0 8.881784197001252e-16 -1.5707963705062866 1.5707963705062866 0.0 1.5707963705062866 3.1415927410125732 0.0 0.0 0.0 0.0 0.0 0.0 2.8320908837222194e-24 -1.915245304568991 -1.9152454866214774 -0.07223907980561979 2.9632965881849946e-11 0.0 2.8320908837222194e-24 -1.915245304568991 -1.9152454866214774 -0.07223907980561979 2.9632965881849946e-11 0.0 -0.4917999814226589 -0.13329999569261733 0.48779999999308776 -1.2091996607478837 -1.2091995026765232 1.2091996081401042 0.0 0.0 0.0 0.0 0.0 0.0 0.0 0.0 0.0 0.0 0.0 0.0 -0.4917999814226589 -0.13329999569261733 0.48779999999308776 -1.2091996607478837 -1.2091995026765232 1.2091996081401042 0.0 0.0 0.0 0.0 0.0 0.0 0 25.5 25.0 24.5 24.0 23.5 23.5 0.323729 7 253 253 253 253 253 253 1 -8.544634683005359e-07 -9.819999999999963 2.0141182493064963e-09 1.0 1.0 0.0 48.0 48.0 0.0 0.0 0.0 0.0 0.0 0.0 0.0 0 2
421.758 8.881784197001252e-16 -1.5707963705062866 1.5707963705062866 0.0 1.5707963705062866 3.1415927410125732 0.0 0.0 0.0 0.0 0.0 0.0 0.0 0.0 0.0 0.0 0.0 0.0 2.8320908837222194e-24 -1.915245304568991 -1.9152454866214774 -0.07223907980561979 2.9632965881849946e-11 0.0 2.812414082680294e-23 -19.019385632419066 -19.019387440295286 -0.5614385162952867 2.303059291854437e-10 0.0 8.881784197001252e-16 -1.5707963705062866 1.5707963705062866 0.0 1.5707963705062866 3.1415927410125732 0.0 0.0 0.0 0.0 0.0 0.0 2.8320908837222194e-24 -1.915245304568991 -1.9152454866214774 -0.07223907980561979 2.9632965881849946e-11 0.0 2.8320908837222194e-24 -1.915245304568991 -1.9152454866214774 -0.07223907980561979 2.9632965881849946e-11 0.0 -0.4917999814226589 -0.13329999569261733 0.48779999999308776 -1.2091996607478837 -1.2091995026765232 1.2091996081401042 0.0 0.0 0.0 0.0 0.0 0.0 0.0 0.0 0.0 0.0 0.0 0.0 -0.4917999814226589 -0.13329999569261733 0.48779999999308776 -1.2091996607478837 -1.2091995026765232 1.2091996081401042 0.0 0.0 0.0 0.0 0.0 0.0 0 25.5 25.0 24.5 24.0 23.5 23.5 0.262973 7 253 253 253 253 253 253 1 -8.544634683005359e-07 -9.819999999999963 2.0141182493064963e-09 1.0 1.0 0.0 48.0 48.0 0.0 0.0 0.0 0.0 0.0 0.0 0.0 0 2
421.76599999999996 8.881784197001252e-16 -1.5707963705062866 1.5707963705062866 0.0 1.5707963705062866 3.1415927410125732 0.0 0.0 0.0 0.0 0.0 0.0 0.0 0.0 0.0 0.0 0.0 0.0 2.8320908837222194e-24 -1.915245304568991 -1.9152454866214774 -0.07223907980561979 2.9632965881849946e-11 0.0 2.812414082680294e-23 -19.019385632419066 -19.019387440295286 -0.5614385162952867 2.303059291854437e-10 0.0 8.881784197001252e-16 -1.5707963705062866 1.5707963705062866 0.0 1.5707963705062866 3.1415927410125732 0.0 0.0 0.0 0.0 0.0 0.0 2.8320908837222194e-24 -1.915245304568991 -1.9152454866214774 -0.07223907980561979 2.9632965881849946e-11 0.0 2.8320908837222194e-24 -1.915245304568991 -1.9152454866214774 -0.07223907980561979 2.9632965881849946e-11 0.0 -0.4917999814226589 -0.13329999569261733 0.48779999999308776 -1.2091996607478837 -1.2091995026765232 1.2091996081401042 0.0 0.0 0.0 0.0 0.0 0.0 0.0 0.0 0.0 0.0 0.0 0.0 -0.4917999814226589 -0.13329999569261733 0.48779999999308776 -1.2091996607478837 -1.2091995026765232 1.2091996081401042 0.0 0.0 0.0 0.0 0.0 0.0 0 25.5 25.0 24.5 24.0 23.5 23.5 0.1456 7 253 253 253 253 253 253 1 -8.544634683005359e-07 -9.819999999999963 2.0141182493064963e-09 1.0 1.0 0.0 48.0 48.0 0.0 0.0 0.0 0.0 0.0 0.0 0.0 0 2
421.774 8.881784197001252e-16 -1.5707963705062866 1.5707963705062866 0.0 1.5707963705062866 3.1415927410125732 0.0 0.0 0.0 0.0 0.0 0.0 0.0 0.0 0.0 0.0 0.0 0.0 2.8320908837222194e-24 -1.915245304568991 -1.9152454866214774 -0.07223907980561979 2.9632965881849946e-11 0.0 2.812414082680294e-23 -19.019385632419066 -19.019387440295286 -0.5614385162952867 2.303059291854437e-10 0.0 8.881784197001252e-16 -1.5707963705062866 1.5707963705062866 0.0 1.5707963705062866 3.1415927410125732 0.0 0.0 0.0 0.0 0.0 0.0 2.8320908837222194e-24 -1.915245304568991 -1.9152454866214774 -0.07223907980561979 2.9632965881849946e-11 0.0 2.8320908837222194e-24 -1.915245304568991 -1.9152454866214774 -0.07223907980561979 2.9632965881849946e-11 0.0 -0.4917999814226589 -0.13329999569261733 0.48779999999308776 -1.2091996607478837 -1.2091995026765232 1.2091996081401042 0.0 0.0 0.0 0.0 0.0 0.0 0.0 0.0 0.0 0.0 0.0 0.0 -0.4917999814226589 -0.13329999569261733 0.48779999999308776 -1.2091996607478837 -1.2091995026765232 1.2091996081401042 0.0 0.0 0.0 0.0 0.0 0.0 0 25.5 25.0 24.5 24.0 23.5 23.5 0.158913 7 253 253 253 253 253 253 1 -8.544634683005359e-07 -9.819999999999963 2.0141182493064963e-09 1.0 1.0 0.0 48.0 48.0 0.0 0.0 0.0 0.0 0.0 0.0 0.0 0 2
421.782 8.881784197001252e-16 -1.5707963705062866 1.5707963705062866 0.0 1.5707963705062866 3.1415927410125732 0.0 0.0 0.0 0.0 0.0 0.0 0.0 0.0 0.0 0.0 0.0 0.0 2.8320908837222194e-24 -1.915245304568991 -1.9152454866214774 -0.07223907980561979 2.9632965881849946e-11 0.0 2.812414082680294e-23 -19.019385632419066 -19.019387440295286 -0.5614385162952867 2.303059291854437e-10 0.0 8.881784197001252e-16 -1.5707963705062866 1.5707963705062866 0.0 1.5707963705062866 3.1415927410125732 0.0 0.0 0.0 0.0 0.0 0.0 2.8320908837222194e-24 -1.915245304568991 -1.9152454866214774 -0.07223907980561979 2.9632965881849946e-11 0.0 2.8320908837222194e-24 -1.915245304568991 -1.9152454866214774 -0.07223907980561979 2.9632965881849946e-11 0.0 -0.4917999814226589 -0.13329999569261733 0.48779999999308776 -1.2091996607478837 -1.2091995026765232 1.2091996081401042 0.0 0.0 0.0 0.0 0.0 0.0 0.0 0.0 0.0 0.0 0.0 0.0 -0.4917999814226589 -0.13329999569261733 0.48779999999308776 -1.2091996607478837 -1.2091995026765232 1.2091996081401042 0.0 0.0 0.0 0.0 0.0 0.0 0 25.5 25.0 24.5 24.0 23.5 23.5 0.138815 7 253 253 253 253 253 253 1 -8.544634683005359e-07 -9.819999999999963 2.0141182493064963e-09 1.0 1.0 0.0 48.0 48.0 0.0 0.0 0.0 0.0 0.0 0.0 0.0 0 2
421.78999999999996 8.881784197001252e-16 -1.5707963705062866 1.5707963705062866 0.0 1.5707963705062866 3.1415927410125732 0.0 0.0 0.0 0.0 0.0 0.0 0.0 0.0 0.0 0.0 0.0 0.0 2.8320908837222194e-24 -1.915245304568991 -1.9152454866214774 -0.07223907980561979 2.9632965881849946e-11 0.0 2.812414082680294e-23 -19.019385632419066 -19.019387440295286 -0.5614385162952867 2.303059291854437e-10 0.0 8.881784197001252e-16 -1.5707963705062866 1.5707963705062866 0.0 1.5707963705062866 3.1415927410125732 0.0 0.0 0.0 0.0 0.0 0.0 2.8320908837222194e-24 -1.915245304568991 -1.9152454866214774 -0.07223907980561979 2.9632965881849946e-11 0.0 2.8320908837222194e-24 -1.915245304568991 -1.9152454866214774 -0.07223907980561979 2.9632965881849946e-11 0.0 -0.4917999814226589 -0.13329999569261733 0.48779999999308776 -1.2091996607478837 -1.2091995026765232 1.2091996081401042 0.0 0.0 0.0 0.0 0.0 0.0 0.0 0.0 0.0 0.0 0.0 0.0 -0.4917999814226589 -0.13329999569261733 0.48779999999308776 -1.2091996607478837 -1.2091995026765232 1.2091996081401042 0.0 0.0 0.0 0.0 0.0 0.0 0 25.5 25.0 24.5 24.0 23.5 23.5 0.234931 7 253 253 253 253 253 253 1 -8.544634683005359e-07 -9.819999999999963 2.0141182493064963e-09 1.0 1.0 0.0 48.0 48.0 0.0 0.0 0.0 0.0 0.0 0.0 0.0 0 2
421.798 8.881784197001252e-16 -1.5707963705062866 1.5707963705062866 0.0 1.5707963705062866 3.1415927410125732 0.0 0.0 0.0 0.0 0.0 0.0 0.0 0.0 0.0 0.0 0.0 0.0 2.8320908837222194e-24 -1.915245304568991 -1.9152454866214774 -0.07223907980561979 2.9632965881849946e-11 0.0 2.812414082680294e-23 -19.019385632419066 -19.019387440295286 -0.5614385162952867 2.303059291854437e-10 0.0 8.881784197001252e-16 -1.5707963705062866 1.5707963705062866 0.0 1.5707963705062866 3.1415927410125732 0.0 0.0 0.0 0.0 0.0 0.0 2.8320908837222194e-24 -1.915245304568991 -1.9152454866214774 -0.07223907980561979 2.9632965881849946e-11 0.0 2.8320908837222194e-24 -1.915245304568991 -1.9152454866214774 -0.07223907980561979 2.9632965881849946e-11 0.0 -0.4917999814226589 -0.13329999569261733 0.48779999999308776 -1.2091996607478837 -1.2091995026765232 1.2091996081401042 0.0 0.0 0.0 0.0 0.0 0.0 0.0 0.0 0.0 0.0 0.0 0.0 -0.4917999814226589 -0.13329999569261733 0.48779999999308776 -1.2091996607478837 -1.2091995026765232 1.2091996081401042 0.0 0.0 0.0 0.0 0.0 0.0 0 25.5 25.0 24.5 24.0 23.5 23.5 0.162905 7 253 253 253 253 253 253 1 -8.544634683005359e-07 -9.819999999999963 2.0141182493064963e-09 1.0 1.0 0.0 48.0 48.0 0.0 0.0 0.0 0.0 0.0 0.0 0.0 0 2
421.806 8.881784197001252e-16 -1.5707963705062866 1.5707963705062866 0.0 1.5707963705062866 3.1415927410125732 0.0 0.0 0.0 0.0 0.0 0.0 0.0 0.0 0.0 0.0 0.0 0.0 2.8320908837222194e-24 -1.915245304568991 -1.9152454866214774 -0.07223907980561979 2.9632965881849946e-11 0.0 2.812414082680294e-23 -19.019385632419066 -19.019387440295286 -0.5614385162952867 2.303059291854437e-10 0.0 8.881784197001252e-16 -1.5707963705062866 1.5707963705062866 0.0 1.5707963705062866 3.1415927410125732 0.0 0.0 0.0 0.0 0.0 0.0 2.8320908837222194e-24 -1.915245304568991 -1.9152454866214774 -0.07223907980561979 2.9632965881849946e-11 0.0 2.8320908837222194e-24 -1.915245304568991 -1.9152454866214774 -0.07223907980561979 2.9632965881849946e-11 0.0 -0.4917999814226589 -0.13329999569261733 0.48779999999308776 -1.2091996607478837 -1.2091995026765232 1.2091996081401042 0.0 0.0 0.0 0.0 0.0 0.0 0.0 0.0 0.0 0.0 0.0 0.0 -0.4917999814226589 -0.13329999569261733 0.48779999999308776 -1.2091996607478837 -1.2091995026765232 1.2091996081401042 0.0 0.0 0.0 0.0 0.0 0.0 0 25.5 25.0 24.5 24.0 23.5 23.5 0.137319 7 253 253 253 253 253 253 1 -8.544634683005359e-07 -9.819999999999963 2.0141182493064963e-09 1.0 1.0 0.0 48.0 48.0 0.0 0.0 0.0 0.0 0.0 0.0 0.0 0 2
421.81399999999996 8.881784197001252e-16 -1.5707963705062866 1.5707963705062866 0.0 1.5707963705062866 3.1415927410125732 0.0 0.0 0.0 0.0 0.0 0.0 0.0 0.0 0.0 0.0 0.0 0.0 2.8320908837222194e-24 -1.915245304568991 -1.9152454866214774 -0.07223907980561979 2.9632965881849946e-11 0.0 2.812414082680294e-23 -19.019385632419066 -19.019387440295286 -0.5614385162952867 2.303059291854437e-10 0.0 8.881784197001252e-16 -1.5707963705062866 1.5707963705062866 0.0 1.5707963705062866 3.1415927410125732 0.0 0.0 0.0 0.0 0.0 0.0 2.8320908837222194e-24 -1.915245304568991 -1.9152454866214774 -0.07223907980561979 2.9632965881849946e-11 0.0 2.8320908837222194e-24 -1.915245304568991 -1.9152454866214774 -0.07223907980561979 2.9632965881849946e-11 0.0 -0.4917999814226589 -0.13329999569261733 0.48779999999308776 -1.2091996607478837 -1.2091995026765232 1.2091996081401042 0.0 0.0 0.0 0.0 0.0 0.0 0.0 0.0 0.0 0.0 0.0 0.0 -0.4917999814226589 -0.13329999569261733 0.48779999999308776 -1.2091996607478837 -1.2091995026765232 1.2091996081401042 0.0 0.0 0.0 0.0 0.0 0.0 0 25.5 25.0 24.5 24.0 23.5 23.5 0.125673 7 253 253 253 253 253 253 1 -8.544634683005359e-07 -9.819999999999963 2.0141182493064963e-09 1.0 1.0 0.0 48.0 48.0 0.0 0.0 0.0 0.0 0.0 0.0 0.0 0 2
421.822 8.881784197001252e-16 -1.5707963705062866 1.5707963705062866 0.0 1.5707963705062866 3.1415927410125732 0.0 0.0 0.0 0.0 0.0 0.0 0.0 0.0 0.0 0.0 0.0 0.0 2.8320908837222194e-24 -1.915245304568991 -1.9152454866214774 -0.07223907980561979 2.9632965881849946e-11 0.0 2.812414082680294e-23 -19.019385632419066 -19.019387440295286 -0.5614385162952867 2.303059291854437e-10 0.0 8.881784197001252e-16 -1.5707963705062866 1.5707963705062866 0.0 1.5707963705062866 3.1415927410125732 0.0 0.0 0.0 0.0 0.0 0.0 2.8320908837222194e-24 -1.915245304568991 -1.9152454866214774 -0.07223907980561979 2.9632965881849946e-11 0.0 2.8320908837222194e-24 -1.915245304568991 -1.9152454866214774 -0.07223907980561979 2.9632965881849946e-11 0.0 -0.4917999814226589 -0.13329999569261733 0.48779999999308776 -1.2091996607478837 -1.2091995026765232 1.2091996081401042 0.0 0.0 0.0 0.0 0.0 0.0 0.0 0.0 0.0 0.0 0.0 0.0 -0.4917999814226589 -0.13329999569261733 0.48779999999308776 -1.2091996607478837 -1.2091995026765232 1.2091996081401042 0.0 0.0 0.0 0.0 0.0 0.0 0 25.5 25.0 24.5 24.0 23.5 23.5 0.15121600000000002 7 253 253 253 253 253 253 1 -8.544634683005359e-07 -9.819999999999963 2.0141182493064963e-09 1.0 1.0 0.0 48.0 48.0 0.0 0.0 0.0 0.0 0.0 0.0 0.0 0 2
421.83 8.881784197001252e-16 -1.5707963705062866 1.5707963705062866 0.0 1.5707963705062866 3.1415927410125732 0.0 0.0 0.0 0.0 0.0 0.0 0.0 0.0 0.0 0.0 0.0 0.0 2.8320908837222194e-24 -1.915245304568991 -1.9152454866214774 -0.07223907980561979 2.9632965881849946e-11 0.0 2.812414082680294e-23 -19.019385632419066 -19.019387440295286 -0.5614385162952867 2.303059291854437e-10 0.0 8.881784197001252e-16 -1.5707963705062866 1.5707963705062866 0.0 1.5707963705062866 3.1415927410125732 0.0 0.0 0.0 0.0 0.0 0.0 2.8320908837222194e-24 -1.915245304568991 -1.9152454866214774 -0.07223907980561979 2.9632965881849946e-11 0.0 2.8320908837222194e-24 -1.915245304568991 -1.9152454866214774 -0.07223907980561979 2.9632965881849946e-11 0.0 -0.4917999814226589 -0.13329999569261733 0.48779999999308776 -1.2091996607478837 -1.2091995026765232 1.2091996081401042 0.0 0.0 0.0 0.0 0.0 0.0 0.0 0.0 0.0 0.0 0.0 0.0 -0.4917999814226589 -0.13329999569261733 0.48779999999308776 -1.2091996607478837 -1.2091995026765232 1.2091996081401042 0.0 0.0 0.0 0.0 0.0 0.0 0 25.5 25.0 24.5 24.0 23.5 23.5 0.140266 7 253 253 253 253 253 253 1 -8.544634683005359e-07 -9.819999999999963 2.0141182493064963e-09 1.0 1.0 0.0 48.0 48.0 0.0 0.0 0.0 0.0 0.0 0.0 0.0 0 2
421.83799999999997 8.881784197001252e-16 -1.5707963705062866 1.5707963705062866 0.0 1.5707963705062866 3.1415927410125732 0.0 0.0 0.0 0.0 0.0 0.0 0.0 0.0 0.0 0.0 0.0 0.0 2.8320908837222194e-24 -1.915245304568991 -1.9152454866214774 -0.07223907980561979 2.9632965881849946e-11 0.0 2.812414082680294e-23 -19.019385632419066 -19.019387440295286 -0.5614385162952867 2.303059291854437e-10 0.0 8.881784197001252e-16 -1.5707963705062866 1.5707963705062866 0.0 1.5707963705062866 3.1415927410125732 0.0 0.0 0.0 0.0 0.0 0.0 2.8320908837222194e-24 -1.915245304568991 -1.9152454866214774 -0.07223907980561979 2.9632965881849946e-11 0.0 2.8320908837222194e-24 -1.915245304568991 -1.9152454866214774 -0.07223907980561979 2.9632965881849946e-11 0.0 -0.4917999814226589 -0.13329999569261733 0.48779999999308776 -1.2091996607478837 -1.2091995026765232 1.2091996081401042 0.0 0.0 0.0 0.0 0.0 0.0 0.0 0.0 0.0 0.0 0.0 0.0 -0.4917999814226589 -0.13329999569261733 0.48779999999308776 -1.2091996607478837 -1.2091995026765232 1.2091996081401042 0.0 0.0 0.0 0.0 0.0 0.0 0 25.5 25.0 24.5 24.0 23.5 23.5 0.282992 7 253 253 253 253 253 253 1 -8.544634683005359e-07 -9.819999999999963 2.0141182493064963e-09 1.0 1.0 0.0 48.0 48.0 0.0 0.0 0.0 0.0 0.0 0.0 0.0 0 2
421.846 8.881784197001252e-16 -1.5707963705062866 1.5707963705062866 0.0 1.5707963705062866 3.1415927410125732 0.0 0.0 0.0 0.0 0.0 0.0 0.0 0.0 0.0 0.0 0.0 0.0 2.8320908837222194e-24 -1.915245304568991 -1.9152454866214774 -0.07223907980561979 2.9632965881849946e-11 0.0 2.812414082680294e-23 -19.019385632419066 -19.019387440295286 -0.5614385162952867 2.303059291854437e-10 0.0 8.881784197001252e-16 -1.5707963705062866 1.5707963705062866 0.0 1.5707963705062866 3.1415927410125732 0.0 0.0 0.0 0.0 0.0 0.0 2.8320908837222194e-24 -1.915245304568991 -1.9152454866214774 -0.07223907980561979 2.9632965881849946e-11 0.0 2.8320908837222194e-24 -1.915245304568991 -1.9152454866214774 -0.07223907980561979 2.9632965881849946e-11 0.0 -0.4917999814226589 -0.13329999569261733 0.48779999999308776 -1.2091996607478837 -1.2091995026765232 1.2091996081401042 0.0 0.0 0.0 0.0 0.0 0.0 0.0 0.0 0.0 0.0 0.0 0.0 -0.4917999814226589 -0.13329999569261733 0.48779999999308776 -1.2091996607478837 -1.2091995026765232 1.2091996081401042 0.0 0.0 0.0 0.0 0.0 0.0 0 25.5 25.0 24.5 24.0 23.5 23.5 0.136796 7 253 253 253 253 253 253 1 -8.544634683005359e-07 -9.819999999999963 2.0141182493064963e-09 1.0 1.0 0.0 48.0 48.0 0.0 0.0 0.0 0.0 0.0 0.0 0.0 0 2
421.854 8.881784197001252e-16 -1.5707963705062866 1.5707963705062866 0.0 1.5707963705062866 3.1415927410125732 0.0 0.0 0.0 0.0 0.0 0.0 0.0 0.0 0.0 0.0 0.0 0.0 2.8320908837222194e-24 -1.915245304568991 -1.9152454866214774 -0.07223907980561979 2.9632965881849946e-11 0.0 2.812414082680294e-23 -19.019385632419066 -19.019387440295286 -0.5614385162952867 2.303059291854437e-10 0.0 8.881784197001252e-16 -1.5707963705062866 1.5707963705062866 0.0 1.5707963705062866 3.1415927410125732 0.0 0.0 0.0 0.0 0.0 0.0 2.8320908837222194e-24 -1.915245304568991 -1.9152454866214774 -0.07223907980561979 2.9632965881849946e-11 0.0 2.8320908837222194e-24 -1.915245304568991 -1.9152454866214774 -0.07223907980561979 2.9632965881849946e-11 0.0 -0.4917999814226589 -0.13329999569261733 0.48779999999308776 -1.2091996607478837 -1.2091995026765232 1.2091996081401042 0.0 0.0 0.0 0.0 0.0 0.0 0.0 0.0 0.0 0.0 0.0 0.0 -0.4917999814226589 -0.13329999569261733 0.48779999999308776 -1.2091996607478837 -1.2091995026765232 1.2091996081401042 0.0 0.0 0.0 0.0 0.0 0.0 0 25.5 25.0 24.5 24.0 23.5 23.5 0.119645 7 253 253 253 253 253 253 1 -8.544634683005359e-07 -9.819999999999963 2.0141182493064963e-09 1.0 1.0 0.0 48.0 48.0 0.0 0.0 0.0 0.0 0.0 0.0 0.0 0 2
421.86199999999997 8.881784197001252e-16 -1.5707963705062866 1.5707963705062866 0.0 1.5707963705062866 3.1415927410125732 0.0 0.0 0.0 0.0 0.0 0.0 0.0 0.0 0.0 0.0 0.0 0.0 2.8320908837222194e-24 -1.915245304568991 -1.9152454866214774 -0.07223907980561979 2.9632965881849946e-11 0.0 2.812414082680294e-23 -19.019385632419066 -19.019387440295286 -0.5614385162952867 2.303059291854437e-10 0.0 8.881784197001252e-16 -1.5707963705062866 1.5707963705062866 0.0 1.5707963705062866 3.1415927410125732 0.0 0.0 0.0 0.0 0.0 0.0 2.8320908837222194e-24 -1.915245304568991 -1.9152454866214774 -0.07223907980561979 2.9632965881849946e-11 0.0 2.8320908837222194e-24 -1.915245304568991 -1.9152454866214774 -0.07223907980561979 2.9632965881849946e-11 0.0 -0.4917999814226589 -0.13329999569261733 0.48779999999308776 -1.2091996607478837 -1.2091995026765232 1.2091996081401042 0.0 0.0 0.0 0.0 0.0 0.0 0.0 0.0 0.0 0.0 0.0 0.0 -0.4917999814226589 -0.13329999569261733 0.48779999999308776 -1.2091996607478837 -1.2091995026765232 1.2091996081401042 0.0 0.0 0.0 0.0 0.0 0.0 0 25.5 25.0 24.5 24.0 23.5 23.5 0.130855 7 253 253 253 253 253 253 1 -8.544634683005359e-07 -9.819999999999963 2.0141182493064963e-09 1.0 1.0 0.0 48.0 48.0 0.0 0.0 0.0 0.0 0.0 0.0 0.0 0 2
421.87 8.881784197001252e-16 -1.5707963705062866 1.5707963705062866 0.0 1.5707963705062866 3.1415927410125732 0.0 0.0 0.0 0.0 0.0 0.0 0.0 0.0 0.0 0.0 0.0 0.0 2.8320908837222194e-24 -1.915245304568991 -1.9152454866214774 -0.07223907980561979 2.9632965881849946e-11 0.0 2.812414082680294e-23 -19.019385632419066 -19.019387440295286 -0.5614385162952867 2.303059291854437e-10 0.0 8.881784197001252e-16 -1.5707963705062866 1.5707963705062866 0.0 1.5707963705062866 3.1415927410125732 0.0 0.0 0.0 0.0 0.0 0.0 2.8320908837222194e-24 -1.915245304568991 -1.9152454866214774 -0.07223907980561979 2.9632965881849946e-11 0.0 2.8320908837222194e-24 -1.915245304568991 -1.9152454866214774 -0.07223907980561979 2.9632965881849946e-11 0.0 -0.4917999814226589 -0.13329999569261733 0.48779999999308776 -1.2091996607478837 -1.2091995026765232 1.2091996081401042 0.0 0.0 0.0 0.0 0.0 0.0 0.0 0.0 0.0 0.0 0.0 0.0 -0.4917999814226589 -0.13329999569261733 0.48779999999308776 -1.2091996607478837 -1.2091995026765232 1.2091996081401042 0.0 0.0 0.0 0.0 0.0 0.0 0 25.5 25.0 24.5 24.0 23.5 23.5 0.156506 7 253 253 253 253 253 253 1 -8.544634683005359e-07 -9.819999999999963 2.0141182493064963e-09 1.0 1.0 0.0 48.0 48.0 0.0 0.0 0.0 0.0 0.0 0.0 0.0 0 2
421.878 8.881784197001252e-16 -1.5707963705062866 1.5707963705062866 0.0 1.5707963705062866 3.1415927410125732 0.0 0.0 0.0 0.0 0.0 0.0 0.0 0.0 0.0 0.0 0.0 0.0 2.8320908837222194e-24 -1.915245304568991 -1.9152454866214774 -0.07223907980561979 2.9632965881849946e-11 0.0 2.812414082680294e-23 -19.019385632419066 -19.019387440295286 -0.5614385162952867 2.303059291854437e-10 0.0 8.881784197001252e-16 -1.5707963705062866 1.5707963705062866 0.0 1.5707963705062866 3.1415927410125732 0.0 0.0 0.0 0.0 0.0 0.0 2.8320908837222194e-24 -1.915245304568991 -1.9152454866214774 -0.07223907980561979 2.9632965881849946e-11 0.0 2.8320908837222194e-24 -1.915245304568991 -1.9152454866214774 -0.07223907980561979 2.9632965881849946e-11 0.0 -0.4917999814226589 -0.13329999569261733 0.48779999999308776 -1.2091996607478837 -1.2091995026765232 1.2091996081401042 0.0 0.0 0.0 0.0 0.0 0.0 0.0 0.0 0.0 0.0 0.0 0.0 -0.4917999814226589 -0.13329999569261733 0.48779999999308776 -1.2091996607478837 -1.2091995026765232 1.2091996081401042 0.0 0.0 0.0 0.0 0.0 0.0 0 25.5 25.0 24.5 24.0 23.5 23.5 0.16158 7 253 253 253 253 253 253 1 -8.544634683005359e-07 -9.819999999999963 2.0141182493064963e-09 1.0 1.0 0.0 48.0 48.0 0.0 0.0 0.0 0.0 0.0 0.0 0.0 0 2
421.88599999999997 8.881784197001252e-16 -1.5707963705062866 1.5707963705062866 0.0 1.5707963705062866 3.1415927410125732 0.0 0.0 0.0 0.0 0.0 0.0 0.0 0.0 0.0 0.0 0.0 0.0 2.8320908837222194e-24 -1.915245304568991 -1.9152454866214774 -0.07223907980561979 2.9632965881849946e-11 0.0 2.812414082680294e-23 -19.019385632419066 -19.019387440295286 -0.5614385162952867 2.303059291854437e-10 0.0 8.881784197001252e-16 -1.5707963705062866 1.5707963705062866 0.0 1.5707963705062866 3.1415927410125732 0.0 0.0 0.0 0.0 0.0 0.0 2.8320908837222194e-24 -1.915245304568991 -1.9152454866214774 -0.07223907980561979 2.9632965881849946e-11 0.0 2.8320908837222194e-24 -1.915245304568991 -1.9152454866214774 -0.07223907980561979 2.9632965881849946e-11 0.0 -0.4917999814226589 -0.13329999569261733 0.48779999999308776 -1.2091996607478837 -1.2091995026765232 1.2091996081401042 0.0 0.0 0.0 0.0 0.0 0.0 0.0 0.0 0.0 0.0 0.0 0.0 -0.4917999814226589 -0.13329999569261733 0.48779999999308776 -1.2091996607478837 -1.2091995026765232 1.2091996081401042 0.0 0.0 0.0 0.0 0.0 0.0 0 25.5 25.0 24.5 24.0 23.5 23.5 0.12488500000000001 7 253 253 253 253 253 253 1 -8.544634683005359e-07 -9.819999999999963 2.0141182493064963e-09 1.0 1.0 0.0 48.0 48.0 0.0 0.0 0.0 0.0 0.0 0.0 0.0 0 2
421.894 8.881784197001252e-16 -1.5707963705062866 1.5707963705062866 0.0 1.5707963705062866 3.1415927410125732 0.0 0.0 0.0 0.0 0.0 0.0 0.0 0.0 0.0 0.0 0.0 0.0 2.8320908837222194e-24 -1.915245304568991 -1.9152454866214774 -0.07223907980561979 2.9632965881849946e-11 0.0 2.812414082680294e-23 -19.019385632419066 -19.019387440295286 -0.5614385162952867 2.303059291854437e-10 0.0 8.881784197001252e-16 -1.5707963705062866 1.5707963705062866 0.0 1.5707963705062866 3.1415927410125732 0.0 0.0 0.0 0.0 0.0 0.0 2.8320908837222194e-24 -1.915245304568991 -1.9152454866214774 -0.07223907980561979 2.9632965881849946e-11 0.0 2.8320908837222194e-24 -1.915245304568991 -1.9152454866214774 -0.07223907980561979 2.9632965881849946e-11 0.0 -0.4917999814226589 -0.13329999569261733 0.48779999999308776 -1.2091996607478837 -1.2091995026765232 1.2091996081401042 0.0 0.0 0.0 0.0 0.0 0.0 0.0 0.0 0.0 0.0 0.0 0.0 -0.4917999814226589 -0.13329999569261733 0.48779999999308776 -1.2091996607478837 -1.2091995026765232 1.2091996081401042 0.0 0.0 0.0 0.0 0.0 0.0 0 25.5 25.0 24.5 24.0 23.5 23.5 0.232285 7 253 253 253 253 253 253 1 -8.544634683005359e-07 -9.819999999999963 2.0141182493064963e-09 1.0 1.0 0.0 48.0 48.0 0.0 0.0 0.0 0.0 0.0 0.0 0.0 0 2
421.902 8.881784197001252e-16 -1.5707963705062866 1.5707963705062866 0.0 1.5707963705062866 3.1415927410125732 0.0 0.0 0.0 0.0 0.0 0.0 0.0 0.0 0.0 0.0 0.0 0.0 2.8320908837222194e-24 -1.915245304568991 -1.9152454866214774 -0.07223907980561979 2.9632965881849946e-11 0.0 2.812414082680294e-23 -19.019385632419066 -19.019387440295286 -0.5614385162952867 2.303059291854437e-10 0.0 8.881784197001252e-16 -1.5707963705062866 1.5707963705062866 0.0 1.5707963705062866 3.1415927410125732 0.0 0.0 0.0 0.0 0.0 0.0 2.8320908837222194e-24 -1.915245304568991 -1.9152454866214774 -0.07223907980561979 2.9632965881849946e-11 0.0 2.8320908837222194e-24 -1.915245304568991 -1.9152454866214774 -0.07223907980561979 2.9632965881849946e-11 0.0 -0.4917999814226589 -0.13329999569261733 0.48779999999308776 -1.2091996607478837 -1.2091995026765232 1.2091996081401042 0.0 0.0 0.0 0.0 0.0 0.0 0.0 0.0 0.0 0.0 0.0 0.0 -0.4917999814226589 -0.13329999569261733 0.48779999999308776 -1.2091996607478837 -1.2091995026765232 1.2091996081401042 0.0 0.0 0.0 0.0 0.0 0.0 0 25.5 25.0 24.5 24.0 23.5 23.5 0.12375799999999999 7 253 253 253 253 253 253 1 -8.544634683005359e-07 -9.819999999999963 2.0141182493064963e-09 1.0 1.0 0.0 48.0 48.0 0.0 0.0 0.0 0.0 0.0 0.0 0.0 0 2
421.90999999999997 8.881784197001252e-16 -1.5707963705062866 1.5707963705062866 0.0 1.5707963705062866 3.1415927410125732 0.0 0.0 0.0 0.0 0.0 0.0 0.0 0.0 0.0 0.0 0.0 0.0 2.8320908837222194e-24 -1.915245304568991 -1.9152454866214774 -0.07223907980561979 2.9632965881849946e-11 0.0 2.812414082680294e-23 -19.019385632419066 -19.019387440295286 -0.5614385162952867 2.303059291854437e-10 0.0 8.881784197001252e-16 -1.5707963705062866 1.5707963705062866 0.0 1.5707963705062866 3.1415927410125732 0.0 0.0 0.0 0.0 0.0 0.0 2.8320908837222194e-24 -1.915245304568991 -1.9152454866214774 -0.07223907980561979 2.9632965881849946e-11 0.0 2.8320908837222194e-24 -1.915245304568991 -1.9152454866214774 -0.07223907980561979 2.9632965881849946e-11 0.0 -0.4917999814226589 -0.13329999569261733 0.48779999999308776 -1.2091996607478837 -1.2091995026765232 1.2091996081401042 0.0 0.0 0.0 0.0 0.0 0.0 0.0 0.0 0.0 0.0 0.0 0.0 -0.4917999814226589 -0.13329999569261733 0.48779999999308776 -1.2091996607478837 -1.2091995026765232 1.2091996081401042 0.0 0.0 0.0 0.0 0.0 0.0 0 25.5 25.0 24.5 24.0 23.5 23.5 0.13609000000000002 7 253 253 253 253 253 253 1 -8.544634683005359e-07 -9.819999999999963 2.0141182493064963e-09 1.0 1.0 0.0 48.0 48.0 0.0 0.0 0.0 0.0 0.0 0.0 0.0 0 2
421.918 8.881784197001252e-16 -1.5707963705062866 1.5707963705062866 0.0 1.5707963705062866 3.1415927410125732 0.0 0.0 0.0 0.0 0.0 0.0 0.0 0.0 0.0 0.0 0.0 0.0 2.8320908837222194e-24 -1.915245304568991 -1.9152454866214774 -0.07223907980561979 2.9632965881849946e-11 0.0 2.812414082680294e-23 -19.019385632419066 -19.019387440295286 -0.5614385162952867 2.303059291854437e-10 0.0 8.881784197001252e-16 -1.5707963705062866 1.5707963705062866 0.0 1.5707963705062866 3.1415927410125732 0.0 0.0 0.0 0.0 0.0 0.0 2.8320908837222194e-24 -1.915245304568991 -1.9152454866214774 -0.07223907980561979 2.9632965881849946e-11 0.0 2.8320908837222194e-24 -1.915245304568991 -1.9152454866214774 -0.07223907980561979 2.9632965881849946e-11 0.0 -0.4917999814226589 -0.13329999569261733 0.48779999999308776 -1.2091996607478837 -1.2091995026765232 1.2091996081401042 0.0 0.0 0.0 0.0 0.0 0.0 0.0 0.0 0.0 0.0 0.0 0.0 -0.4917999814226589 -0.13329999569261733 0.48779999999308776 -1.2091996607478837 -1.2091995026765232 1.2091996081401042 0.0 0.0 0.0 0.0 0.0 0.0 0 25.5 25.0 24.5 24.0 23.5 23.5 0.350263 7 253 253 253 253 253 253 1 -8.544634683005359e-07 -9.819999999999963 2.0141182493064963e-09 1.0 1.0 0.0 48.0 48.0 0.0 0.0 0.0 0.0 0.0 0.0 0.0 0 2
421.926 8.881784197001252e-16 -1.5707963705062866 1.5707963705062866 0.0 1.5707963705062866 3.1415927410125732 0.0 0.0 0.0 0.0 0.0 0.0 0.0 0.0 0.0 0.0 0.0 0.0 2.8320908837222194e-24 -1.915245304568991 -1.9152454866214774 -0.07223907980561979 2.9632965881849946e-11 0.0 2.812414082680294e-23 -19.019385632419066 -19.019387440295286 -0.5614385162952867 2.303059291854437e-10 0.0 8.881784197001252e-16 -1.5707963705062866 1.5707963705062866 0.0 1.5707963705062866 3.1415927410125732 0.0 0.0 0.0 0.0 0.0 0.0 2.8320908837222194e-24 -1.915245304568991 -1.9152454866214774 -0.07223907980561979 2.9632965881849946e-11 0.0 2.8320908837222194e-24 -1.915245304568991 -1.9152454866214774 -0.07223907980561979 2.9632965881849946e-11 0.0 -0.4917999814226589 -0.13329999569261733 0.48779999999308776 -1.2091996607478837 -1.2091995026765232 1.2091996081401042 0.0 0.0 0.0 0.0 0.0 0.0 0.0 0.0 0.0 0.0 0.0 0.0 -0.4917999814226589 -0.13329999569261733 0.48779999999308776 -1.2091996607478837 -1.2091995026765232 1.2091996081401042 0.0 0.0 0.0 0.0 0.0 0.0 0 25.5 25.0 24.5 24.0 23.5 23.5 0.35300099999999995 7 253 253 253 253 253 253 1 -8.544634683005359e-07 -9.819999999999963 2.0141182493064963e-09 1.0 1.0 0.0 48.0 48.0 0.0 0.0 0.0 0.0 0.0 0.0 0.0 0 2
421.93399999999997 8.881784197001252e-16 -1.5707963705062866 1.5707963705062866 0.0 1.5707963705062866 3.1415927410125732 0.0 0.0 0.0 0.0 0.0 0.0 0.0 0.0 0.0 0.0 0.0 0.0 2.8320908837222194e-24 -1.915245304568991 -1.9152454866214774 -0.07223907980561979 2.9632965881849946e-11 0.0 2.812414082680294e-23 -19.019385632419066 -19.019387440295286 -0.5614385162952867 2.303059291854437e-10 0.0 8.881784197001252e-16 -1.5707963705062866 1.5707963705062866 0.0 1.5707963705062866 3.1415927410125732 0.0 0.0 0.0 0.0 0.0 0.0 2.8320908837222194e-24 -1.915245304568991 -1.9152454866214774 -0.07223907980561979 2.9632965881849946e-11 0.0 2.8320908837222194e-24 -1.915245304568991 -1.9152454866214774 -0.07223907980561979 2.9632965881849946e-11 0.0 -0.4917999814226589 -0.13329999569261733 0.48779999999308776 -1.2091996607478837 -1.2091995026765232 1.2091996081401042 0.0 0.0 0.0 0.0 0.0 0.0 0.0 0.0 0.0 0.0 0.0 0.0 -0.4917999814226589 -0.13329999569261733 0.48779999999308776 -1.2091996607478837 -1.2091995026765232 1.2091996081401042 0.0 0.0 0.0 0.0 0.0 0.0 0 25.5 25.0 24.5 24.0 23.5 23.5 0.352997 7 253 253 253 253 253 253 1 -8.544634683005359e-07 -9.819999999999963 2.0141182493064963e-09 1.0 1.0 0.0 48.0 48.0 0.0 0.0 0.0 0.0 0.0 0.0 0.0 0 2
