UthiraS/rtde-2.8/rtde/examples/robot_data.csv
timestamp target_q_0 target_q_1 target_q_2 target_q_3 target_q_4 target_q_5 target_qd_0 target_qd_1 target_qd_2 target_qd_3 target_qd_4 target_qd_5 target_qdd_0 target_qdd_1 target_qdd_2 target_qdd_3 target_qdd_4 target_qdd_5 target_current_0 target_current_1 target_current_2 target_current_3 target_current_4 target_current_5 target_moment_0 target_moment_1 target_moment_2 target_moment_3 target_moment_4 target_moment_5 actual_q_0 actual_q_1 actual_q_2 actual_q_3 actual_q_4 actual_q_5 actual_qd_0 actual_qd_1 actual_qd_2 actual_qd_3 actual_qd_4 actual_qd_5 actual_current_0 actual_current_1 actual_current_2 actual_current_3 actual_current_4 actual_current_5 joint_control_output_0 joint_control_output_1 joint_control_output_2 joint_control_output_3 joint_control_output_4 joint_control_output_5 actual_TCP_pose_0 actual_TCP_pose_1 actual_TCP_pose_2 actual_TCP_pose_3 actual_TCP_pose_4 actual_TCP_pose_5 actual_TCP_speed_0 actual_TCP_speed_1 actual_TCP_speed_2 actual_TCP_speed_3 actual_TCP_speed_4 actual_TCP_speed_5 actual_TCP_force_0 actual_TCP_force_1 actual_TCP_force_2 actual_TCP_force_3 actual_TCP_force_4 actual_TCP_force_5 target_TCP_pose_0 target_TCP_pose_1 target_TCP_pose_2 target_TCP_pose_3 target_TCP_pose_4 target_TCP_pose_5 target_TCP_speed_0 target_TCP_speed_1 target_TCP_speed_2 target_TCP_speed_3 target_TCP_speed_4 target_TCP_speed_5 actual_digital_input_bits joint_temperatures_0 joint_temperatures_1 joint_temperatures_2 joint_temperatures_3 joint_temperatures_4 joint_temperatures_5 actual_execution_time robot_mode joint_mode_0 joint_mode_1 joint_mode_2 joint_mode_3 joint_mode_4 joint_mode_5 safety_mode actual_tool_accelerometer_0 actual_tool_accelerometer_1 actual_tool_accelerometer_2 speed_scaling target_speed_fraction actual_momentum actual_main_voltage actual_robot_voltage actual_robot_current actual_joint_voltage_0 actual_joint_voltage_1 actual_joint_voltage_2 actual_joint_voltage_3 actual_joint_voltage_4 actual_joint_voltage_5 actual_digital_output_bits runtime_state
3174.932 -1.6006999999999998 -1.7271 -2.2029999999999994 -0.8079999999999998 1.5951 -0.030999999999999694 0.0 0.0 0.0 0.0 0.0 0.0 0.0 0.0 0.0 0.0 0.0 0.0 -1.8265934578025755e-17 2.141012561521421 1.4926747162211425 0.23313859823392621 0.0017549219604181278 0.0 -1.8139026517764549e-16 21.261372344464824 14.823039108277811 1.811941528544163 0.01363916573027167 0.0 -1.6006999999999998 -1.7271 -2.2029999999999994 -0.8079999999999998 1.5951 -0.030999999999999694 0.0 0.0 0.0 0.0 0.0 0.0 -1.8265934578025755e-17 2.141012561521421 1.4926747162211425 0.23313859823392621 0.0017549219604181278 0.0 -1.8265934578025755e-17 2.141012561521421 1.4926747162211425 0.23313859823392621 0.0017549219604181278 0.0 -0.14396865671352163 -0.43562006080319216 0.2020300254283846 -0.0012213596815925638 3.1162765284819756 0.038891915636886834 0.0 0.0 0.0 0.0 0.0 0.0 0.0 0.0 0.0 0.0 0.0 0.0 -0.14396865671352163 -0.43562006080319216 0.2020300254283846 -0.0012213596815925638 3.1162765284819756 0.038891915636886834 0.0 0.0 0.0 0.0 0.0 0.0 0 25.5 25.0 24.5 24.0 23.5 23.5 0.27731900000000004 7 253 253 253 253 253 253 1 -0.24626992031694836 0.24493893696896454 -9.813855309892418 0.0 1.0 0.0 48.0 48.0 0.0 0.0 0.0 0.0 0.0 0.0 0.0 0 1
3174.94 -1.6006999999999998 -1.7271 -2.2029999999999994 -0.8079999999999998 1.5951 -0.030999999999999694 0.0 0.0 0.0 0.0 0.0 0.0 0.0 0.0 0.0 0.0 0.0 0.0 -1.8265934578025755e-17 2.141012561521421 1.4926747162211425 0.23313859823392621 0.0017549219604181278 0.0 -1.8139026517764549e-16 21.261372344464824 14.823039108277811 1.811941528544163 0.01363916573027167 0.0 -1.6006999999999998 -1.7271 -2.2029999999999994 -0.8079999999999998 1.5951 -0.030999999999999694 0.0 0.0 0.0 0.0 0.0 0.0 -1.8265934578025755e-17 2.141012561521421 1.4926747162211425 0.23313859823392621 0.0017549219604181278 0.0 -1.8265934578025755e-17 2.141012561521421 1.4926747162211425 0.23313859823392621 0.0017549219604181278 0.0 -0.14396865671352163 -0.43562006080319216 0.2020300254283846 -0.0012213596815925638 3.1162765284819756 0.038891915636886834 0.0 0.0 0.0 0.0 0.0 0.0 0.0 0.0 0.0 0.0 0.0 0.0 -0.14396865671352163 -0.43562006080319216 0.2020300254283846 -0.0012213596815925638 3.1162765284819756 0.038891915636886834 0.0 0.0 0.0 0.0 0.0 0.0 0 25.5 25.0 24.5 24.0 23.5 23.5 0.27486900000000003 7 253 253 253 253 253 253 1 -0.24626992031694836 0.24493893696896454 -9.813855309892418 0.0 1.0 0.0 48.0 48.0 0.0 0.0 0.0 0.0 0.0 0.0 0.0 0 1
3174.948 -1.6006999999999998 -1.7271 -2.2029999999999994 -0.8079999999999998 1.5951 -0.030999999999999694 0.0 0.0 0.0 0.0 0.0 0.0 0.0 0.0 0.0 0.0 0.0 0.0 -1.8265934578025755e-17 2.141012561521421 1.4926747162211425 0.23313859823392621 0.0017549219604181278 0.0 -1.8139026517764549e-16 21.261372344464824 14.823039108277811 1.811941528544163 0.01363916573027167 0.0 -1.6006999999999998 -1.7271 -2.2029999999999994 -0.8079999999999998 1.5951 -0.030999999999999694 0.0 0.0 0.0 0.0 0.0 0.0 -1.8265934578025755e-17 2.141012561521421 1.4926747162211425 0.23313859823392621 0.0017549219604181278 0.0 -1.8265934578025755e-17 2.141012561521421 1.4926747162211425 0.23313859823392621 0.0017549219604181278 0.0 -0.14396865671352163 -0.43562006080319216 0.2020300254283846 -0.0012213596815925638 3.1162765284819756 0.038891915636886834 0.0 0.0 0.0 0.0 0.0 0.0 0.0 0.0 0.0 0.0 0.0 0.0 -0.14396865671352163 -0.43562006080319216 0.2020300254283846 -0.0012213596815925638 3.1162765284819756 0.038891915636886834 0.0 0.0 0.0 0.0 0.0 0.0 0 25.5 25.0 24.5 24.0 23.5 23.5 0.272012 7 253 253 253 253 253 253 1 -0.24626992031694836 0.24493893696896454 -9.813855309892418 0.0 1.0 0.0 48.0 48.0 0.0 0.0 0.0 0.0 0.0 0.0 0.0 0 1
3174.9559999999997 -1.6006999999999998 -1.7271 -2.2029999999999994 -0.8079999999999998 1.5951 -0.030999999999999694 0.0 0.0 0.0 0.0 0.0 0.0 0.0 0.0 0.0 0.0 0.0 0.0 -1.8265934578025755e-17 2.141012561521421 1.4926747162211425 0.23313859823392621 0.0017549219604181278 0.0 -1.8139026517764549e-16 21.261372344464824 14.823039108277811 1.811941528544163 0.01363916573027167 0.0 -1.6006999999999998 -1.7271 -2.2029999999999994 -0.8079999999999998 1.5951 -0.030999999999999694 0.0 0.0 0.0 0.0 0.0 0.0 -1.8265934578025755e-17 2.141012561521421 1.4926747162211425 0.23313859823392621 0.0017549219604181278 0.0 -1.8265934578025755e-17 2.141012561521421 1.4926747162211425 0.23313859823392621 0.0017549219604181278 0.0 -0.14396865671352163 -0.43562006080319216 0.2020300254283846 -0.0012213596815925638 3.1162765284819756 0.038891915636886834 0.0 0.0 0.0 0.0 0.0 0.0 0.0 0.0 0.0 0.0 0.0 0.0 -0.14396865671352163 -0.43562006080319216 0.2020300254283846 -0.0012213596815925638 3.1162765284819756 0.038891915636886834 0.0 0.0 0.0 0.0 0.0 0.0 0 25.5 25.0 24.5 24.0 23.5 23.5 0.28935700000000003 7 253 253 253 253 253 253 1 -0.24626992031694836 0.24493893696896454 -9.813855309892418 0.0 1.0 0.0 48.0 48.0 0.0 0.0 0.0 0.0 0.0 0.0 0.0 0 1
3174.964 -1.6006999999999998 -1.7271 -2.2029999999999994 -0.8079999999999998 1.5951 -0.030999999999999694 0.0 0.0 0.0 0.0 0.0 0.0 0.0 0.0 0.0 0.0 0.0 0.0 -1.8265934578025755e-17 2.141012561521421 1.4926747162211425 0.23313859823392621 0.0017549219604181278 0.0 -1.8139026517764549e-16 21.261372344464824 14.823039108277811 1.811941528544163 0.01363916573027167 0.0 -1.6006999999999998 -1.7271 -2.2029999999999994 -0.8079999999999998 1.5951 -0.030999999999999694 0.0 0.0 0.0 0.0 0.0 0.0 -1.8265934578025755e-17 2.141012561521421 1.4926747162211425 0.23313859823392621 0.0017549219604181278 0.0 -1.8265934578025755e-17 2.141012561521421 1.4926747162211425 0.23313859823392621 0.0017549219604181278 0.0 -0.14396865671352163 -0.43562006080319216 0.2020300254283846 -0.0012213596815925638 3.1162765284819756 0.038891915636886834 0.0 0.0 0.0 0.0 0.0 0.0 0.0 0.0 0.0 0.0 0.0 0.0 -0.14396865671352163 -0.43562006080319216 0.2020300254283846 -0.0012213596815925638 3.1162765284819756 0.038891915636886834 0.0 0.0 0.0 0.0 0.0 0.0 0 25.5 25.0 24.5 24.0 23.5 23.5 0.298075 7 253 253 253 253 253 253 1 -0.24626992031694836 0.24493893696896454 -9.813855309892418 0.0 1.0 0.0 48.0 48.0 0.0 0.0 0.0 0.0 0.0 0.0 0.0 0 1
3174.98 -1.6006999999999998 -1.7271 -2.2029999999999994 -0.8079999999999998 1.5951 -0.030999999999999694 0.0 0.0 0.0 0.0 0.0 0.0 0.0 0.0 0.0 0.0 0.0 0.0 -1.8265934578025755e-17 2.141012561521421 1.4926747162211425 0.23313859823392621 0.0017549219604181278 0.0 -1.8139026517764549e-16 21.261372344464824 14.823039108277811 1.811941528544163 0.01363916573027167 0.0 -1.6006999999999998 -1.7271 -2.2029999999999994 -0.8079999999999998 1.5951 -0.030999999999999694 0.0 0.0 0.0 0.0 0.0 0.0 -1.8265934578025755e-17 2.141012561521421 1.4926747162211425 0.23313859823392621 0.0017549219604181278 0.0 -1.8265934578025755e-17 2.141012561521421 1.4926747162211425 0.23313859823392621 0.0017549219604181278 0.0 -0.14396865671352163 -0.43562006080319216 0.2020300254283846 -0.0012213596815925638 3.1162765284819756 0.038891915636886834 0.0 0.0 0.0 0.0 0.0 0.0 0.0 0.0 0.0 0.0 0.0 0.0 -0.14396865671352163 -0.43562006080319216 0.2020300254283846 -0.0012213596815925638 3.1162765284819756 0.038891915636886834 0.0 0.0 0.0 0.0 0.0 0.0 0 25.5 25.0 24.5 24.0 23.5 23.5 0.159695 7 253 253 253 253 253 253 1 -0.24626992031694836 0.24493893696896454 -9.813855309892418 0.0 1.0 0.0 48.0 48.0 0.0 0.0 0.0 0.0 0.0 0.0 0.0 0 1
3174.988 -1.6006999999999998 -1.7271 -2.2029999999999994 -0.8079999999999998 1.5951 -0.030999999999999694 0.0 0.0 0.0 0.0 0.0 0.0 0.0 0.0 0.0 0.0 0.0 0.0 -1.8265934578025755e-17 2.141012561521421 1.4926747162211425 0.23313859823392621 0.0017549219604181278 0.0 -1.8139026517764549e-16 21.261372344464824 14.823039108277811 1.811941528544163 0.01363916573027167 0.0 -1.6006999999999998 -1.7271 -2.2029999999999994 -0.8079999999999998 1.5951 -0.030999999999999694 0.0 0.0 0.0 0.0 0.0 0.0 -1.8265934578025755e-17 2.141012561521421 1.4926747162211425 0.23313859823392621 0.0017549219604181278 0.0 -1.8265934578025755e-17 2.141012561521421 1.4926747162211425 0.23313859823392621 0.0017549219604181278 0.0 -0.14396865671352163 -0.43562006080319216 0.2020300254283846 -0.0012213596815925638 3.1162765284819756 0.038891915636886834 0.0 0.0 0.0 0.0 0.0 0.0 0.0 0.0 0.0 0.0 0.0 0.0 -0.14396865671352163 -0.43562006080319216 0.2020300254283846 -0.0012213596815925638 3.1162765284819756 0.038891915636886834 0.0 0.0 0.0 0.0 0.0 0.0 0 25.5 25.0 24.5 24.0 23.5 23.5 0.155135 7 253 253 253 253 253 253 1 -0.24626992031694836 0.24493893696896454 -9.813855309892418 0.0 1.0 0.0 48.0 48.0 0.0 0.0 0.0 0.0 0.0 0.0 0.0 0 1
3174.9959999999996 -1.6006999999999998 -1.7271 -2.2029999999999994 -0.8079999999999998 1.5951 -0.030999999999999694 0.0 0.0 0.0 0.0 0.0 0.0 0.0 0.0 0.0 0.0 0.0 0.0 -1.8265934578025755e-17 2.141012561521421 1.4926747162211425 0.23313859823392621 0.0017549219604181278 0.0 -1.8139026517764549e-16 21.261372344464824 14.823039108277811 1.811941528544163 0.01363916573027167 0.0 -1.6006999999999998 -1.7271 -2.2029999999999994 -0.8079999999999998 1.5951 -0.030999999999999694 0.0 0.0 0.0 0.0 0.0 0.0 -1.8265934578025755e-17 2.141012561521421 1.4926747162211425 0.23313859823392621 0.0017549219604181278 0.0 -1.8265934578025755e-17 2.141012561521421 1.4926747162211425 0.23313859823392621 0.0017549219604181278 0.0 -0.14396865671352163 -0.43562006080319216 0.2020300254283846 -0.0012213596815925638 3.1162765284819756 0.038891915636886834 0.0 0.0 0.0 0.0 0.0 0.0 0.0 0.0 0.0 0.0 0.0 0.0 -0.14396865671352163 -0.43562006080319216 0.2020300254283846 -0.0012213596815925638 3.1162765284819756 0.038891915636886834 0.0 0.0 0.0 0.0 0.0 0.0 0 25.5 25.0 24.5 24.0 23.5 23.5 2.562261 7 253 253 253 253 253 253 1 -0.24626992031694836 0.24493893696896454 -9.813855309892418 0.0 1.0 0.0 48.0 48.0 0.0 0.0 0.0 0.0 0.0 0.0 0.0 0 1
3175.004 -1.6006999999999998 -1.7271 -2.2029999999999994 -0.8079999999999998 1.5951 -0.030999999999999694 0.0 0.0 0.0 0.0 0.0 0.0 0.0 0.0 0.0 0.0 0.0 0.0 -1.8265934578025755e-17 2.141012561521421 1.4926747162211425 0.23313859823392621 0.0017549219604181278 0.0 -1.8139026517764549e-16 21.261372344464824 14.823039108277811 1.811941528544163 0.01363916573027167 0.0 -1.6006999999999998 -1.7271 -2.2029999999999994 -0.8079999999999998 1.5951 -0.030999999999999694 0.0 0.0 0.0 0.0 0.0 0.0 -1.8265934578025755e-17 2.141012561521421 1.4926747162211425 0.23313859823392621 0.0017549219604181278 0.0 -1.8265934578025755e-17 2.141012561521421 1.4926747162211425 0.23313859823392621 0.0017549219604181278 0.0 -0.14396865671352163 -0.43562006080319216 0.2020300254283846 -0.0012213596815925638 3.1162765284819756 0.038891915636886834 0.0 0.0 0.0 0.0 0.0 0.0 0.0 0.0 0.0 0.0 0.0 0.0 -0.14396865671352163 -0.43562006080319216 0.2020300254283846 -0.0012213596815925638 3.1162765284819756 0.038891915636886834 0.0 0.0 0.0 0.0 0.0 0.0 0 25.5 25.0 24.5 24.0 23.5 23.5 0.07993600000000001 7 253 253 253 253 253 253 1 -0.24626992031694836 0.24493893696896454 -9.813855309892418 0.0 1.0 0.0 48.0 48.0 0.0 0.0 0.0 0.0 0.0 0.0 0.0 0 1
3175.0119999999997 -1.6006999999999998 -1.7271 -2.2029999999999994 -0.8079999999999998 1.5951 -0.030999999999999694 0.0 0.0 0.0 0.0 0.0 0.0 0.0 0.0 0.0 0.0 0.0 0.0 -1.8265934578025755e-17 2.141012561521421 1.4926747162211425 0.23313859823392621 0.0017549219604181278 0.0 -1.8139026517764549e-16 21.261372344464824 14.823039108277811 1.811941528544163 0.01363916573027167 0.0 -1.6006999999999998 -1.7271 -2.2029999999999994 -0.8079999999999998 1.5951 -0.030999999999999694 0.0 0.0 0.0 0.0 0.0 0.0 -1.8265934578025755e-17 2.141012561521421 1.4926747162211425 0.23313859823392621 0.0017549219604181278 0.0 -1.8265934578025755e-17 2.141012561521421 1.4926747162211425 0.23313859823392621 0.0017549219604181278 0.0 -0.14396865671352163 -0.43562006080319216 0.2020300254283846 -0.0012213596815925638 3.1162765284819756 0.038891915636886834 0.0 0.0 0.0 0.0 0.0 0.0 0.0 0.0 0.0 0.0 0.0 0.0 -0.14396865671352163 -0.43562006080319216 0.2020300254283846 -0.0012213596815925638 3.1162765284819756 0.038891915636886834 0.0 0.0 0.0 0.0 0.0 0.0 0 25.5 25.0 24.5 24.0 23.5 23.5 0.09101000000000001 7 253 253 253 253 253 253 1 -0.24626992031694836 0.24493893696896454 -9.813855309892418 0.0 1.0 0.0 48.0 48.0 0.0 0.0 0.0 0.0 0.0 0.0 0.0 0 1
3175.02 -1.6006999999999998 -1.7271 -2.2029999999999994 -0.8079999999999998 1.5951 -0.030999999999999694 0.0 0.0 0.0 0.0 0.0 0.0 0.0 0.0 0.0 0.0 0.0 0.0 -1.8265934578025755e-17 2.141012561521421 1.4926747162211425 0.23313859823392621 0.0017549219604181278 0.0 -1.8139026517764549e-16 21.261372344464824 14.823039108277811 1.811941528544163 0.01363916573027167 0.0 -1.6006999999999998 -1.7271 -2.2029999999999994 -0.8079999999999998 1.5951 -0.030999999999999694 0.0 0.0 0.0 0.0 0.0 0.0 -1.8265934578025755e-17 2.141012561521421 1.4926747162211425 0.23313859823392621 0.0017549219604181278 0.0 -1.8265934578025755e-17 2.141012561521421 1.4926747162211425 0.23313859823392621 0.0017549219604181278 0.0 -0.14396865671352163 -0.43562006080319216 0.2020300254283846 -0.0012213596815925638 3.1162765284819756 0.038891915636886834 0.0 0.0 0.0 0.0 0.0 0.0 0.0 0.0 0.0 0.0 0.0 0.0 -0.14396865671352163 -0.43562006080319216 0.2020300254283846 -0.0012213596815925638 3.1162765284819756 0.038891915636886834 0.0 0.0 0.0 0.0 0.0 0.0 0 25.5 25.0 24.5 24.0 23.5 23.5 0.059607 7 253 253 253 253 253 253 1 -0.24626992031694836 0.24493893696896454 -9.813855309892418 0.0 1.0 0.0 48.0 48.0 0.0 0.0 0.0 0.0 0.0 0.0 0.0 0 1
3175.028 -1.6006999999999998 -1.7271 -2.2029999999999994 -0.8079999999999998 1.5951 -0.030999999999999694 0.0 0.0 0.0 0.0 0.0 0.0 0.0 0.0 0.0 0.0 0.0 0.0 -1.8265934578025755e-17 2.141012561521421 1.4926747162211425 0.23313859823392621 0.0017549219604181278 0.0 -1.8139026517764549e-16 21.261372344464824 14.823039108277811 1.811941528544163 0.01363916573027167 0.0 -1.6006999999999998 -1.7271 -2.2029999999999994 -0.8079999999999998 1.5951 -0.030999999999999694 0.0 0.0 0.0 0.0 0.0 0.0 -1.8265934578025755e-17 2.141012561521421 1.4926747162211425 0.23313859823392621 0.0017549219604181278 0.0 -1.8265934578025755e-17 2.141012561521421 1.4926747162211425 0.23313859823392621 0.0017549219604181278 0.0 -0.14396865671352163 -0.43562006080319216 0.2020300254283846 -0.0012213596815925638 3.1162765284819756 0.038891915636886834 0.0 0.0 0.0 0.0 0.0 0.0 0.0 0.0 0.0 0.0 0.0 0.0 -0.14396865671352163 -0.43562006080319216 0.2020300254283846 -0.0012213596815925638 3.1162765284819756 0.038891915636886834 0.0 0.0 0.0 0.0 0.0 0.0 0 25.5 25.0 24.5 24.0 23.5 23.5 0.087644 7 253 253 253 253 253 253 1 -0.24626992031694836 0.24493893696896454 -9.813855309892418 0.0 1.0 0.0 48.0 48.0 0.0 0.0 0.0 0.0 0.0 0.0 0.0 0 1
3175.036 -1.6006999999999998 -1.7271 -2.2029999999999994 -0.8079999999999998 1.5951 -0.030999999999999694 0.0 0.0 0.0 0.0 0.0 0.0 0.0 0.0 0.0 0.0 0.0 0.0 -1.8265934578025755e-17 2.141012561521421 1.4926747162211425 0.23313859823392621 0.0017549219604181278 0.0 -1.8139026517764549e-16 21.261372344464824 14.823039108277811 1.811941528544163 0.01363916573027167 0.0 -1.6006999999999998 -1.7271 -2.2029999999999994 -0.8079999999999998 1.5951 -0.030999999999999694 0.0 0.0 0.0 0.0 0.0 0.0 -1.8265934578025755e-17 2.141012561521421 1.4926747162211425 0.23313859823392621 0.0017549219604181278 0.0 -1.8265934578025755e-17 2.141012561521421 1.4926747162211425 0.23313859823392621 0.0017549219604181278 0.0 -0.14396865671352163 -0.43562006080319216 0.2020300254283846 -0.0012213596815925638 3.1162765284819756 0.038891915636886834 0.0 0.0 0.0 0.0 0.0 0.0 0.0 0.0 0.0 0.0 0.0 0.0 -0.14396865671352163 -0.43562006080319216 0.2020300254283846 -0.0012213596815925638 3.1162765284819756 0.038891915636886834 0.0 0.0 0.0 0.0 0.0 0.0 0 25.5 25.0 24.5 24.0 23.5 23.5 0.065755 7 253 253 253 253 253 253 1 -0.24626992031694836 0.24493893696896454 -9.813855309892418 0.0 1.0 0.0 48.0 48.0 0.0 0.0 0.0 0.0 0.0 0.0 0.0 0 1
3175.044 -1.6006999999999998 -1.7271 -2.2029999999999994 -0.8079999999999998 1.5951 -0.030999999999999694 0.0 0.0 0.0 0.0 0.0 0.0 0.0 0.0 0.0 0.0 0.0 0.0 -1.8265934578025755e-17 2.141012561521421 1.4926747162211425 0.23313859823392621 0.0017549219604181278 0.0 -1.8139026517764549e-16 21.261372344464824 14.823039108277811 1.811941528544163 0.01363916573027167 0.0 -1.6006999999999998 -1.7271 -2.2029999999999994 -0.8079999999999998 1.5951 -0.030999999999999694 0.0 0.0 0.0 0.0 0.0 0.0 -1.8265934578025755e-17 2.141012561521421 1.4926747162211425 0.23313859823392621 0.0017549219604181278 0.0 -1.8265934578025755e-17 2.141012561521421 1.4926747162211425 0.23313859823392621 0.0017549219604181278 0.0 -0.14396865671352163 -0.43562006080319216 0.2020300254283846 -0.0012213596815925638 3.1162765284819756 0.038891915636886834 0.0 0.0 0.0 0.0 0.0 0.0 0.0 0.0 0.0 0.0 0.0 0.0 -0.14396865671352163 -0.43562006080319216 0.2020300254283846 -0.0012213596815925638 3.1162765284819756 0.038891915636886834 0.0 0.0 0.0 0.0 0.0 0.0 0 25.5 25.0 24.5 24.0 23.5 23.5 0.115107 7 253 253 253 253 253 253 1 -0.24626992031694836 0.24493893696896454 -9.813855309892418 0.0 1.0 0.0 48.0 48.0 0.0 0.0 0.0 0.0 0.0 0.0 0.0 0 1
3175.0519999999997 -1.6006999999999998 -1.7271 -2.2029999999999994 -0.8079999999999998 1.5951 -0.030999999999999694 0.0 0.0 0.0 0.0 0.0 0.0 0.0 0.0 0.0 0.0 0.0 0.0 -1.8265934578025755e-17 2.141012561521421 1.4926747162211425 0.23313859823392621 0.0017549219604181278 0.0 -1.8139026517764549e-16 21.261372344464824 14.823039108277811 1.811941528544163 0.01363916573027167 0.0 -1.6006999999999998 -1.7271 -2.2029999999999994 -0.8079999999999998 1.5951 -0.030999999999999694 0.0 0.0 0.0 0.0 0.0 0.0 -1.8265934578025755e-17 2.141012561521421 1.4926747162211425 0.23313859823392621 0.0017549219604181278 0.0 -1.8265934578025755e-17 2.141012561521421 1.4926747162211425 0.23313859823392621 0.0017549219604181278 0.0 -0.14396865671352163 -0.43562006080319216 0.2020300254283846 -0.0012213596815925638 3.1162765284819756 0.038891915636886834 0.0 0.0 0.0 0.0 0.0 0.0 0.0 0.0 0.0 0.0 0.0 0.0 -0.14396865671352163 -0.43562006080319216 0.2020300254283846 -0.0012213596815925638 3.1162765284819756 0.038891915636886834 0.0 0.0 0.0 0.0 0.0 0.0 0 25.5 25.0 24.5 24.0 23.5 23.5 0.11693200000000001 7 253 253 253 253 253 253 1 -0.24626992031694836 0.24493893696896454 -9.813855309892418 0.0 1.0 0.0 48.0 48.0 0.0 0.0 0.0 0.0 0.0 0.0 0.0 0 1
3175.0679999999998 -1.6006999999999998 -1.7271 -2.2029999999999994 -0.8079999999999998 1.5951 -0.030999999999999694 0.0 0.0 0.0 0.0 0.0 0.0 0.0 0.0 0.0 0.0 0.0 0.0 -1.8265934578025755e-17 2.141012561521421 1.4926747162211425 0.23313859823392621 0.0017549219604181278 0.0 -1.8139026517764549e-16 21.261372344464824 14.823039108277811 1.811941528544163 0.01363916573027167 0.0 -1.6006999999999998 -1.7271 -2.2029999999999994 -0.8079999999999998 1.5951 -0.030999999999999694 0.0 0.0 0.0 0.0 0.0 0.0 -1.8265934578025755e-17 2.141012561521421 1.4926747162211425 0.23313859823392621 0.0017549219604181278 0.0 -1.8265934578025755e-17 2.141012561521421 1.4926747162211425 0.23313859823392621 0.0017549219604181278 0.0 -0.14396865671352163 -0.43562006080319216 0.2020300254283846 -0.0012213596815925638 3.1162765284819756 0.038891915636886834 0.0 0.0 0.0 0.0 0.0 0.0 0.0 0.0 0.0 0.0 0.0 0.0 -0.14396865671352163 -0.43562006080319216 0.2020300254283846 -0.0012213596815925638 3.1162765284819756 0.038891915636886834 0.0 0.0 0.0 0.0 0.0 0.0 0 25.5 25.0 24.5 24.0 23.5 23.5 0.060208 7 253 253 253 253 253 253 1 -0.24626992031694836 0.24493893696896454 -9.813855309892418 0.0 1.0 0.0 48.0 48.0 0.0 0.0 0.0 0.0 0.0 0.0 0.0 0 1
3175.076 -1.6006999999999998 -1.7271 -2.2029999999999994 -0.8079999999999998 1.5951 -0.030999999999999694 0.0 0.0 0.0 0.0 0.0 0.0 0.0 0.0 0.0 0.0 0.0 0.0 -1.8265934578025755e-17 2.141012561521421 1.4926747162211425 0.23313859823392621 0.0017549219604181278 0.0 -1.8139026517764549e-16 21.261372344464824 14.823039108277811 1.811941528544163 0.01363916573027167 0.0 -1.6006999999999998 -1.7271 -2.2029999999999994 -0.8079999999999998 1.5951 -0.030999999999999694 0.0 0.0 0.0 0.0 0.0 0.0 -1.8265934578025755e-17 2.141012561521421 1.4926747162211425 0.23313859823392621 0.0017549219604181278 0.0 -1.8265934578025755e-17 2.141012561521421 1.4926747162211425 0.23313859823392621 0.0017549219604181278 0.0 -0.14396865671352163 -0.43562006080319216 0.2020300254283846 -0.0012213596815925638 3.1162765284819756 0.038891915636886834 0.0 0.0 0.0 0.0 0.0 0.0 0.0 0.0 0.0 0.0 0.0 0.0 -0.14396865671352163 -0.43562006080319216 0.2020300254283846 -0.0012213596815925638 3.1162765284819756 0.038891915636886834 0.0 0.0 0.0 0.0 0.0 0.0 0 25.5 25.0 24.5 24.0 23.5 23.5 0.072416 7 253 253 253 253 253 253 1 -0.24626992031694836 0.24493893696896454 -9.813855309892418 0.0 1.0 0.0 48.0 48.0 0.0 0.0 0.0 0.0 0.0 0.0 0.0 0 1
3175.084 -1.6006999999999998 -1.7271 -2.2029999999999994 -0.8079999999999998 1.5951 -0.030999999999999694 0.0 0.0 0.0 0.0 0.0 0.0 0.0 0.0 0.0 0.0 0.0 0.0 -1.8265934578025755e-17 2.141012561521421 1.4926747162211425 0.23313859823392621 0.0017549219604181278 0.0 -1.8139026517764549e-16 21.261372344464824 14.823039108277811 1.811941528544163 0.01363916573027167 0.0 -1.6006999999999998 -1.7271 -2.2029999999999994 -0.8079999999999998 1.5951 -0.030999999999999694 0.0 0.0 0.0 0.0 0.0 0.0 -1.8265934578025755e-17 2.141012561521421 1.4926747162211425 0.23313859823392621 0.0017549219604181278 0.0 -1.8265934578025755e-17 2.141012561521421 1.4926747162211425 0.23313859823392621 0.0017549219604181278 0.0 -0.14396865671352163 -0.43562006080319216 0.2020300254283846 -0.0012213596815925638 3.1162765284819756 0.038891915636886834 0.0 0.0 0.0 0.0 0.0 0.0 0.0 0.0 0.0 0.0 0.0 0.0 -0.14396865671352163 -0.43562006080319216 0.2020300254283846 -0.0012213596815925638 3.1162765284819756 0.038891915636886834 0.0 0.0 0.0 0.0 0.0 0.0 0 25.5 25.0 24.5 24.0 23.5 23.5 0.067804 7 253 253 253 253 253 253 1 -0.24626992031694836 0.24493893696896454 -9.813855309892418 0.0 1.0 0.0 48.0 48.0 0.0 0.0 0.0 0.0 0.0 0.0 0.0 0 1
3175.0919999999996 -1.6006999999999998 -1.7271 -2.2029999999999994 -0.8079999999999998 1.5951 -0.030999999999999694 0.0 0.0 0.0 0.0 0.0 0.0 0.0 0.0 0.0 0.0 0.0 0.0 -1.8265934578025755e-17 2.141012561521421 1.4926747162211425 0.23313859823392621 0.0017549219604181278 0.0 -1.8139026517764549e-16 21.261372344464824 14.823039108277811 1.811941528544163 0.01363916573027167 0.0 -1.6006999999999998 -1.7271 -2.2029999999999994 -0.8079999999999998 1.5951 -0.030999999999999694 0.0 0.0 0.0 0.0 0.0 0.0 -1.8265934578025755e-17 2.141012561521421 1.4926747162211425 0.23313859823392621 0.0017549219604181278 0.0 -1.8265934578025755e-17 2.141012561521421 1.4926747162211425 0.23313859823392621 0.0017549219604181278 0.0 -0.14396865671352163 -0.43562006080319216 0.2020300254283846 -0.0012213596815925638 3.1162765284819756 0.038891915636886834 0.0 0.0 0.0 0.0 0.0 0.0 0.0 0.0 0.0 0.0 0.0 0.0 -0.14396865671352163 -0.43562006080319216 0.2020300254283846 -0.0012213596815925638 3.1162765284819756 0.038891915636886834 0.0 0.0 0.0 0.0 0.0 0.0 0 25.5 25.0 24.5 24.0 23.5 23.5 0.157865 7 253 253 253 253 253 253 1 -0.24626992031694836 0.24493893696896454 -9.813855309892418 0.0 1.0 0.0 48.0 48.0 0.0 0.0 0.0 0.0 0.0 0.0 0.0 0 1
3175.1079999999997 -1.6006999999999998 -1.7271 -2.2029999999999994 -0.8079999999999998 1.5951 -0.030999999999999694 0.0 0.0 0.0 0.0 0.0 0.0 0.0 0.0 0.0 0.0 0.0 0.0 -1.8265934578025755e-17 2.141012561521421 1.4926747162211425 0.23313859823392621 0.0017549219604181278 0.0 -1.8139026517764549e-16 21.261372344464824 14.823039108277811 1.811941528544163 0.01363916573027167 0.0 -1.6006999999999998 -1.7271 -2.2029999999999994 -0.8079999999999998 1.5951 -0.030999999999999694 0.0 0.0 0.0 0.0 0.0 0.0 -1.8265934578025755e-17 2.141012561521421 1.4926747162211425 0.23313859823392621 0.0017549219604181278 0.0 -1.8265934578025755e-17 2.141012561521421 1.4926747162211425 0.23313859823392621 0.0017549219604181278 0.0 -0.14396865671352163 -0.43562006080319216 0.2020300254283846 -0.0012213596815925638 3.1162765284819756 0.038891915636886834 0.0 0.0 0.0 0.0 0.0 0.0 0.0 0.0 0.0 0.0 0.0 0.0 -0.14396865671352163 -0.43562006080319216 0.2020300254283846 -0.0012213596815925638 3.1162765284819756 0.038891915636886834 0.0 0.0 0.0 0.0 0.0 0.0 0 25.5 25.0 24.5 24.0 23.5 23.5 0.101858 7 253 253 253 253 253 253 1 -0.24626992031694836 0.24493893696896454 -9.813855309892418 0.0 1.0 0.0 48.0 48.0 0.0 0.0 0.0 0.0 0.0 0.0 0.0 0 1
3175.116 -1.6006999999999998 -1.7271 -2.2029999999999994 -0.8079999999999998 1.5951 -0.030999999999999694 0.0 0.0 0.0 0.0 0.0 0.0 0.0 0.0 0.0 0.0 0.0 0.0 -1.8265934578025755e-17 2.141012561521421 1.4926747162211425 0.23313859823392621 0.0017549219604181278 0.0 -1.8139026517764549e-16 21.261372344464824 14.823039108277811 1.811941528544163 0.01363916573027167 0.0 -1.6006999999999998 -1.7271 -2.2029999999999994 -0.8079999999999998 1.5951 -0.030999999999999694 0.0 0.0 0.0 0.0 0.0 0.0 -1.8265934578025755e-17 2.141012561521421 1.4926747162211425 0.23313859823392621 0.0017549219604181278 0.0 -1.8265934578025755e-17 2.141012561521421 1.4926747162211425 0.23313859823392621 0.0017549219604181278 0.0 -0.14396865671352163 -0.43562006080319216 0.2020300254283846 -0.0012213596815925638 3.1162765284819756 0.038891915636886834 0.0 0.0 0.0 0.0 0.0 0.0 0.0 0.0 0.0 0.0 0.0 0.0 -0.14396865671352163 -0.43562006080319216 0.2020300254283846 -0.0012213596815925638 3.1162765284819756 0.038891915636886834 0.0 0.0 0.0 0.0 0.0 0.0 0 25.5 25.0 24.5 24.0 23.5 23.5 0.09259 7 253 253 253 253 253 253 1 -0.24626992031694836 0.24493893696896454 -9.813855309892418 0.0 1.0 0.0 48.0 48.0 0.0 0.0 0.0 0.0 0.0 0.0 0.0 0 1
3175.124 -1.6006999999999998 -1.7271 -2.2029999999999994 -0.8079999999999998 1.5951 -0.030999999999999694 0.0 0.0 0.0 0.0 0.0 0.0 0.0 0.0 0.0 0.0 0.0 0.0 -1.8265934578025755e-17 2.141012561521421 1.4926747162211425 0.23313859823392621 0.0017549219604181278 0.0 -1.8139026517764549e-16 21.261372344464824 14.823039108277811 1.811941528544163 0.01363916573027167 0.0 -1.6006999999999998 -1.7271 -2.2029999999999994 -0.8079999999999998 1.5951 -0.030999999999999694 0.0 0.0 0.0 0.0 0.0 0.0 -1.8265934578025755e-17 2.141012561521421 1.4926747162211425 0.23313859823392621 0.0017549219604181278 0.0 -1.8265934578025755e-17 2.141012561521421 1.4926747162211425 0.23313859823392621 0.0017549219604181278 0.0 -0.14396865671352163 -0.43562006080319216 0.2020300254283846 -0.0012213596815925638 3.1162765284819756 0.038891915636886834 0.0 0.0 0.0 0.0 0.0 0.0 0.0 0.0 0.0 0.0 0.0 0.0 -0.14396865671352163 -0.43562006080319216 0.2020300254283846 -0.0012213596815925638 3.1162765284819756 0.038891915636886834 0.0 0.0 0.0 0.0 0.0 0.0 0 25.5 25.0 24.5 24.0 23.5 23.5 0.064103 7 253 253 253 253 253 253 1 -0.24626992031694836 0.24493893696896454 -9.813855309892418 0.0 1.0 0.0 48.0 48.0 0.0 0.0 0.0 0.0 0.0 0.0 0.0 0 1
3175.132 -1.6006999999999998 -1.7271 -2.2029999999999994 -0.8079999999999998 1.5951 -0.030999999999999694 0.0 0.0 0.0 0.0 0.0 0.0 0.0 0.0 0.0 0.0 0.0 0.0 -1.8265934578025755e-17 2.141012561521421 1.4926747162211425 0.23313859823392621 0.0017549219604181278 0.0 -1.8139026517764549e-16 21.261372344464824 14.823039108277811 1.811941528544163 0.01363916573027167 0.0 -1.6006999999999998 -1.7271 -2.2029999999999994 -0.8079999999999998 1.5951 -0.030999999999999694 0.0 0.0 0.0 0.0 0.0 0.0 -1.8265934578025755e-17 2.141012561521421 1.4926747162211425 0.23313859823392621 0.0017549219604181278 0.0 -1.8265934578025755e-17 2.141012561521421 1.4926747162211425 0.23313859823392621 0.0017549219604181278 0.0 -0.14396865671352163 -0.43562006080319216 0.2020300254283846 -0.0012213596815925638 3.1162765284819756 0.038891915636886834 0.0 0.0 0.0 0.0 0.0 0.0 0.0 0.0 0.0 0.0 0.0 0.0 -0.14396865671352163 -0.43562006080319216 0.2020300254283846 -0.0012213596815925638 3.1162765284819756 0.038891915636886834 0.0 0.0 0.0 0.0 0.0 0.0 0 25.5 25.0 24.5 24.0 23.5 23.5 0.066806 7 253 253 253 253 253 253 1 -0.24626992031694836 0.24493893696896454 -9.813855309892418 0.0 1.0 0.0 48.0 48.0 0.0 0.0 0.0 0.0 0.0 0.0 0.0 0 1
3175.1479999999997 -1.6006999999999998 -1.7271 -2.2029999999999994 -0.8079999999999998 1.5951 -0.030999999999999694 0.0 0.0 0.0 0.0 0.0 0.0 0.0 0.0 0.0 0.0 0.0 0.0 -1.8265934578025755e-17 2.141012561521421 1.4926747162211425 0.23313859823392621 0.0017549219604181278 0.0 -1.8139026517764549e-16 21.261372344464824 14.823039108277811 1.811941528544163 0.01363916573027167 0.0 -1.6006999999999998 -1.7271 -2.2029999999999994 -0.8079999999999998 1.5951 -0.030999999999999694 0.0 0.0 0.0 0.0 0.0 0.0 -1.8265934578025755e-17 2.141012561521421 1.4926747162211425 0.23313859823392621 0.0017549219604181278 0.0 -1.8265934578025755e-17 2.141012561521421 1.4926747162211425 0.23313859823392621 0.0017549219604181278 0.0 -0.14396865671352163 -0.43562006080319216 0.2020300254283846 -0.0012213596815925638 3.1162765284819756 0.038891915636886834 0.0 0.0 0.0 0.0 0.0 0.0 0.0 0.0 0.0 0.0 0.0 0.0 -0.14396865671352163 -0.43562006080319216 0.2020300254283846 -0.0012213596815925638 3.1162765284819756 0.038891915636886834 0.0 0.0 0.0 0.0 0.0 0.0 0 25.5 25.0 24.5 24.0 23.5 23.5 0.06967100000000001 7 253 253 253 253 253 253 1 -0.24626992031694836 0.24493893696896454 -9.813855309892418 0.0 1.0 0.0 48.0 48.0 0.0 0.0 0.0 0.0 0.0 0.0 0.0 0 1
3175.156 -1.6006999999999998 -1.7271 -2.2029999999999994 -0.8079999999999998 1.5951 -0.030999999999999694 0.0 0.0 0.0 0.0 0.0 0.0 0.0 0.0 0.0 0.0 0.0 0.0 -1.8265934578025755e-17 2.141012561521421 1.4926747162211425 0.23313859823392621 0.0017549219604181278 0.0 -1.8139026517764549e-16 21.261372344464824 14.823039108277811 1.811941528544163 0.01363916573027167 0.0 -1.6006999999999998 -1.7271 -2.2029999999999994 -0.8079999999999998 1.5951 -0.030999999999999694 0.0 0.0 0.0 0.0 0.0 0.0 -1.8265934578025755e-17 2.141012561521421 1.4926747162211425 0.23313859823392621 0.0017549219604181278 0.0 -1.8265934578025755e-17 2.141012561521421 1.4926747162211425 0.23313859823392621 0.0017549219604181278 0.0 -0.14396865671352163 -0.43562006080319216 0.2020300254283846 -0.0012213596815925638 3.1162765284819756 0.038891915636886834 0.0 0.0 0.0 0.0 0.0 0.0 0.0 0.0 0.0 0.0 0.0 0.0 -0.14396865671352163 -0.43562006080319216 0.2020300254283846 -0.0012213596815925638 3.1162765284819756 0.038891915636886834 0.0 0.0 0.0 0.0 0.0 0.0 0 25.5 25.0 24.5 24.0 23.5 23.5 0.230016 7 253 253 253 253 253 253 1 -0.24626992031694836 0.24493893696896454 -9.813855309892418 0.0 1.0 0.0 48.0 48.0 0.0 0.0 0.0 0.0 0.0 0.0 0.0 0 1
3175.1639999999998 -1.6006999999999998 -1.7271 -2.2029999999999994 -0.8079999999999998 1.5951 -0.030999999999999694 0.0 0.0 0.0 0.0 0.0 0.0 0.0 0.0 0.0 0.0 0.0 0.0 -1.8265934578025755e-17 2.141012561521421 1.4926747162211425 0.23313859823392621 0.0017549219604181278 0.0 -1.8139026517764549e-16 21.261372344464824 14.823039108277811 1.811941528544163 0.01363916573027167 0.0 -1.6006999999999998 -1.7271 -2.2029999999999994 -0.8079999999999998 1.5951 -0.030999999999999694 0.0 0.0 0.0 0.0 0.0 0.0 -1.8265934578025755e-17 2.141012561521421 1.4926747162211425 0.23313859823392621 0.0017549219604181278 0.0 -1.8265934578025755e-17 2.141012561521421 1.4926747162211425 0.23313859823392621 0.0017549219604181278 0.0 -0.14396865671352163 -0.43562006080319216 0.2020300254283846 -0.0012213596815925638 3.1162765284819756 0.038891915636886834 0.0 0.0 0.0 0.0 0.0 0.0 0.0 0.0 0.0 0.0 0.0 0.0 -0.14396865671352163 -0.43562006080319216 0.2020300254283846 -0.0012213596815925638 3.1162765284819756 0.038891915636886834 0.0 0.0 0.0 0.0 0.0 0.0 0 25.5 25.0 24.5 24.0 23.5 23.5 0.06735899999999999 7 253 253 253 253 253 253 1 -0.24626992031694836 0.24493893696896454 -9.813855309892418 0.0 1.0 0.0 48.0 48.0 0.0 0.0 0.0 0.0 0.0 0.0 0.0 0 1
3175.172 -1.6006999999999998 -1.7271 -2.2029999999999994 -0.8079999999999998 1.5951 -0.030999999999999694 0.0 0.0 0.0 0.0 0.0 0.0 0.0 0.0 0.0 0.0 0.0 0.0 -1.8265934578025755e-17 2.141012561521421 1.4926747162211425 0.23313859823392621 0.0017549219604181278 0.0 -1.8139026517764549e-16 21.261372344464824 14.823039108277811 1.811941528544163 0.01363916573027167 0.0 -1.6006999999999998 -1.7271 -2.2029999999999994 -0.8079999999999998 1.5951 -0.030999999999999694 0.0 0.0 0.0 0.0 0.0 0.0 -1.8265934578025755e-17 2.141012561521421 1.4926747162211425 0.23313859823392621 0.0017549219604181278 0.0 -1.8265934578025755e-17 2.141012561521421 1.4926747162211425 0.23313859823392621 0.0017549219604181278 0.0 -0.14396865671352163 -0.43562006080319216 0.2020300254283846 -0.0012213596815925638 3.1162765284819756 0.038891915636886834 0.0 0.0 0.0 0.0 0.0 0.0 0.0 0.0 0.0 0.0 0.0 0.0 -0.14396865671352163 -0.43562006080319216 0.2020300254283846 -0.0012213596815925638 3.1162765284819756 0.038891915636886834 0.0 0.0 0.0 0.0 0.0 0.0 0 25.5 25.0 24.5 24.0 23.5 23.5 0.066826 7 253 253 253 253 253 253 1 -0.24626992031694836 0.24493893696896454 -9.813855309892418 0.0 1.0 0.0 48.0 48.0 0.0 0.0 0.0 0.0 0.0 0.0 0.0 0 1
3175.1879999999996 -1.6006999999999998 -1.7271 -2.2029999999999994 -0.8079999999999998 1.5951 -0.030999999999999694 0.0 0.0 0.0 0.0 0.0 0.0 0.0 0.0 0.0 0.0 0.0 0.0 -1.8265934578025755e-17 2.141012561521421 1.4926747162211425 0.23313859823392621 0.0017549219604181278 0.0 -1.8139026517764549e-16 21.261372344464824 14.823039108277811 1.811941528544163 0.01363916573027167 0.0 -1.6006999999999998 -1.7271 -2.2029999999999994 -0.8079999999999998 1.5951 -0.030999999999999694 0.0 0.0 0.0 0.0 0.0 0.0 -1.8265934578025755e-17 2.141012561521421 1.4926747162211425 0.23313859823392621 0.0017549219604181278 0.0 -1.8265934578025755e-17 2.141012561521421 1.4926747162211425 0.23313859823392621 0.0017549219604181278 0.0 -0.14396865671352163 -0.43562006080319216 0.2020300254283846 -0.0012213596815925638 3.1162765284819756 0.038891915636886834 0.0 0.0 0.0 0.0 0.0 0.0 0.0 0.0 0.0 0.0 0.0 0.0 -0.14396865671352163 -0.43562006080319216 0.2020300254283846 -0.0012213596815925638 3.1162765284819756 0.038891915636886834 0.0 0.0 0.0 0.0 0.0 0.0 0 25.5 25.0 24.5 24.0 23.5 23.5 0.110156 7 253 253 253 253 253 253 1 -0.24626992031694836 0.24493893696896454 -9.813855309892418 0.0 1.0 0.0 48.0 48.0 0.0 0.0 0.0 0.0 0.0 0.0 0.0 0 1
3175.196 -1.6006999999999998 -1.7271 -2.2029999999999994 -0.8079999999999998 1.5951 -0.030999999999999694 0.0 0.0 0.0 0.0 0.0 0.0 0.0 0.0 0.0 0.0 0.0 0.0 -1.8265934578025755e-17 2.141012561521421 1.4926747162211425 0.23313859823392621 0.0017549219604181278 0.0 -1.8139026517764549e-16 21.261372344464824 14.823039108277811 1.811941528544163 0.01363916573027167 0.0 -1.6006999999999998 -1.7271 -2.2029999999999994 -0.8079999999999998 1.5951 -0.030999999999999694 0.0 0.0 0.0 0.0 0.0 0.0 -1.8265934578025755e-17 2.141012561521421 1.4926747162211425 0.23313859823392621 0.0017549219604181278 0.0 -1.8265934578025755e-17 2.141012561521421 1.4926747162211425 0.23313859823392621 0.0017549219604181278 0.0 -0.14396865671352163 -0.43562006080319216 0.2020300254283846 -0.0012213596815925638 3.1162765284819756 0.038891915636886834 0.0 0.0 0.0 0.0 0.0 0.0 0.0 0.0 0.0 0.0 0.0 0.0 -0.14396865671352163 -0.43562006080319216 0.2020300254283846 -0.0012213596815925638 3.1162765284819756 0.038891915636886834 0.0 0.0 0.0 0.0 0.0 0.0 0 25.5 25.0 24.5 24.0 23.5 23.5 0.189771 7 253 253 253 253 253 253 1 -0.24626992031694836 0.24493893696896454 -9.813855309892418 0.0 1.0 0.0 48.0 48.0 0.0 0.0 0.0 0.0 0.0 0.0 0.0 0 1
3175.2039999999997 -1.6006999999999998 -1.7271 -2.2029999999999994 -0.8079999999999998 1.5951 -0.030999999999999694 0.0 0.0 0.0 0.0 0.0 0.0 0.0 0.0 0.0 0.0 0.0 0.0 -1.8265934578025755e-17 2.141012561521421 1.4926747162211425 0.23313859823392621 0.0017549219604181278 0.0 -1.8139026517764549e-16 21.261372344464824 14.823039108277811 1.811941528544163 0.01363916573027167 0.0 -1.6006999999999998 -1.7271 -2.2029999999999994 -0.8079999999999998 1.5951 -0.030999999999999694 0.0 0.0 0.0 0.0 0.0 0.0 -1.8265934578025755e-17 2.141012561521421 1.4926747162211425 0.23313859823392621 0.0017549219604181278 0.0 -1.8265934578025755e-17 2.141012561521421 1.4926747162211425 0.23313859823392621 0.0017549219604181278 0.0 -0.14396865671352163 -0.43562006080319216 0.2020300254283846 -0.0012213596815925638 3.1162765284819756 0.038891915636886834 0.0 0.0 0.0 0.0 0.0 0.0 0.0 0.0 0.0 0.0 0.0 0.0 -0.14396865671352163 -0.43562006080319216 0.2020300254283846 -0.0012213596815925638 3.1162765284819756 0.038891915636886834 0.0 0.0 0.0 0.0 0.0 0.0 0 25.5 25.0 24.5 24.0 23.5 23.5 0.10058700000000001 7 253 253 253 253 253 253 1 -0.24626992031694836 0.24493893696896454 -9.813855309892418 0.0 1.0 0.0 48.0 48.0 0.0 0.0 0.0 0.0 0.0 0.0 0.0 0 1
3175.212 -1.6006999999999998 -1.7271 -2.2029999999999994 -0.8079999999999998 1.5951 -0.030999999999999694 0.0 0.0 0.0 0.0 0.0 0.0 0.0 0.0 0.0 0.0 0.0 0.0 -1.8265934578025755e-17 2.141012561521421 1.4926747162211425 0.23313859823392621 0.0017549219604181278 0.0 -1.8139026517764549e-16 21.261372344464824 14.823039108277811 1.811941528544163 0.01363916573027167 0.0 -1.6006999999999998 -1.7271 -2.2029999999999994 -0.8079999999999998 1.5951 -0.030999999999999694 0.0 0.0 0.0 0.0 0.0 0.0 -1.8265934578025755e-17 2.141012561521421 1.4926747162211425 0.23313859823392621 0.0017549219604181278 0.0 -1.8265934578025755e-17 2.141012561521421 1.4926747162211425 0.23313859823392621 0.0017549219604181278 0.0 -0.14396865671352163 -0.43562006080319216 0.2020300254283846 -0.0012213596815925638 3.1162765284819756 0.038891915636886834 0.0 0.0 0.0 0.0 0.0 0.0 0.0 0.0 0.0 0.0 0.0 0.0 -0.14396865671352163 -0.43562006080319216 0.2020300254283846 -0.0012213596815925638 3.1162765284819756 0.038891915636886834 0.0 0.0 0.0 0.0 0.0 0.0 0 25.5 25.0 24.5 24.0 23.5 23.5 0.10375 7 253 253 253 253 253 253 1 -0.24626992031694836 0.24493893696896454 -9.813855309892418 0.0 1.0 0.0 48.0 48.0 0.0 0.0 0.0 0.0 0.0 0.0 0.0 0 1
3175.22 -1.6006999999999998 -1.7271 -2.2029999999999994 -0.8079999999999998 1.5951 -0.030999999999999694 0.0 0.0 0.0 0.0 0.0 0.0 0.0 0.0 0.0 0.0 0.0 0.0 -1.8265934578025755e-17 2.141012561521421 1.4926747162211425 0.23313859823392621 0.0017549219604181278 0.0 -1.8139026517764549e-16 21.261372344464824 14.823039108277811 1.811941528544163 0.01363916573027167 0.0 -1.6006999999999998 -1.7271 -2.2029999999999994 -0.8079999999999998 1.5951 -0.030999999999999694 0.0 0.0 0.0 0.0 0.0 0.0 -1.8265934578025755e-17 2.141012561521421 1.4926747162211425 0.23313859823392621 0.0017549219604181278 0.0 -1.8265934578025755e-17 2.141012561521421 1.4926747162211425 0.23313859823392621 0.0017549219604181278 0.0 -0.14396865671352163 -0.43562006080319216 0.2020300254283846 -0.0012213596815925638 3.1162765284819756 0.038891915636886834 0.0 0.0 0.0 0.0 0.0 0.0 0.0 0.0 0.0 0.0 0.0 0.0 -0.14396865671352163 -0.43562006080319216 0.2020300254283846 -0.0012213596815925638 3.1162765284819756 0.038891915636886834 0.0 0.0 0.0 0.0 0.0 0.0 0 25.5 25.0 24.5 24.0 23.5 23.5 0.103047 7 253 253 253 253 253 253 1 -0.24626992031694836 0.24493893696896454 -9.813855309892418 0.0 1.0 0.0 48.0 48.0 0.0 0.0 0.0 0.0 0.0 0.0 0.0 0 1
3175.228 -1.6006999999999998 -1.7271 -2.2029999999999994 -0.8079999999999998 1.5951 -0.030999999999999694 0.0 0.0 0.0 0.0 0.0 0.0 0.0 0.0 0.0 0.0 0.0 0.0 -1.8265934578025755e-17 2.141012561521421 1.4926747162211425 0.23313859823392621 0.0017549219604181278 0.0 -1.8139026517764549e-16 21.261372344464824 14.823039108277811 1.811941528544163 0.01363916573027167 0.0 -1.6006999999999998 -1.7271 -2.2029999999999994 -0.8079999999999998 1.5951 -0.030999999999999694 0.0 0.0 0.0 0.0 0.0 0.0 -1.8265934578025755e-17 2.141012561521421 1.4926747162211425 0.23313859823392621 0.0017549219604181278 0.0 -1.8265934578025755e-17 2.141012561521421 1.4926747162211425 0.23313859823392621 0.0017549219604181278 0.0 -0.14396865671352163 -0.43562006080319216 0.2020300254283846 -0.0012213596815925638 3.1162765284819756 0.038891915636886834 0.0 0.0 0.0 0.0 0.0 0.0 0.0 0.0 0.0 0.0 0.0 0.0 -0.14396865671352163 -0.43562006080319216 0.2020300254283846 -0.0012213596815925638 3.1162765284819756 0.038891915636886834 0.0 0.0 0.0 0.0 0.0 0.0 0 25.5 25.0 24.5 24.0 23.5 23.5 0.10412300000000001 7 253 253 253 253 253 253 1 -0.24626992031694836 0.24493893696896454 -9.813855309892418 0.0 1.0 0.0 48.0 48.0 0.0 0.0 0.0 0.0 0.0 0.0 0.0 0 1
3175.236 -1.6006999999999998 -1.7271 -2.2029999999999994 -0.8079999999999998 1.5951 -0.030999999999999694 0.0 0.0 0.0 0.0 0.0 0.0 0.0 0.0 0.0 0.0 0.0 0.0 -1.8265934578025755e-17 2.141012561521421 1.4926747162211425 0.23313859823392621 0.0017549219604181278 0.0 -1.8139026517764549e-16 21.261372344464824 14.823039108277811 1.811941528544163 0.01363916573027167 0.0 -1.6006999999999998 -1.7271 -2.2029999999999994 -0.8079999999999998 1.5951 -0.030999999999999694 0.0 0.0 0.0 0.0 0.0 0.0 -1.8265934578025755e-17 2.141012561521421 1.4926747162211425 0.23313859823392621 0.0017549219604181278 0.0 -1.8265934578025755e-17 2.141012561521421 1.4926747162211425 0.23313859823392621 0.0017549219604181278 0.0 -0.14396865671352163 -0.43562006080319216 0.2020300254283846 -0.0012213596815925638 3.1162765284819756 0.038891915636886834 0.0 0.0 0.0 0.0 0.0 0.0 0.0 0.0 0.0 0.0 0.0 0.0 -0.14396865671352163 -0.43562006080319216 0.2020300254283846 -0.0012213596815925638 3.1162765284819756 0.038891915636886834 0.0 0.0 0.0 0.0 0.0 0.0 0 25.5 25.0 24.5 24.0 23.5 23.5 0.116978 7 253 253 253 253 253 253 1 -0.24626992031694836 0.24493893696896454 -9.813855309892418 0.0 1.0 0.0 48.0 48.0 0.0 0.0 0.0 0.0 0.0 0.0 0.0 0 1
3175.2439999999997 -1.6006999999999998 -1.7271 -2.2029999999999994 -0.8079999999999998 1.5951 -0.030999999999999694 0.0 0.0 0.0 0.0 0.0 0.0 0.0 0.0 0.0 0.0 0.0 0.0 -1.8265934578025755e-17 2.141012561521421 1.4926747162211425 0.23313859823392621 0.0017549219604181278 0.0 -1.8139026517764549e-16 21.261372344464824 14.823039108277811 1.811941528544163 0.01363916573027167 0.0 -1.6006999999999998 -1.7271 -2.2029999999999994 -0.8079999999999998 1.5951 -0.030999999999999694 0.0 0.0 0.0 0.0 0.0 0.0 -1.8265934578025755e-17 2.141012561521421 1.4926747162211425 0.23313859823392621 0.0017549219604181278 0.0 -1.8265934578025755e-17 2.141012561521421 1.4926747162211425 0.23313859823392621 0.0017549219604181278 0.0 -0.14396865671352163 -0.43562006080319216 0.2020300254283846 -0.0012213596815925638 3.1162765284819756 0.038891915636886834 0.0 0.0 0.0 0.0 0.0 0.0 0.0 0.0 0.0 0.0 0.0 0.0 -0.14396865671352163 -0.43562006080319216 0.2020300254283846 -0.0012213596815925638 3.1162765284819756 0.038891915636886834 0.0 0.0 0.0 0.0 0.0 0.0 0 25.5 25.0 24.5 24.0 23.5 23.5 0.16280799999999998 7 253 253 253 253 253 253 1 -0.24626992031694836 0.24493893696896454 -9.813855309892418 0.0 1.0 0.0 48.0 48.0 0.0 0.0 0.0 0.0 0.0 0.0 0.0 0 1
3175.252 -1.6006999999999998 -1.7271 -2.2029999999999994 -0.8079999999999998 1.5951 -0.030999999999999694 0.0 0.0 0.0 0.0 0.0 0.0 0.0 0.0 0.0 0.0 0.0 0.0 -1.8265934578025755e-17 2.141012561521421 1.4926747162211425 0.23313859823392621 0.0017549219604181278 0.0 -1.8139026517764549e-16 21.261372344464824 14.823039108277811 1.811941528544163 0.01363916573027167 0.0 -1.6006999999999998 -1.7271 -2.2029999999999994 -0.8079999999999998 1.5951 -0.030999999999999694 0.0 0.0 0.0 0.0 0.0 0.0 -1.8265934578025755e-17 2.141012561521421 1.4926747162211425 0.23313859823392621 0.0017549219604181278 0.0 -1.8265934578025755e-17 2.141012561521421 1.4926747162211425 0.23313859823392621 0.0017549219604181278 0.0 -0.14396865671352163 -0.43562006080319216 0.2020300254283846 -0.0012213596815925638 3.1162765284819756 0.038891915636886834 0.0 0.0 0.0 0.0 0.0 0.0 0.0 0.0 0.0 0.0 0.0 0.0 -0.14396865671352163 -0.43562006080319216 0.2020300254283846 -0.0012213596815925638 3.1162765284819756 0.038891915636886834 0.0 0.0 0.0 0.0 0.0 0.0 0 25.5 25.0 24.5 24.0 23.5 23.5 0.27857299999999996 7 253 253 253 253 253 253 1 -0.24626992031694836 0.24493893696896454 -9.813855309892418 0.0 1.0 0.0 48.0 48.0 0.0 0.0 0.0 0.0 0.0 0.0 0.0 0 1
3175.2839999999997 -1.6006999999999998 -1.7271 -2.2029999999999994 -0.8079999999999998 1.5951 -0.030999999999999694 0.0 0.0 0.0 0.0 0.0 0.0 0.0 0.0 0.0 0.0 0.0 0.0 -1.8265934578025755e-17 2.141012561521421 1.4926747162211425 0.23313859823392621 0.0017549219604181278 0.0 -1.8139026517764549e-16 21.261372344464824 14.823039108277811 1.811941528544163 0.01363916573027167 0.0 -1.6006999999999998 -1.7271 -2.2029999999999994 -0.8079999999999998 1.5951 -0.030999999999999694 0.0 0.0 0.0 0.0 0.0 0.0 -1.8265934578025755e-17 2.141012561521421 1.4926747162211425 0.23313859823392621 0.0017549219604181278 0.0 -1.8265934578025755e-17 2.141012561521421 1.4926747162211425 0.23313859823392621 0.0017549219604181278 0.0 -0.14396865671352163 -0.43562006080319216 0.2020300254283846 -0.0012213596815925638 3.1162765284819756 0.038891915636886834 0.0 0.0 0.0 0.0 0.0 0.0 0.0 0.0 0.0 0.0 0.0 0.0 -0.14396865671352163 -0.43562006080319216 0.2020300254283846 -0.0012213596815925638 3.1162765284819756 0.038891915636886834 0.0 0.0 0.0 0.0 0.0 0.0 0 25.5 25.0 24.5 24.0 23.5 23.5 0.25595599999999996 7 253 253 253 253 253 253 1 -0.24626992031694836 0.24493893696896454 -9.813855309892418 0.0 1.0 0.0 48.0 48.0 0.0 0.0 0.0 0.0 0.0 0.0 0.0 0 1
3175.2999999999997 -1.6006999999999998 -1.7271 -2.2029999999999994 -0.8079999999999998 1.5951 -0.030999999999999694 0.0 0.0 0.0 0.0 0.0 0.0 0.0 0.0 0.0 0.0 0.0 0.0 -1.8265934578025755e-17 2.141012561521421 1.4926747162211425 0.23313859823392621 0.0017549219604181278 0.0 -1.8139026517764549e-16 21.261372344464824 14.823039108277811 1.811941528544163 0.01363916573027167 0.0 -1.6006999999999998 -1.7271 -2.2029999999999994 -0.8079999999999998 1.5951 -0.030999999999999694 0.0 0.0 0.0 0.0 0.0 0.0 -1.8265934578025755e-17 2.141012561521421 1.4926747162211425 0.23313859823392621 0.0017549219604181278 0.0 -1.8265934578025755e-17 2.141012561521421 1.4926747162211425 0.23313859823392621 0.0017549219604181278 0.0 -0.14396865671352163 -0.43562006080319216 0.2020300254283846 -0.0012213596815925638 3.1162765284819756 0.038891915636886834 0.0 0.0 0.0 0.0 0.0 0.0 0.0 0.0 0.0 0.0 0.0 0.0 -0.14396865671352163 -0.43562006080319216 0.2020300254283846 -0.0012213596815925638 3.1162765284819756 0.038891915636886834 0.0 0.0 0.0 0.0 0.0 0.0 0 25.5 25.0 24.5 24.0 23.5 23.5 0.192379 7 253 253 253 253 253 253 1 -0.24626992031694836 0.24493893696896454 -9.813855309892418 0.0 1.0 0.0 48.0 48.0 0.0 0.0 0.0 0.0 0.0 0.0 0.0 0 1
3175.332 -1.6006999999999998 -1.7271 -2.2029999999999994 -0.8079999999999998 1.5951 -0.030999999999999694 0.0 0.0 0.0 0.0 0.0 0.0 0.0 0.0 0.0 0.0 0.0 0.0 -1.8265934578025755e-17 2.141012561521421 1.4926747162211425 0.23313859823392621 0.0017549219604181278 0.0 -1.8139026517764549e-16 21.261372344464824 14.823039108277811 1.811941528544163 0.01363916573027167 0.0 -1.6006999999999998 -1.7271 -2.2029999999999994 -0.8079999999999998 1.5951 -0.030999999999999694 0.0 0.0 0.0 0.0 0.0 0.0 -1.8265934578025755e-17 2.141012561521421 1.4926747162211425 0.23313859823392621 0.0017549219604181278 0.0 -1.8265934578025755e-17 2.141012561521421 1.4926747162211425 0.23313859823392621 0.0017549219604181278 0.0 -0.14396865671352163 -0.43562006080319216 0.2020300254283846 -0.0012213596815925638 3.1162765284819756 0.038891915636886834 0.0 0.0 0.0 0.0 0.0 0.0 0.0 0.0 0.0 0.0 0.0 0.0 -0.14396865671352163 -0.43562006080319216 0.2020300254283846 -0.0012213596815925638 3.1162765284819756 0.038891915636886834 0.0 0.0 0.0 0.0 0.0 0.0 0 25.5 25.0 24.5 24.0 23.5 23.5 0.28282799999999997 7 253 253 253 253 253 253 1 -0.24626992031694836 0.24493893696896454 -9.813855309892418 0.0 1.0 0.0 48.0 48.0 0.0 0.0 0.0 0.0 0.0 0.0 0.0 0 1
3175.348 -1.6006999999999998 -1.7271 -2.2029999999999994 -0.8079999999999998 1.5951 -0.030999999999999694 0.0 0.0 0.0 0.0 0.0 0.0 0.0 0.0 0.0 0.0 0.0 0.0 -1.8265934578025755e-17 2.141012561521421 1.4926747162211425 0.23313859823392621 0.0017549219604181278 0.0 -1.8139026517764549e-16 21.261372344464824 14.823039108277811 1.811941528544163 0.01363916573027167 0.0 -1.6006999999999998 -1.7271 -2.2029999999999994 -0.8079999999999998 1.5951 -0.030999999999999694 0.0 0.0 0.0 0.0 0.0 0.0 -1.8265934578025755e-17 2.141012561521421 1.4926747162211425 0.23313859823392621 0.0017549219604181278 0.0 -1.8265934578025755e-17 2.141012561521421 1.4926747162211425 0.23313859823392621 0.0017549219604181278 0.0 -0.14396865671352163 -0.43562006080319216 0.2020300254283846 -0.0012213596815925638 3.1162765284819756 0.038891915636886834 0.0 0.0 0.0 0.0 0.0 0.0 0.0 0.0 0.0 0.0 0.0 0.0 -0.14396865671352163 -0.43562006080319216 0.2020300254283846 -0.0012213596815925638 3.1162765284819756 0.038891915636886834 0.0 0.0 0.0 0.0 0.0 0.0 0 25.5 25.0 24.5 24.0 23.5 23.5 0.152675 7 253 253 253 253 253 253 1 -0.24626992031694836 0.24493893696896454 -9.813855309892418 0.0 1.0 0.0 48.0 48.0 0.0 0.0 0.0 0.0 0.0 0.0 0.0 0 1
3175.364 -1.6006999999999998 -1.7271 -2.2029999999999994 -0.8079999999999998 1.5951 -0.030999999999999694 0.0 0.0 0.0 0.0 0.0 0.0 0.0 0.0 0.0 0.0 0.0 0.0 -1.8265934578025755e-17 2.141012561521421 1.4926747162211425 0.23313859823392621 0.0017549219604181278 0.0 -1.8139026517764549e-16 21.261372344464824 14.823039108277811 1.811941528544163 0.01363916573027167 0.0 -1.6006999999999998 -1.7271 -2.2029999999999994 -0.8079999999999998 1.5951 -0.030999999999999694 0.0 0.0 0.0 0.0 0.0 0.0 -1.8265934578025755e-17 2.141012561521421 1.4926747162211425 0.23313859823392621 0.0017549219604181278 0.0 -1.8265934578025755e-17 2.141012561521421 1.4926747162211425 0.23313859823392621 0.0017549219604181278 0.0 -0.14396865671352163 -0.43562006080319216 0.2020300254283846 -0.0012213596815925638 3.1162765284819756 0.038891915636886834 0.0 0.0 0.0 0.0 0.0 0.0 0.0 0.0 0.0 0.0 0.0 0.0 -0.14396865671352163 -0.43562006080319216 0.2020300254283846 -0.0012213596815925638 3.1162765284819756 0.038891915636886834 0.0 0.0 0.0 0.0 0.0 0.0 0 25.5 25.0 24.5 24.0 23.5 23.5 0.109008 7 253 253 253 253 253 253 1 -0.24626992031694836 0.24493893696896454 -9.813855309892418 0.0 1.0 0.0 48.0 48.0 0.0 0.0 0.0 0.0 0.0 0.0 0.0 0 1
3175.3799999999997 -1.6006999999999998 -1.7271 -2.2029999999999994 -0.8079999999999998 1.5951 -0.030999999999999694 0.0 0.0 0.0 0.0 0.0 0.0 0.0 0.0 0.0 0.0 0.0 0.0 -1.8265934578025755e-17 2.141012561521421 1.4926747162211425 0.23313859823392621 0.0017549219604181278 0.0 -1.8139026517764549e-16 21.261372344464824 14.823039108277811 1.811941528544163 0.01363916573027167 0.0 -1.6006999999999998 -1.7271 -2.2029999999999994 -0.8079999999999998 1.5951 -0.030999999999999694 0.0 0.0 0.0 0.0 0.0 0.0 -1.8265934578025755e-17 2.141012561521421 1.4926747162211425 0.23313859823392621 0.0017549219604181278 0.0 -1.8265934578025755e-17 2.141012561521421 1.4926747162211425 0.23313859823392621 0.0017549219604181278 0.0 -0.14396865671352163 -0.43562006080319216 0.2020300254283846 -0.0012213596815925638 3.1162765284819756 0.038891915636886834 0.0 0.0 0.0 0.0 0.0 0.0 0.0 0.0 0.0 0.0 0.0 0.0 -0.14396865671352163 -0.43562006080319216 0.2020300254283846 -0.0012213596815925638 3.1162765284819756 0.038891915636886834 0.0 0.0 0.0 0.0 0.0 0.0 0 25.5 25.0 24.5 24.0 23.5 23.5 0.12616 7 253 253 253 253 253 253 1 -0.24626992031694836 0.24493893696896454 -9.813855309892418 0.0 1.0 0.0 48.0 48.0 0.0 0.0 0.0 0.0 0.0 0.0 0.0 0 1
3175.388 -1.6006999999999998 -1.7271 -2.2029999999999994 -0.8079999999999998 1.5951 -0.030999999999999694 0.0 0.0 0.0 0.0 0.0 0.0 0.0 0.0 0.0 0.0 0.0 0.0 -1.8265934578025755e-17 2.141012561521421 1.4926747162211425 0.23313859823392621 0.0017549219604181278 0.0 -1.8139026517764549e-16 21.261372344464824 14.823039108277811 1.811941528544163 0.01363916573027167 0.0 -1.6006999999999998 -1.7271 -2.2029999999999994 -0.8079999999999998 1.5951 -0.030999999999999694 0.0 0.0 0.0 0.0 0.0 0.0 -1.8265934578025755e-17 2.141012561521421 1.4926747162211425 0.23313859823392621 0.0017549219604181278 0.0 -1.8265934578025755e-17 2.141012561521421 1.4926747162211425 0.23313859823392621 0.0017549219604181278 0.0 -0.14396865671352163 -0.43562006080319216 0.2020300254283846 -0.0012213596815925638 3.1162765284819756 0.038891915636886834 0.0 0.0 0.0 0.0 0.0 0.0 0.0 0.0 0.0 0.0 0.0 0.0 -0.14396865671352163 -0.43562006080319216 0.2020300254283846 -0.0012213596815925638 3.1162765284819756 0.038891915636886834 0.0 0.0 0.0 0.0 0.0 0.0 0 25.5 25.0 24.5 24.0 23.5 23.5 0.180855 7 253 253 253 253 253 253 1 -0.24626992031694836 0.24493893696896454 -9.813855309892418 0.0 1.0 0.0 48.0 48.0 0.0 0.0 0.0 0.0 0.0 0.0 0.0 0 1
3175.3959999999997 -1.6006999999999998 -1.7271 -2.2029999999999994 -0.8079999999999998 1.5951 -0.030999999999999694 0.0 0.0 0.0 0.0 0.0 0.0 0.0 0.0 0.0 0.0 0.0 0.0 -1.8265934578025755e-17 2.141012561521421 1.4926747162211425 0.23313859823392621 0.0017549219604181278 0.0 -1.8139026517764549e-16 21.261372344464824 14.823039108277811 1.811941528544163 0.01363916573027167 0.0 -1.6006999999999998 -1.7271 -2.2029999999999994 -0.8079999999999998 1.5951 -0.030999999999999694 0.0 0.0 0.0 0.0 0.0 0.0 -1.8265934578025755e-17 2.141012561521421 1.4926747162211425 0.23313859823392621 0.0017549219604181278 0.0 -1.8265934578025755e-17 2.141012561521421 1.4926747162211425 0.23313859823392621 0.0017549219604181278 0.0 -0.14396865671352163 -0.43562006080319216 0.2020300254283846 -0.0012213596815925638 3.1162765284819756 0.038891915636886834 0.0 0.0 0.0 0.0 0.0 0.0 0.0 0.0 0.0 0.0 0.0 0.0 -0.14396865671352163 -0.43562006080319216 0.2020300254283846 -0.0012213596815925638 3.1162765284819756 0.038891915636886834 0.0 0.0 0.0 0.0 0.0 0.0 0 25.5 25.0 24.5 24.0 23.5 23.5 0.099793 7 253 253 253 253 253 253 1 -0.24626992031694836 0.24493893696896454 -9.813855309892418 0.0 1.0 0.0 48.0 48.0 0.0 0.0 0.0 0.0 0.0 0.0 0.0 0 1
3175.412 -1.6006999999999998 -1.7271 -2.2029999999999994 -0.8079999999999998 1.5951 -0.030999999999999694 0.0 0.0 0.0 0.0 0.0 0.0 0.0 0.0 0.0 0.0 0.0 0.0 -1.8265934578025755e-17 2.141012561521421 1.4926747162211425 0.23313859823392621 0.0017549219604181278 0.0 -1.8139026517764549e-16 21.261372344464824 14.823039108277811 1.811941528544163 0.01363916573027167 0.0 -1.6006999999999998 -1.7271 -2.2029999999999994 -0.8079999999999998 1.5951 -0.030999999999999694 0.0 0.0 0.0 0.0 0.0 0.0 -1.8265934578025755e-17 2.141012561521421 1.4926747162211425 0.23313859823392621 0.0017549219604181278 0.0 -1.8265934578025755e-17 2.141012561521421 1.4926747162211425 0.23313859823392621 0.0017549219604181278 0.0 -0.14396865671352163 -0.43562006080319216 0.2020300254283846 -0.0012213596815925638 3.1162765284819756 0.038891915636886834 0.0 0.0 0.0 0.0 0.0 0.0 0.0 0.0 0.0 0.0 0.0 0.0 -0.14396865671352163 -0.43562006080319216 0.2020300254283846 -0.0012213596815925638 3.1162765284819756 0.038891915636886834 0.0 0.0 0.0 0.0 0.0 0.0 0 25.5 25.0 24.5 24.0 23.5 23.5 0.105297 7 253 253 253 253 253 253 1 -0.24626992031694836 0.24493893696896454 -9.813855309892418 0.0 1.0 0.0 48.0 48.0 0.0 0.0 0.0 0.0 0.0 0.0 0.0 0 1
3175.4519999999998 -1.6006999999999998 -1.7271 -2.2029999999999994 -0.8079999999999998 1.5951 -0.030999999999999694 0.0 0.0 0.0 0.0 0.0 0.0 0.0 0.0 0.0 0.0 0.0 0.0 -1.8265934578025755e-17 2.141012561521421 1.4926747162211425 0.23313859823392621 0.0017549219604181278 0.0 -1.8139026517764549e-16 21.261372344464824 14.823039108277811 1.811941528544163 0.01363916573027167 0.0 -1.6006999999999998 -1.7271 -2.2029999999999994 -0.8079999999999998 1.5951 -0.030999999999999694 0.0 0.0 0.0 0.0 0.0 0.0 -1.8265934578025755e-17 2.141012561521421 1.4926747162211425 0.23313859823392621 0.0017549219604181278 0.0 -1.8265934578025755e-17 2.141012561521421 1.4926747162211425 0.23313859823392621 0.0017549219604181278 0.0 -0.14396865671352163 -0.43562006080319216 0.2020300254283846 -0.0012213596815925638 3.1162765284819756 0.038891915636886834 0.0 0.0 0.0 0.0 0.0 0.0 0.0 0.0 0.0 0.0 0.0 0.0 -0.14396865671352163 -0.43562006080319216 0.2020300254283846 -0.0012213596815925638 3.1162765284819756 0.038891915636886834 0.0 0.0 0.0 0.0 0.0 0.0 0 25.5 25.0 24.5 24.0 23.5 23.5 0.09072799999999999 7 253 253 253 253 253 253 1 -0.24626992031694836 0.24493893696896454 -9.813855309892418 0.0 1.0 0.0 48.0 48.0 0.0 0.0 0.0 0.0 0.0 0.0 0.0 0 1
3175.468 -1.6006999999999998 -1.7271 -2.2029999999999994 -0.8079999999999998 1.5951 -0.030999999999999694 0.0 0.0 0.0 0.0 0.0 0.0 0.0 0.0 0.0 0.0 0.0 0.0 -1.8265934578025755e-17 2.141012561521421 1.4926747162211425 0.23313859823392621 0.0017549219604181278 0.0 -1.8139026517764549e-16 21.261372344464824 14.823039108277811 1.811941528544163 0.01363916573027167 0.0 -1.6006999999999998 -1.7271 -2.2029999999999994 -0.8079999999999998 1.5951 -0.030999999999999694 0.0 0.0 0.0 0.0 0.0 0.0 -1.8265934578025755e-17 2.141012561521421 1.4926747162211425 0.23313859823392621 0.0017549219604181278 0.0 -1.8265934578025755e-17 2.141012561521421 1.4926747162211425 0.23313859823392621 0.0017549219604181278 0.0 -0.14396865671352163 -0.43562006080319216 0.2020300254283846 -0.0012213596815925638 3.1162765284819756 0.038891915636886834 0.0 0.0 0.0 0.0 0.0 0.0 0.0 0.0 0.0 0.0 0.0 0.0 -0.14396865671352163 -0.43562006080319216 0.2020300254283846 -0.0012213596815925638 3.1162765284819756 0.038891915636886834 0.0 0.0 0.0 0.0 0.0 0.0 0 25.5 25.0 24.5 24.0 23.5 23.5 0.11936100000000001 7 253 253 253 253 253 253 1 -0.24626992031694836 0.24493893696896454 -9.813855309892418 0.0 1.0 0.0 48.0 48.0 0.0 0.0 0.0 0.0 0.0 0.0 0.0 0 1
3175.484 -1.6006999999999998 -1.7271 -2.2029999999999994 -0.8079999999999998 1.5951 -0.030999999999999694 0.0 0.0 0.0 0.0 0.0 0.0 0.0 0.0 0.0 0.0 0.0 0.0 -1.8265934578025755e-17 2.141012561521421 1.4926747162211425 0.23313859823392621 0.0017549219604181278 0.0 -1.8139026517764549e-16 21.261372344464824 14.823039108277811 1.811941528544163 0.01363916573027167 0.0 -1.6006999999999998 -1.7271 -2.2029999999999994 -0.8079999999999998 1.5951 -0.030999999999999694 0.0 0.0 0.0 0.0 0.0 0.0 -1.8265934578025755e-17 2.141012561521421 1.4926747162211425 0.23313859823392621 0.0017549219604181278 0.0 -1.8265934578025755e-17 2.141012561521421 1.4926747162211425 0.23313859823392621 0.0017549219604181278 0.0 -0.14396865671352163 -0.43562006080319216 0.2020300254283846 -0.0012213596815925638 3.1162765284819756 0.038891915636886834 0.0 0.0 0.0 0.0 0.0 0.0 0.0 0.0 0.0 0.0 0.0 0.0 -0.14396865671352163 -0.43562006080319216 0.2020300254283846 -0.0012213596815925638 3.1162765284819756 0.038891915636886834 0.0 0.0 0.0 0.0 0.0 0.0 0 25.5 25.0 24.5 24.0 23.5 23.5 0.097035 7 253 253 253 253 253 253 1 -0.24626992031694836 0.24493893696896454 -9.813855309892418 0.0 1.0 0.0 48.0 48.0 0.0 0.0 0.0 0.0 0.0 0.0 0.0 0 1
3175.4919999999997 -1.6006999999999998 -1.7271 -2.2029999999999994 -0.8079999999999998 1.5951 -0.030999999999999694 0.0 0.0 0.0 0.0 0.0 0.0 0.0 0.0 0.0 0.0 0.0 0.0 -1.8265934578025755e-17 2.141012561521421 1.4926747162211425 0.23313859823392621 0.0017549219604181278 0.0 -1.8139026517764549e-16 21.261372344464824 14.823039108277811 1.811941528544163 0.01363916573027167 0.0 -1.6006999999999998 -1.7271 -2.2029999999999994 -0.8079999999999998 1.5951 -0.030999999999999694 0.0 0.0 0.0 0.0 0.0 0.0 -1.8265934578025755e-17 2.141012561521421 1.4926747162211425 0.23313859823392621 0.0017549219604181278 0.0 -1.8265934578025755e-17 2.141012561521421 1.4926747162211425 0.23313859823392621 0.0017549219604181278 0.0 -0.14396865671352163 -0.43562006080319216 0.2020300254283846 -0.0012213596815925638 3.1162765284819756 0.038891915636886834 0.0 0.0 0.0 0.0 0.0 0.0 0.0 0.0 0.0 0.0 0.0 0.0 -0.14396865671352163 -0.43562006080319216 0.2020300254283846 -0.0012213596815925638 3.1162765284819756 0.038891915636886834 0.0 0.0 0.0 0.0 0.0 0.0 0 25.5 25.0 24.5 24.0 23.5 23.5 0.094325 7 253 253 253 253 253 253 1 -0.24626992031694836 0.24493893696896454 -9.813855309892418 0.0 1.0 0.0 48.0 48.0 0.0 0.0 0.0 0.0 0.0 0.0 0.0 0 1
3175.5 -1.6006999999999998 -1.7271 -2.2029999999999994 -0.8079999999999998 1.5951 -0.030999999999999694 0.0 0.0 0.0 0.0 0.0 0.0 0.0 0.0 0.0 0.0 0.0 0.0 -1.8265934578025755e-17 2.141012561521421 1.4926747162211425 0.23313859823392621 0.0017549219604181278 0.0 -1.8139026517764549e-16 21.261372344464824 14.823039108277811 1.811941528544163 0.01363916573027167 0.0 -1.6006999999999998 -1.7271 -2.2029999999999994 -0.8079999999999998 1.5951 -0.030999999999999694 0.0 0.0 0.0 0.0 0.0 0.0 -1.8265934578025755e-17 2.141012561521421 1.4926747162211425 0.23313859823392621 0.0017549219604181278 0.0 -1.8265934578025755e-17 2.141012561521421 1.4926747162211425 0.23313859823392621 0.0017549219604181278 0.0 -0.14396865671352163 -0.43562006080319216 0.2020300254283846 -0.0012213596815925638 3.1162765284819756 0.038891915636886834 0.0 0.0 0.0 0.0 0.0 0.0 0.0 0.0 0.0 0.0 0.0 0.0 -0.14396865671352163 -0.43562006080319216 0.2020300254283846 -0.0012213596815925638 3.1162765284819756 0.038891915636886834 0.0 0.0 0.0 0.0 0.0 0.0 0 25.5 25.0 24.5 24.0 23.5 23.5 0.099502 7 253 253 253 253 253 253 1 -0.24626992031694836 0.24493893696896454 -9.813855309892418 0.0 1.0 0.0 48.0 48.0 0.0 0.0 0.0 0.0 0.0 0.0 0.0 0 1
3175.524 -1.6006999999999998 -1.7271 -2.2029999999999994 -0.8079999999999998 1.5951 -0.030999999999999694 0.0 0.0 0.0 0.0 0.0 0.0 0.0 0.0 0.0 0.0 0.0 0.0 -1.8265934578025755e-17 2.141012561521421 1.4926747162211425 0.23313859823392621 0.0017549219604181278 0.0 -1.8139026517764549e-16 21.261372344464824 14.823039108277811 1.811941528544163 0.01363916573027167 0.0 -1.6006999999999998 -1.7271 -2.2029999999999994 -0.8079999999999998 1.5951 -0.030999999999999694 0.0 0.0 0.0 0.0 0.0 0.0 -1.8265934578025755e-17 2.141012561521421 1.4926747162211425 0.23313859823392621 0.0017549219604181278 0.0 -1.8265934578025755e-17 2.141012561521421 1.4926747162211425 0.23313859823392621 0.0017549219604181278 0.0 -0.14396865671352163 -0.43562006080319216 0.2020300254283846 -0.0012213596815925638 3.1162765284819756 0.038891915636886834 0.0 0.0 0.0 0.0 0.0 0.0 0.0 0.0 0.0 0.0 0.0 0.0 -0.14396865671352163 -0.43562006080319216 0.2020300254283846 -0.0012213596815925638 3.1162765284819756 0.038891915636886834 0.0 0.0 0.0 0.0 0.0 0.0 0 25.5 25.0 24.5 24.0 23.5 23.5 0.140983 7 253 253 253 253 253 253 1 -0.24626992031694836 0.24493893696896454 -9.813855309892418 0.0 1.0 0.0 48.0 48.0 0.0 0.0 0.0 0.0 0.0 0.0 0.0 0 1
3175.5319999999997 -1.6006999999999998 -1.7271 -2.2029999999999994 -0.8079999999999998 1.5951 -0.030999999999999694 0.0 0.0 0.0 0.0 0.0 0.0 0.0 0.0 0.0 0.0 0.0 0.0 -1.8265934578025755e-17 2.141012561521421 1.4926747162211425 0.23313859823392621 0.0017549219604181278 0.0 -1.8139026517764549e-16 21.261372344464824 14.823039108277811 1.811941528544163 0.01363916573027167 0.0 -1.6006999999999998 -1.7271 -2.2029999999999994 -0.8079999999999998 1.5951 -0.030999999999999694 0.0 0.0 0.0 0.0 0.0 0.0 -1.8265934578025755e-17 2.141012561521421 1.4926747162211425 0.23313859823392621 0.0017549219604181278 0.0 -1.8265934578025755e-17 2.141012561521421 1.4926747162211425 0.23313859823392621 0.0017549219604181278 0.0 -0.14396865671352163 -0.43562006080319216 0.2020300254283846 -0.0012213596815925638 3.1162765284819756 0.038891915636886834 0.0 0.0 0.0 0.0 0.0 0.0 0.0 0.0 0.0 0.0 0.0 0.0 -0.14396865671352163 -0.43562006080319216 0.2020300254283846 -0.0012213596815925638 3.1162765284819756 0.038891915636886834 0.0 0.0 0.0 0.0 0.0 0.0 0 25.5 25.0 24.5 24.0 23.5 23.5 0.068964 7 253 253 253 253 253 253 1 -0.24626992031694836 0.24493893696896454 -9.813855309892418 0.0 1.0 0.0 48.0 48.0 0.0 0.0 0.0 0.0 0.0 0.0 0.0 0 1
3175.54 -1.6006999999999998 -1.7271 -2.2029999999999994 -0.8079999999999998 1.5951 -0.030999999999999694 0.0 0.0 0.0 0.0 0.0 0.0 0.0 0.0 0.0 0.0 0.0 0.0 -1.8265934578025755e-17 2.141012561521421 1.4926747162211425 0.23313859823392621 0.0017549219604181278 0.0 -1.8139026517764549e-16 21.261372344464824 14.823039108277811 1.811941528544163 0.01363916573027167 0.0 -1.6006999999999998 -1.7271 -2.2029999999999994 -0.8079999999999998 1.5951 -0.030999999999999694 0.0 0.0 0.0 0.0 0.0 0.0 -1.8265934578025755e-17 2.141012561521421 1.4926747162211425 0.23313859823392621 0.0017549219604181278 0.0 -1.8265934578025755e-17 2.141012561521421 1.4926747162211425 0.23313859823392621 0.0017549219604181278 0.0 -0.14396865671352163 -0.43562006080319216 0.2020300254283846 -0.0012213596815925638 3.1162765284819756 0.038891915636886834 0.0 0.0 0.0 0.0 0.0 0.0 0.0 0.0 0.0 0.0 0.0 0.0 -0.14396865671352163 -0.43562006080319216 0.2020300254283846 -0.0012213596815925638 3.1162765284819756 0.038891915636886834 0.0 0.0 0.0 0.0 0.0 0.0 0 25.5 25.0 24.5 24.0 23.5 23.5 0.145607 7 253 253 253 253 253 253 1 -0.24626992031694836 0.24493893696896454 -9.813855309892418 0.0 1.0 0.0 48.0 48.0 0.0 0.0 0.0 0.0 0.0 0.0 0.0 0 1
3175.548 -1.6006999999999998 -1.7271 -2.2029999999999994 -0.8079999999999998 1.5951 -0.030999999999999694 0.0 0.0 0.0 0.0 0.0 0.0 0.0 0.0 0.0 0.0 0.0 0.0 -1.8265934578025755e-17 2.141012561521421 1.4926747162211425 0.23313859823392621 0.0017549219604181278 0.0 -1.8139026517764549e-16 21.261372344464824 14.823039108277811 1.811941528544163 0.01363916573027167 0.0 -1.6006999999999998 -1.7271 -2.2029999999999994 -0.8079999999999998 1.5951 -0.030999999999999694 0.0 0.0 0.0 0.0 0.0 0.0 -1.8265934578025755e-17 2.141012561521421 1.4926747162211425 0.23313859823392621 0.0017549219604181278 0.0 -1.8265934578025755e-17 2.141012561521421 1.4926747162211425 0.23313859823392621 0.0017549219604181278 0.0 -0.14396865671352163 -0.43562006080319216 0.2020300254283846 -0.0012213596815925638 3.1162765284819756 0.038891915636886834 0.0 0.0 0.0 0.0 0.0 0.0 0.0 0.0 0.0 0.0 0.0 0.0 -0.14396865671352163 -0.43562006080319216 0.2020300254283846 -0.0012213596815925638 3.1162765284819756 0.038891915636886834 0.0 0.0 0.0 0.0 0.0 0.0 0 25.5 25.0 24.5 24.0 23.5 23.5 0.086034 7 253 253 253 253 253 253 1 -0.24626992031694836 0.24493893696896454 -9.813855309892418 0.0 1.0 0.0 48.0 48.0 0.0 0.0 0.0 0.0 0.0 0.0 0.0 0 1
3175.556 -1.6006999999999998 -1.7271 -2.2029999999999994 -0.8079999999999998 1.5951 -0.030999999999999694 0.0 0.0 0.0 0.0 0.0 0.0 0.0 0.0 0.0 0.0 0.0 0.0 -1.8265934578025755e-17 2.141012561521421 1.4926747162211425 0.23313859823392621 0.0017549219604181278 0.0 -1.8139026517764549e-16 21.261372344464824 14.823039108277811 1.811941528544163 0.01363916573027167 0.0 -1.6006999999999998 -1.7271 -2.2029999999999994 -0.8079999999999998 1.5951 -0.030999999999999694 0.0 0.0 0.0 0.0 0.0 0.0 -1.8265934578025755e-17 2.141012561521421 1.4926747162211425 0.23313859823392621 0.0017549219604181278 0.0 -1.8265934578025755e-17 2.141012561521421 1.4926747162211425 0.23313859823392621 0.0017549219604181278 0.0 -0.14396865671352163 -0.43562006080319216 0.2020300254283846 -0.0012213596815925638 3.1162765284819756 0.038891915636886834 0.0 0.0 0.0 0.0 0.0 0.0 0.0 0.0 0.0 0.0 0.0 0.0 -0.14396865671352163 -0.43562006080319216 0.2020300254283846 -0.0012213596815925638 3.1162765284819756 0.038891915636886834 0.0 0.0 0.0 0.0 0.0 0.0 0 25.5 25.0 24.5 24.0 23.5 23.5 0.067372 7 253 253 253 253 253 253 1 -0.24626992031694836 0.24493893696896454 -9.813855309892418 0.0 1.0 0.0 48.0 48.0 0.0 0.0 0.0 0.0 0.0 0.0 0.0 0 1
3175.564 -1.6006999999999998 -1.7271 -2.2029999999999994 -0.8079999999999998 1.5951 -0.030999999999999694 0.0 0.0 0.0 0.0 0.0 0.0 0.0 0.0 0.0 0.0 0.0 0.0 -1.8265934578025755e-17 2.141012561521421 1.4926747162211425 0.23313859823392621 0.0017549219604181278 0.0 -1.8139026517764549e-16 21.261372344464824 14.823039108277811 1.811941528544163 0.01363916573027167 0.0 -1.6006999999999998 -1.7271 -2.2029999999999994 -0.8079999999999998 1.5951 -0.030999999999999694 0.0 0.0 0.0 0.0 0.0 0.0 -1.8265934578025755e-17 2.141012561521421 1.4926747162211425 0.23313859823392621 0.0017549219604181278 0.0 -1.8265934578025755e-17 2.141012561521421 1.4926747162211425 0.23313859823392621 0.0017549219604181278 0.0 -0.14396865671352163 -0.43562006080319216 0.2020300254283846 -0.0012213596815925638 3.1162765284819756 0.038891915636886834 0.0 0.0 0.0 0.0 0.0 0.0 0.0 0.0 0.0 0.0 0.0 0.0 -0.14396865671352163 -0.43562006080319216 0.2020300254283846 -0.0012213596815925638 3.1162765284819756 0.038891915636886834 0.0 0.0 0.0 0.0 0.0 0.0 0 25.5 25.0 24.5 24.0 23.5 23.5 0.125718 7 253 253 253 253 253 253 1 -0.24626992031694836 0.24493893696896454 -9.813855309892418 0.0 1.0 0.0 48.0 48.0 0.0 0.0 0.0 0.0 0.0 0.0 0.0 0 1
3175.5719999999997 -1.6006999999999998 -1.7271 -2.2029999999999994 -0.8079999999999998 1.5951 -0.030999999999999694 0.0 0.0 0.0 0.0 0.0 0.0 0.0 0.0 0.0 0.0 0.0 0.0 -1.8265934578025755e-17 2.141012561521421 1.4926747162211425 0.23313859823392621 0.0017549219604181278 0.0 -1.8139026517764549e-16 21.261372344464824 14.823039108277811 1.811941528544163 0.01363916573027167 0.0 -1.6006999999999998 -1.7271 -2.2029999999999994 -0.8079999999999998 1.5951 -0.030999999999999694 0.0 0.0 0.0 0.0 0.0 0.0 -1.8265934578025755e-17 2.141012561521421 1.4926747162211425 0.23313859823392621 0.0017549219604181278 0.0 -1.8265934578025755e-17 2.141012561521421 1.4926747162211425 0.23313859823392621 0.0017549219604181278 0.0 -0.14396865671352163 -0.43562006080319216 0.2020300254283846 -0.0012213596815925638 3.1162765284819756 0.038891915636886834 0.0 0.0 0.0 0.0 0.0 0.0 0.0 0.0 0.0 0.0 0.0 0.0 -0.14396865671352163 -0.43562006080319216 0.2020300254283846 -0.0012213596815925638 3.1162765284819756 0.038891915636886834 0.0 0.0 0.0 0.0 0.0 0.0 0 25.5 25.0 24.5 24.0 23.5 23.5 0.148332 7 253 253 253 253 253 253 1 -0.24626992031694836 0.24493893696896454 -9.813855309892418 0.0 1.0 0.0 48.0 48.0 0.0 0.0 0.0 0.0 0.0 0.0 0.0 0 1
3175.5879999999997 -1.6006999999999998 -1.7271 -2.2029999999999994 -0.8079999999999998 1.5951 -0.030999999999999694 0.0 0.0 0.0 0.0 0.0 0.0 0.0 0.0 0.0 0.0 0.0 0.0 -1.8265934578025755e-17 2.141012561521421 1.4926747162211425 0.23313859823392621 0.0017549219604181278 0.0 -1.8139026517764549e-16 21.261372344464824 14.823039108277811 1.811941528544163 0.01363916573027167 0.0 -1.6006999999999998 -1.7271 -2.2029999999999994 -0.8079999999999998 1.5951 -0.030999999999999694 0.0 0.0 0.0 0.0 0.0 0.0 -1.8265934578025755e-17 2.141012561521421 1.4926747162211425 0.23313859823392621 0.0017549219604181278 0.0 -1.8265934578025755e-17 2.141012561521421 1.4926747162211425 0.23313859823392621 0.0017549219604181278 0.0 -0.14396865671352163 -0.43562006080319216 0.2020300254283846 -0.0012213596815925638 3.1162765284819756 0.038891915636886834 0.0 0.0 0.0 0.0 0.0 0.0 0.0 0.0 0.0 0.0 0.0 0.0 -0.14396865671352163 -0.43562006080319216 0.2020300254283846 -0.0012213596815925638 3.1162765284819756 0.038891915636886834 0.0 0.0 0.0 0.0 0.0 0.0 0 25.5 25.0 24.5 24.0 23.5 23.5 0.103025 7 253 253 253 253 253 253 1 -0.24626992031694836 0.24493893696896454 -9.813855309892418 0.0 1.0 0.0 48.0 48.0 0.0 0.0 0.0 0.0 0.0 0.0 0.0 0 1
3175.604 -1.6006999999999998 -1.7271 -2.2029999999999994 -0.8079999999999998 1.5951 -0.030999999999999694 0.0 0.0 0.0 0.0 0.0 0.0 0.0 0.0 0.0 0.0 0.0 0.0 -1.8265934578025755e-17 2.141012561521421 1.4926747162211425 0.23313859823392621 0.0017549219604181278 0.0 -1.8139026517764549e-16 21.261372344464824 14.823039108277811 1.811941528544163 0.01363916573027167 0.0 -1.6006999999999998 -1.7271 -2.2029999999999994 -0.8079999999999998 1.5951 -0.030999999999999694 0.0 0.0 0.0 0.0 0.0 0.0 -1.8265934578025755e-17 2.141012561521421 1.4926747162211425 0.23313859823392621 0.0017549219604181278 0.0 -1.8265934578025755e-17 2.141012561521421 1.4926747162211425 0.23313859823392621 0.0017549219604181278 0.0 -0.14396865671352163 -0.43562006080319216 0.2020300254283846 -0.0012213596815925638 3.1162765284819756 0.038891915636886834 0.0 0.0 0.0 0.0 0.0 0.0 0.0 0.0 0.0 0.0 0.0 0.0 -0.14396865671352163 -0.43562006080319216 0.2020300254283846 -0.0012213596815925638 3.1162765284819756 0.038891915636886834 0.0 0.0 0.0 0.0 0.0 0.0 0 25.5 25.0 24.5 24.0 23.5 23.5 0.102748 7 253 253 253 253 253 253 1 -0.24626992031694836 0.24493893696896454 -9.813855309892418 0.0 1.0 0.0 48.0 48.0 0.0 0.0 0.0 0.0 0.0 0.0 0.0 0 1
3175.612 -1.6006999999999998 -1.7271 -2.2029999999999994 -0.8079999999999998 1.5951 -0.030999999999999694 0.0 0.0 0.0 0.0 0.0 0.0 0.0 0.0 0.0 0.0 0.0 0.0 -1.8265934578025755e-17 2.141012561521421 1.4926747162211425 0.23313859823392621 0.0017549219604181278 0.0 -1.8139026517764549e-16 21.261372344464824 14.823039108277811 1.811941528544163 0.01363916573027167 0.0 -1.6006999999999998 -1.7271 -2.2029999999999994 -0.8079999999999998 1.5951 -0.030999999999999694 0.0 0.0 0.0 0.0 0.0 0.0 -1.8265934578025755e-17 2.141012561521421 1.4926747162211425 0.23313859823392621 0.0017549219604181278 0.0 -1.8265934578025755e-17 2.141012561521421 1.4926747162211425 0.23313859823392621 0.0017549219604181278 0.0 -0.14396865671352163 -0.43562006080319216 0.2020300254283846 -0.0012213596815925638 3.1162765284819756 0.038891915636886834 0.0 0.0 0.0 0.0 0.0 0.0 0.0 0.0 0.0 0.0 0.0 0.0 -0.14396865671352163 -0.43562006080319216 0.2020300254283846 -0.0012213596815925638 3.1162765284819756 0.038891915636886834 0.0 0.0 0.0 0.0 0.0 0.0 0 25.5 25.0 24.5 24.0 23.5 23.5 0.157568 7 253 253 253 253 253 253 1 -0.24626992031694836 0.24493893696896454 -9.813855309892418 0.0 1.0 0.0 48.0 48.0 0.0 0.0 0.0 0.0 0.0 0.0 0.0 0 1
3175.62 -1.6006999999999998 -1.7271 -2.2029999999999994 -0.8079999999999998 1.5951 -0.030999999999999694 0.0 0.0 0.0 0.0 0.0 0.0 0.0 0.0 0.0 0.0 0.0 0.0 -1.8265934578025755e-17 2.141012561521421 1.4926747162211425 0.23313859823392621 0.0017549219604181278 0.0 -1.8139026517764549e-16 21.261372344464824 14.823039108277811 1.811941528544163 0.01363916573027167 0.0 -1.6006999999999998 -1.7271 -2.2029999999999994 -0.8079999999999998 1.5951 -0.030999999999999694 0.0 0.0 0.0 0.0 0.0 0.0 -1.8265934578025755e-17 2.141012561521421 1.4926747162211425 0.23313859823392621 0.0017549219604181278 0.0 -1.8265934578025755e-17 2.141012561521421 1.4926747162211425 0.23313859823392621 0.0017549219604181278 0.0 -0.14396865671352163 -0.43562006080319216 0.2020300254283846 -0.0012213596815925638 3.1162765284819756 0.038891915636886834 0.0 0.0 0.0 0.0 0.0 0.0 0.0 0.0 0.0 0.0 0.0 0.0 -0.14396865671352163 -0.43562006080319216 0.2020300254283846 -0.0012213596815925638 3.1162765284819756 0.038891915636886834 0.0 0.0 0.0 0.0 0.0 0.0 0 25.5 25.0 24.5 24.0 23.5 23.5 0.12687600000000002 7 253 253 253 253 253 253 1 -0.24626992031694836 0.24493893696896454 -9.813855309892418 0.0 1.0 0.0 48.0 48.0 0.0 0.0 0.0 0.0 0.0 0.0 0.0 0 1
3175.636 -1.6006999999999998 -1.7271 -2.2029999999999994 -0.8079999999999998 1.5951 -0.030999999999999694 0.0 0.0 0.0 0.0 0.0 0.0 0.0 0.0 0.0 0.0 0.0 0.0 -1.8265934578025755e-17 2.141012561521421 1.4926747162211425 0.23313859823392621 0.0017549219604181278 0.0 -1.8139026517764549e-16 21.261372344464824 14.823039108277811 1.811941528544163 0.01363916573027167 0.0 -1.6006999999999998 -1.7271 -2.2029999999999994 -0.8079999999999998 1.5951 -0.030999999999999694 0.0 0.0 0.0 0.0 0.0 0.0 -1.8265934578025755e-17 2.141012561521421 1.4926747162211425 0.23313859823392621 0.0017549219604181278 0.0 -1.8265934578025755e-17 2.141012561521421 1.4926747162211425 0.23313859823392621 0.0017549219604181278 0.0 -0.14396865671352163 -0.43562006080319216 0.2020300254283846 -0.0012213596815925638 3.1162765284819756 0.038891915636886834 0.0 0.0 0.0 0.0 0.0 0.0 0.0 0.0 0.0 0.0 0.0 0.0 -0.14396865671352163 -0.43562006080319216 0.2020300254283846 -0.0012213596815925638 3.1162765284819756 0.038891915636886834 0.0 0.0 0.0 0.0 0.0 0.0 0 25.5 25.0 24.5 24.0 23.5 23.5 0.100578 7 253 253 253 253 253 253 1 -0.24626992031694836 0.24493893696896454 -9.813855309892418 0.0 1.0 0.0 48.0 48.0 0.0 0.0 0.0 0.0 0.0 0.0 0.0 0 1
3175.644 -1.6006999999999998 -1.7271 -2.2029999999999994 -0.8079999999999998 1.5951 -0.030999999999999694 0.0 0.0 0.0 0.0 0.0 0.0 0.0 0.0 0.0 0.0 0.0 0.0 -1.8265934578025755e-17 2.141012561521421 1.4926747162211425 0.23313859823392621 0.0017549219604181278 0.0 -1.8139026517764549e-16 21.261372344464824 14.823039108277811 1.811941528544163 0.01363916573027167 0.0 -1.6006999999999998 -1.7271 -2.2029999999999994 -0.8079999999999998 1.5951 -0.030999999999999694 0.0 0.0 0.0 0.0 0.0 0.0 -1.8265934578025755e-17 2.141012561521421 1.4926747162211425 0.23313859823392621 0.0017549219604181278 0.0 -1.8265934578025755e-17 2.141012561521421 1.4926747162211425 0.23313859823392621 0.0017549219604181278 0.0 -0.14396865671352163 -0.43562006080319216 0.2020300254283846 -0.0012213596815925638 3.1162765284819756 0.038891915636886834 0.0 0.0 0.0 0.0 0.0 0.0 0.0 0.0 0.0 0.0 0.0 0.0 -0.14396865671352163 -0.43562006080319216 0.2020300254283846 -0.0012213596815925638 3.1162765284819756 0.038891915636886834 0.0 0.0 0.0 0.0 0.0 0.0 0 25.5 25.0 24.5 24.0 23.5 23.5 0.14743199999999998 7 253 253 253 253 253 253 1 -0.24626992031694836 0.24493893696896454 -9.813855309892418 0.0 1.0 0.0 48.0 48.0 0.0 0.0 0.0 0.0 0.0 0.0 0.0 0 1
3175.652 -1.6006999999999998 -1.7271 -2.2029999999999994 -0.8079999999999998 1.5951 -0.030999999999999694 0.0 0.0 0.0 0.0 0.0 0.0 0.0 0.0 0.0 0.0 0.0 0.0 -1.8265934578025755e-17 2.141012561521421 1.4926747162211425 0.23313859823392621 0.0017549219604181278 0.0 -1.8139026517764549e-16 21.261372344464824 14.823039108277811 1.811941528544163 0.01363916573027167 0.0 -1.6006999999999998 -1.7271 -2.2029999999999994 -0.8079999999999998 1.5951 -0.030999999999999694 0.0 0.0 0.0 0.0 0.0 0.0 -1.8265934578025755e-17 2.141012561521421 1.4926747162211425 0.23313859823392621 0.0017549219604181278 0.0 -1.8265934578025755e-17 2.141012561521421 1.4926747162211425 0.23313859823392621 0.0017549219604181278 0.0 -0.14396865671352163 -0.43562006080319216 0.2020300254283846 -0.0012213596815925638 3.1162765284819756 0.038891915636886834 0.0 0.0 0.0 0.0 0.0 0.0 0.0 0.0 0.0 0.0 0.0 0.0 -0.14396865671352163 -0.43562006080319216 0.2020300254283846 -0.0012213596815925638 3.1162765284819756 0.038891915636886834 0.0 0.0 0.0 0.0 0.0 0.0 0 25.5 25.0 24.5 24.0 23.5 23.5 0.097777 7 253 253 253 253 253 253 1 -0.24626992031694836 0.24493893696896454 -9.813855309892418 0.0 1.0 0.0 48.0 48.0 0.0 0.0 0.0 0.0 0.0 0.0 0.0 0 1
3175.6839999999997 -1.6006999999999998 -1.7271 -2.2029999999999994 -0.8079999999999998 1.5951 -0.030999999999999694 0.0 0.0 0.0 0.0 0.0 0.0 0.0 0.0 0.0 0.0 0.0 0.0 -1.8265934578025755e-17 2.141012561521421 1.4926747162211425 0.23313859823392621 0.0017549219604181278 0.0 -1.8139026517764549e-16 21.261372344464824 14.823039108277811 1.811941528544163 0.01363916573027167 0.0 -1.6006999999999998 -1.7271 -2.2029999999999994 -0.8079999999999998 1.5951 -0.030999999999999694 0.0 0.0 0.0 0.0 0.0 0.0 -1.8265934578025755e-17 2.141012561521421 1.4926747162211425 0.23313859823392621 0.0017549219604181278 0.0 -1.8265934578025755e-17 2.141012561521421 1.4926747162211425 0.23313859823392621 0.0017549219604181278 0.0 -0.14396865671352163 -0.43562006080319216 0.2020300254283846 -0.0012213596815925638 3.1162765284819756 0.038891915636886834 0.0 0.0 0.0 0.0 0.0 0.0 0.0 0.0 0.0 0.0 0.0 0.0 -0.14396865671352163 -0.43562006080319216 0.2020300254283846 -0.0012213596815925638 3.1162765284819756 0.038891915636886834 0.0 0.0 0.0 0.0 0.0 0.0 0 25.5 25.0 24.5 24.0 23.5 23.5 0.104151 7 253 253 253 253 253 253 1 -0.24626992031694836 0.24493893696896454 -9.813855309892418 0.0 1.0 0.0 48.0 48.0 0.0 0.0 0.0 0.0 0.0 0.0 0.0 0 1
3175.7 -1.6006999999999998 -1.7271 -2.2029999999999994 -0.8079999999999998 1.5951 -0.030999999999999694 0.0 0.0 0.0 0.0 0.0 0.0 0.0 0.0 0.0 0.0 0.0 0.0 -1.8265934578025755e-17 2.141012561521421 1.4926747162211425 0.23313859823392621 0.0017549219604181278 0.0 -1.8139026517764549e-16 21.261372344464824 14.823039108277811 1.811941528544163 0.01363916573027167 0.0 -1.6006999999999998 -1.7271 -2.2029999999999994 -0.8079999999999998 1.5951 -0.030999999999999694 0.0 0.0 0.0 0.0 0.0 0.0 -1.8265934578025755e-17 2.141012561521421 1.4926747162211425 0.23313859823392621 0.0017549219604181278 0.0 -1.8265934578025755e-17 2.141012561521421 1.4926747162211425 0.23313859823392621 0.0017549219604181278 0.0 -0.14396865671352163 -0.43562006080319216 0.2020300254283846 -0.0012213596815925638 3.1162765284819756 0.038891915636886834 0.0 0.0 0.0 0.0 0.0 0.0 0.0 0.0 0.0 0.0 0.0 0.0 -0.14396865671352163 -0.43562006080319216 0.2020300254283846 -0.0012213596815925638 3.1162765284819756 0.038891915636886834 0.0 0.0 0.0 0.0 0.0 0.0 0 25.5 25.0 24.5 24.0 23.5 23.5 0.098963 7 253 253 253 253 253 253 1 -0.24626992031694836 0.24493893696896454 -9.813855309892418 0.0 1.0 0.0 48.0 48.0 0.0 0.0 0.0 0.0 0.0 0.0 0.0 0 1
3175.716 -1.6006999999999998 -1.7271 -2.2029999999999994 -0.8079999999999998 1.5951 -0.030999999999999694 0.0 0.0 0.0 0.0 0.0 0.0 0.0 0.0 0.0 0.0 0.0 0.0 -1.8265934578025755e-17 2.141012561521421 1.4926747162211425 0.23313859823392621 0.0017549219604181278 0.0 -1.8139026517764549e-16 21.261372344464824 14.823039108277811 1.811941528544163 0.01363916573027167 0.0 -1.6006999999999998 -1.7271 -2.2029999999999994 -0.8079999999999998 1.5951 -0.030999999999999694 0.0 0.0 0.0 0.0 0.0 0.0 -1.8265934578025755e-17 2.141012561521421 1.4926747162211425 0.23313859823392621 0.0017549219604181278 0.0 -1.8265934578025755e-17 2.141012561521421 1.4926747162211425 0.23313859823392621 0.0017549219604181278 0.0 -0.14396865671352163 -0.43562006080319216 0.2020300254283846 -0.0012213596815925638 3.1162765284819756 0.038891915636886834 0.0 0.0 0.0 0.0 0.0 0.0 0.0 0.0 0.0 0.0 0.0 0.0 -0.14396865671352163 -0.43562006080319216 0.2020300254283846 -0.0012213596815925638 3.1162765284819756 0.038891915636886834 0.0 0.0 0.0 0.0 0.0 0.0 0 25.5 25.0 24.5 24.0 23.5 23.5 0.109789 7 253 253 253 253 253 253 1 -0.24626992031694836 0.24493893696896454 -9.813855309892418 0.0 1.0 0.0 48.0 48.0 0.0 0.0 0.0 0.0 0.0 0.0 0.0 0 1
3175.7239999999997 -1.6006999999999998 -1.7271 -2.2029999999999994 -0.8079999999999998 1.5951 -0.030999999999999694 0.0 0.0 0.0 0.0 0.0 0.0 0.0 0.0 0.0 0.0 0.0 0.0 -1.8265934578025755e-17 2.141012561521421 1.4926747162211425 0.23313859823392621 0.0017549219604181278 0.0 -1.8139026517764549e-16 21.261372344464824 14.823039108277811 1.811941528544163 0.01363916573027167 0.0 -1.6006999999999998 -1.7271 -2.2029999999999994 -0.8079999999999998 1.5951 -0.030999999999999694 0.0 0.0 0.0 0.0 0.0 0.0 -1.8265934578025755e-17 2.141012561521421 1.4926747162211425 0.23313859823392621 0.0017549219604181278 0.0 -1.8265934578025755e-17 2.141012561521421 1.4926747162211425 0.23313859823392621 0.0017549219604181278 0.0 -0.14396865671352163 -0.43562006080319216 0.2020300254283846 -0.0012213596815925638 3.1162765284819756 0.038891915636886834 0.0 0.0 0.0 0.0 0.0 0.0 0.0 0.0 0.0 0.0 0.0 0.0 -0.14396865671352163 -0.43562006080319216 0.2020300254283846 -0.0012213596815925638 3.1162765284819756 0.038891915636886834 0.0 0.0 0.0 0.0 0.0 0.0 0 25.5 25.0 24.5 24.0 23.5 23.5 0.102537 7 253 253 253 253 253 253 1 -0.24626992031694836 0.24493893696896454 -9.813855309892418 0.0 1.0 0.0 48.0 48.0 0.0 0.0 0.0 0.0 0.0 0.0 0.0 0 1
3175.732 -1.6006999999999998 -1.7271 -2.2029999999999994 -0.8079999999999998 1.5951 -0.030999999999999694 0.0 0.0 0.0 0.0 0.0 0.0 0.0 0.0 0.0 0.0 0.0 0.0 -1.8265934578025755e-17 2.141012561521421 1.4926747162211425 0.23313859823392621 0.0017549219604181278 0.0 -1.8139026517764549e-16 21.261372344464824 14.823039108277811 1.811941528544163 0.01363916573027167 0.0 -1.6006999999999998 -1.7271 -2.2029999999999994 -0.8079999999999998 1.5951 -0.030999999999999694 0.0 0.0 0.0 0.0 0.0 0.0 -1.8265934578025755e-17 2.141012561521421 1.4926747162211425 0.23313859823392621 0.0017549219604181278 0.0 -1.8265934578025755e-17 2.141012561521421 1.4926747162211425 0.23313859823392621 0.0017549219604181278 0.0 -0.14396865671352163 -0.43562006080319216 0.2020300254283846 -0.0012213596815925638 3.1162765284819756 0.038891915636886834 0.0 0.0 0.0 0.0 0.0 0.0 0.0 0.0 0.0 0.0 0.0 0.0 -0.14396865671352163 -0.43562006080319216 0.2020300254283846 -0.0012213596815925638 3.1162765284819756 0.038891915636886834 0.0 0.0 0.0 0.0 0.0 0.0 0 25.5 25.0 24.5 24.0 23.5 23.5 0.13766499999999998 7 253 253 253 253 253 253 1 -0.24626992031694836 0.24493893696896454 -9.813855309892418 0.0 1.0 0.0 48.0 48.0 0.0 0.0 0.0 0.0 0.0 0.0 0.0 0 1
3175.7799999999997 -1.6006999999999998 -1.7271 -2.2029999999999994 -0.8079999999999998 1.5951 -0.030999999999999694 0.0 0.0 0.0 0.0 0.0 0.0 0.0 0.0 0.0 0.0 0.0 0.0 -1.8265934578025755e-17 2.141012561521421 1.4926747162211425 0.23313859823392621 0.0017549219604181278 0.0 -1.8139026517764549e-16 21.261372344464824 14.823039108277811 1.811941528544163 0.01363916573027167 0.0 -1.6006999999999998 -1.7271 -2.2029999999999994 -0.8079999999999998 1.5951 -0.030999999999999694 0.0 0.0 0.0 0.0 0.0 0.0 -1.8265934578025755e-17 2.141012561521421 1.4926747162211425 0.23313859823392621 0.0017549219604181278 0.0 -1.8265934578025755e-17 2.141012561521421 1.4926747162211425 0.23313859823392621 0.0017549219604181278 0.0 -0.14396865671352163 -0.43562006080319216 0.2020300254283846 -0.0012213596815925638 3.1162765284819756 0.038891915636886834 0.0 0.0 0.0 0.0 0.0 0.0 0.0 0.0 0.0 0.0 0.0 0.0 -0.14396865671352163 -0.43562006080319216 0.2020300254283846 -0.0012213596815925638 3.1162765284819756 0.038891915636886834 0.0 0.0 0.0 0.0 0.0 0.0 0 25.5 25.0 24.5 24.0 23.5 23.5 0.08351 7 253 253 253 253 253 253 1 -0.24626992031694836 0.24493893696896454 -9.813855309892418 0.0 1.0 0.0 48.0 48.0 0.0 0.0 0.0 0.0 0.0 0.0 0.0 0 1
3175.788 -1.6006999999999998 -1.7271 -2.2029999999999994 -0.8079999999999998 1.5951 -0.030999999999999694 0.0 0.0 0.0 0.0 0.0 0.0 0.0 0.0 0.0 0.0 0.0 0.0 -1.8265934578025755e-17 2.141012561521421 1.4926747162211425 0.23313859823392621 0.0017549219604181278 0.0 -1.8139026517764549e-16 21.261372344464824 14.823039108277811 1.811941528544163 0.01363916573027167 0.0 -1.6006999999999998 -1.7271 -2.2029999999999994 -0.8079999999999998 1.5951 -0.030999999999999694 0.0 0.0 0.0 0.0 0.0 0.0 -1.8265934578025755e-17 2.141012561521421 1.4926747162211425 0.23313859823392621 0.0017549219604181278 0.0 -1.8265934578025755e-17 2.141012561521421 1.4926747162211425 0.23313859823392621 0.0017549219604181278 0.0 -0.14396865671352163 -0.43562006080319216 0.2020300254283846 -0.0012213596815925638 3.1162765284819756 0.038891915636886834 0.0 0.0 0.0 0.0 0.0 0.0 0.0 0.0 0.0 0.0 0.0 0.0 -0.14396865671352163 -0.43562006080319216 0.2020300254283846 -0.0012213596815925638 3.1162765284819756 0.038891915636886834 0.0 0.0 0.0 0.0 0.0 0.0 0 25.5 25.0 24.5 24.0 23.5 23.5 0.065966 7 253 253 253 253 253 253 1 -0.24626992031694836 0.24493893696896454 -9.813855309892418 0.0 1.0 0.0 48.0 48.0 0.0 0.0 0.0 0.0 0.0 0.0 0.0 0 1
3175.796 -1.6006999999999998 -1.7271 -2.2029999999999994 -0.8079999999999998 1.5951 -0.030999999999999694 0.0 0.0 0.0 0.0 0.0 0.0 0.0 0.0 0.0 0.0 0.0 0.0 -1.8265934578025755e-17 2.141012561521421 1.4926747162211425 0.23313859823392621 0.0017549219604181278 0.0 -1.8139026517764549e-16 21.261372344464824 14.823039108277811 1.811941528544163 0.01363916573027167 0.0 -1.6006999999999998 -1.7271 -2.2029999999999994 -0.8079999999999998 1.5951 -0.030999999999999694 0.0 0.0 0.0 0.0 0.0 0.0 -1.8265934578025755e-17 2.141012561521421 1.4926747162211425 0.23313859823392621 0.0017549219604181278 0.0 -1.8265934578025755e-17 2.141012561521421 1.4926747162211425 0.23313859823392621 0.0017549219604181278 0.0 -0.14396865671352163 -0.43562006080319216 0.2020300254283846 -0.0012213596815925638 3.1162765284819756 0.038891915636886834 0.0 0.0 0.0 0.0 0.0 0.0 0.0 0.0 0.0 0.0 0.0 0.0 -0.14396865671352163 -0.43562006080319216 0.2020300254283846 -0.0012213596815925638 3.1162765284819756 0.038891915636886834 0.0 0.0 0.0 0.0 0.0 0.0 0 25.5 25.0 24.5 24.0 23.5 23.5 0.065262 7 253 253 253 253 253 253 1 -0.24626992031694836 0.24493893696896454 -9.813855309892418 0.0 1.0 0.0 48.0 48.0 0.0 0.0 0.0 0.0 0.0 0.0 0.0 0 1
3175.8039999999996 -1.6006999999999998 -1.7271 -2.2029999999999994 -0.8079999999999998 1.5951 -0.030999999999999694 0.0 0.0 0.0 0.0 0.0 0.0 0.0 0.0 0.0 0.0 0.0 0.0 -1.8265934578025755e-17 2.141012561521421 1.4926747162211425 0.23313859823392621 0.0017549219604181278 0.0 -1.8139026517764549e-16 21.261372344464824 14.823039108277811 1.811941528544163 0.01363916573027167 0.0 -1.6006999999999998 -1.7271 -2.2029999999999994 -0.8079999999999998 1.5951 -0.030999999999999694 0.0 0.0 0.0 0.0 0.0 0.0 -1.8265934578025755e-17 2.141012561521421 1.4926747162211425 0.23313859823392621 0.0017549219604181278 0.0 -1.8265934578025755e-17 2.141012561521421 1.4926747162211425 0.23313859823392621 0.0017549219604181278 0.0 -0.14396865671352163 -0.43562006080319216 0.2020300254283846 -0.0012213596815925638 3.1162765284819756 0.038891915636886834 0.0 0.0 0.0 0.0 0.0 0.0 0.0 0.0 0.0 0.0 0.0 0.0 -0.14396865671352163 -0.43562006080319216 0.2020300254283846 -0.0012213596815925638 3.1162765284819756 0.038891915636886834 0.0 0.0 0.0 0.0 0.0 0.0 0 25.5 25.0 24.5 24.0 23.5 23.5 0.191643 7 253 253 253 253 253 253 1 -0.24626992031694836 0.24493893696896454 -9.813855309892418 0.0 1.0 0.0 48.0 48.0 0.0 0.0 0.0 0.0 0.0 0.0 0.0 0 1
3175.812 -1.6006999999999998 -1.7271 -2.2029999999999994 -0.8079999999999998 1.5951 -0.030999999999999694 0.0 0.0 0.0 0.0 0.0 0.0 0.0 0.0 0.0 0.0 0.0 0.0 -1.8265934578025755e-17 2.141012561521421 1.4926747162211425 0.23313859823392621 0.0017549219604181278 0.0 -1.8139026517764549e-16 21.261372344464824 14.823039108277811 1.811941528544163 0.01363916573027167 0.0 -1.6006999999999998 -1.7271 -2.2029999999999994 -0.8079999999999998 1.5951 -0.030999999999999694 0.0 0.0 0.0 0.0 0.0 0.0 -1.8265934578025755e-17 2.141012561521421 1.4926747162211425 0.23313859823392621 0.0017549219604181278 0.0 -1.8265934578025755e-17 2.141012561521421 1.4926747162211425 0.23313859823392621 0.0017549219604181278 0.0 -0.14396865671352163 -0.43562006080319216 0.2020300254283846 -0.0012213596815925638 3.1162765284819756 0.038891915636886834 0.0 0.0 0.0 0.0 0.0 0.0 0.0 0.0 0.0 0.0 0.0 0.0 -0.14396865671352163 -0.43562006080319216 0.2020300254283846 -0.0012213596815925638 3.1162765284819756 0.038891915636886834 0.0 0.0 0.0 0.0 0.0 0.0 0 25.5 25.0 24.5 24.0 23.5 23.5 0.057604999999999996 7 253 253 253 253 253 253 1 -0.24626992031694836 0.24493893696896454 -9.813855309892418 0.0 1.0 0.0 48.0 48.0 0.0 0.0 0.0 0.0 0.0 0.0 0.0 0 1
3175.8199999999997 -1.6006999999999998 -1.7271 -2.2029999999999994 -0.8079999999999998 1.5951 -0.030999999999999694 0.0 0.0 0.0 0.0 0.0 0.0 0.0 0.0 0.0 0.0 0.0 0.0 -1.8265934578025755e-17 2.141012561521421 1.4926747162211425 0.23313859823392621 0.0017549219604181278 0.0 -1.8139026517764549e-16 21.261372344464824 14.823039108277811 1.811941528544163 0.01363916573027167 0.0 -1.6006999999999998 -1.7271 -2.2029999999999994 -0.8079999999999998 1.5951 -0.030999999999999694 0.0 0.0 0.0 0.0 0.0 0.0 -1.8265934578025755e-17 2.141012561521421 1.4926747162211425 0.23313859823392621 0.0017549219604181278 0.0 -1.8265934578025755e-17 2.141012561521421 1.4926747162211425 0.23313859823392621 0.0017549219604181278 0.0 -0.14396865671352163 -0.43562006080319216 0.2020300254283846 -0.0012213596815925638 3.1162765284819756 0.038891915636886834 0.0 0.0 0.0 0.0 0.0 0.0 0.0 0.0 0.0 0.0 0.0 0.0 -0.14396865671352163 -0.43562006080319216 0.2020300254283846 -0.0012213596815925638 3.1162765284819756 0.038891915636886834 0.0 0.0 0.0 0.0 0.0 0.0 0 25.5 25.0 24.5 24.0 23.5 23.5 0.06661 7 253 253 253 253 253 253 1 -0.24626992031694836 0.24493893696896454 -9.813855309892418 0.0 1.0 0.0 48.0 48.0 0.0 0.0 0.0 0.0 0.0 0.0 0.0 0 1
3175.828 -1.6006999999999998 -1.7271 -2.2029999999999994 -0.8079999999999998 1.5951 -0.030999999999999694 0.0 0.0 0.0 0.0 0.0 0.0 0.0 0.0 0.0 0.0 0.0 0.0 -1.8265934578025755e-17 2.141012561521421 1.4926747162211425 0.23313859823392621 0.0017549219604181278 0.0 -1.8139026517764549e-16 21.261372344464824 14.823039108277811 1.811941528544163 0.01363916573027167 0.0 -1.6006999999999998 -1.7271 -2.2029999999999994 -0.8079999999999998 1.5951 -0.030999999999999694 0.0 0.0 0.0 0.0 0.0 0.0 -1.8265934578025755e-17 2.141012561521421 1.4926747162211425 0.23313859823392621 0.0017549219604181278 0.0 -1.8265934578025755e-17 2.141012561521421 1.4926747162211425 0.23313859823392621 0.0017549219604181278 0.0 -0.14396865671352163 -0.43562006080319216 0.2020300254283846 -0.0012213596815925638 3.1162765284819756 0.038891915636886834 0.0 0.0 0.0 0.0 0.0 0.0 0.0 0.0 0.0 0.0 0.0 0.0 -0.14396865671352163 -0.43562006080319216 0.2020300254283846 -0.0012213596815925638 3.1162765284819756 0.038891915636886834 0.0 0.0 0.0 0.0 0.0 0.0 0 25.5 25.0 24.5 24.0 23.5 23.5 0.09530200000000001 7 253 253 253 253 253 253 1 -0.24626992031694836 0.24493893696896454 -9.813855309892418 0.0 1.0 0.0 48.0 48.0 0.0 0.0 0.0 0.0 0.0 0.0 0.0 0 1
3175.836 -1.6006999999999998 -1.7271 -2.2029999999999994 -0.8079999999999998 1.5951 -0.030999999999999694 0.0 0.0 0.0 0.0 0.0 0.0 0.0 0.0 0.0 0.0 0.0 0.0 -1.8265934578025755e-17 2.141012561521421 1.4926747162211425 0.23313859823392621 0.0017549219604181278 0.0 -1.8139026517764549e-16 21.261372344464824 14.823039108277811 1.811941528544163 0.01363916573027167 0.0 -1.6006999999999998 -1.7271 -2.2029999999999994 -0.8079999999999998 1.5951 -0.030999999999999694 0.0 0.0 0.0 0.0 0.0 0.0 -1.8265934578025755e-17 2.141012561521421 1.4926747162211425 0.23313859823392621 0.0017549219604181278 0.0 -1.8265934578025755e-17 2.141012561521421 1.4926747162211425 0.23313859823392621 0.0017549219604181278 0.0 -0.14396865671352163 -0.43562006080319216 0.2020300254283846 -0.0012213596815925638 3.1162765284819756 0.038891915636886834 0.0 0.0 0.0 0.0 0.0 0.0 0.0 0.0 0.0 0.0 0.0 0.0 -0.14396865671352163 -0.43562006080319216 0.2020300254283846 -0.0012213596815925638 3.1162765284819756 0.038891915636886834 0.0 0.0 0.0 0.0 0.0 0.0 0 25.5 25.0 24.5 24.0 23.5 23.5 0.062874 7 253 253 253 253 253 253 1 -0.24626992031694836 0.24493893696896454 -9.813855309892418 0.0 1.0 0.0 48.0 48.0 0.0 0.0 0.0 0.0 0.0 0.0 0.0 0 1
3175.844 -1.6006999999999998 -1.7271 -2.2029999999999994 -0.8079999999999998 1.5951 -0.030999999999999694 0.0 0.0 0.0 0.0 0.0 0.0 0.0 0.0 0.0 0.0 0.0 0.0 -1.8265934578025755e-17 2.141012561521421 1.4926747162211425 0.23313859823392621 0.0017549219604181278 0.0 -1.8139026517764549e-16 21.261372344464824 14.823039108277811 1.811941528544163 0.01363916573027167 0.0 -1.6006999999999998 -1.7271 -2.2029999999999994 -0.8079999999999998 1.5951 -0.030999999999999694 0.0 0.0 0.0 0.0 0.0 0.0 -1.8265934578025755e-17 2.141012561521421 1.4926747162211425 0.23313859823392621 0.0017549219604181278 0.0 -1.8265934578025755e-17 2.141012561521421 1.4926747162211425 0.23313859823392621 0.0017549219604181278 0.0 -0.14396865671352163 -0.43562006080319216 0.2020300254283846 -0.0012213596815925638 3.1162765284819756 0.038891915636886834 0.0 0.0 0.0 0.0 0.0 0.0 0.0 0.0 0.0 0.0 0.0 0.0 -0.14396865671352163 -0.43562006080319216 0.2020300254283846 -0.0012213596815925638 3.1162765284819756 0.038891915636886834 0.0 0.0 0.0 0.0 0.0 0.0 0 25.5 25.0 24.5 24.0 23.5 23.5 0.073061 7 253 253 253 253 253 253 1 -0.24626992031694836 0.24493893696896454 -9.813855309892418 0.0 1.0 0.0 48.0 48.0 0.0 0.0 0.0 0.0 0.0 0.0 0.0 0 1
3175.8599999999997 -1.6006999999999998 -1.7271 -2.2029999999999994 -0.8079999999999998 1.5951 -0.030999999999999694 0.0 0.0 0.0 0.0 0.0 0.0 0.0 0.0 0.0 0.0 0.0 0.0 -1.8265934578025755e-17 2.141012561521421 1.4926747162211425 0.23313859823392621 0.0017549219604181278 0.0 -1.8139026517764549e-16 21.261372344464824 14.823039108277811 1.811941528544163 0.01363916573027167 0.0 -1.6006999999999998 -1.7271 -2.2029999999999994 -0.8079999999999998 1.5951 -0.030999999999999694 0.0 0.0 0.0 0.0 0.0 0.0 -1.8265934578025755e-17 2.141012561521421 1.4926747162211425 0.23313859823392621 0.0017549219604181278 0.0 -1.8265934578025755e-17 2.141012561521421 1.4926747162211425 0.23313859823392621 0.0017549219604181278 0.0 -0.14396865671352163 -0.43562006080319216 0.2020300254283846 -0.0012213596815925638 3.1162765284819756 0.038891915636886834 0.0 0.0 0.0 0.0 0.0 0.0 0.0 0.0 0.0 0.0 0.0 0.0 -0.14396865671352163 -0.43562006080319216 0.2020300254283846 -0.0012213596815925638 3.1162765284819756 0.038891915636886834 0.0 0.0 0.0 0.0 0.0 0.0 0 25.5 25.0 24.5 24.0 23.5 23.5 0.12073300000000001 7 253 253 253 253 253 253 1 -0.24626992031694836 0.24493893696896454 -9.813855309892418 0.0 1.0 0.0 48.0 48.0 0.0 0.0 0.0 0.0 0.0 0.0 0.0 0 1
3175.868 -1.6006999999999998 -1.7271 -2.2029999999999994 -0.8079999999999998 1.5951 -0.030999999999999694 0.0 0.0 0.0 0.0 0.0 0.0 0.0 0.0 0.0 0.0 0.0 0.0 -1.8265934578025755e-17 2.141012561521421 1.4926747162211425 0.23313859823392621 0.0017549219604181278 0.0 -1.8139026517764549e-16 21.261372344464824 14.823039108277811 1.811941528544163 0.01363916573027167 0.0 -1.6006999999999998 -1.7271 -2.2029999999999994 -0.8079999999999998 1.5951 -0.030999999999999694 0.0 0.0 0.0 0.0 0.0 0.0 -1.8265934578025755e-17 2.141012561521421 1.4926747162211425 0.23313859823392621 0.0017549219604181278 0.0 -1.8265934578025755e-17 2.141012561521421 1.4926747162211425 0.23313859823392621 0.0017549219604181278 0.0 -0.14396865671352163 -0.43562006080319216 0.2020300254283846 -0.0012213596815925638 3.1162765284819756 0.038891915636886834 0.0 0.0 0.0 0.0 0.0 0.0 0.0 0.0 0.0 0.0 0.0 0.0 -0.14396865671352163 -0.43562006080319216 0.2020300254283846 -0.0012213596815925638 3.1162765284819756 0.038891915636886834 0.0 0.0 0.0 0.0 0.0 0.0 0 25.5 25.0 24.5 24.0 23.5 23.5 0.08763 7 253 253 253 253 253 253 1 -0.24626992031694836 0.24493893696896454 -9.813855309892418 0.0 1.0 0.0 48.0 48.0 0.0 0.0 0.0 0.0 0.0 0.0 0.0 0 1
