UthiraS/rtde-2.8/rtde/examples/Validation/robot_data_shy2.csv
timestamp target_q_0 target_q_1 target_q_2 target_q_3 target_q_4 target_q_5 target_qd_0 target_qd_1 target_qd_2 target_qd_3 target_qd_4 target_qd_5 target_qdd_0 target_qdd_1 target_qdd_2 target_qdd_3 target_qdd_4 target_qdd_5 target_current_0 target_current_1 target_current_2 target_current_3 target_current_4 target_current_5 target_moment_0 target_moment_1 target_moment_2 target_moment_3 target_moment_4 target_moment_5 actual_q_0 actual_q_1 actual_q_2 actual_q_3 actual_q_4 actual_q_5 actual_qd_0 actual_qd_1 actual_qd_2 actual_qd_3 actual_qd_4 actual_qd_5 actual_current_0 actual_current_1 actual_current_2 actual_current_3 actual_current_4 actual_current_5 joint_control_output_0 joint_control_output_1 joint_control_output_2 joint_control_output_3 joint_control_output_4 joint_control_output_5 actual_TCP_pose_0 actual_TCP_pose_1 actual_TCP_pose_2 actual_TCP_pose_3 actual_TCP_pose_4 actual_TCP_pose_5 actual_TCP_speed_0 actual_TCP_speed_1 actual_TCP_speed_2 actual_TCP_speed_3 actual_TCP_speed_4 actual_TCP_speed_5 actual_TCP_force_0 actual_TCP_force_1 actual_TCP_force_2 actual_TCP_force_3 actual_TCP_force_4 actual_TCP_force_5 target_TCP_pose_0 target_TCP_pose_1 target_TCP_pose_2 target_TCP_pose_3 target_TCP_pose_4 target_TCP_pose_5 target_TCP_speed_0 target_TCP_speed_1 target_TCP_speed_2 target_TCP_speed_3 target_TCP_speed_4 target_TCP_speed_5 actual_digital_input_bits joint_temperatures_0 joint_temperatures_1 joint_temperatures_2 joint_temperatures_3 joint_temperatures_4 joint_temperatures_5 actual_execution_time robot_mode joint_mode_0 joint_mode_1 joint_mode_2 joint_mode_3 joint_mode_4 joint_mode_5 safety_mode actual_tool_accelerometer_0 actual_tool_accelerometer_1 actual_tool_accelerometer_2 speed_scaling target_speed_fraction actual_momentum actual_main_voltage actual_robot_voltage actual_robot_current actual_joint_voltage_0 actual_joint_voltage_1 actual_joint_voltage_2 actual_joint_voltage_3 actual_joint_voltage_4 actual_joint_voltage_5 actual_digital_output_bits runtime_state
7805.419 3.6716461181640625e-05 -1.5696970981410523 1.5700824896441858 0.000350638026855421 1.5700044631958008 3.139801025390625 0.0 0.0 -0.0 -0.0 0.0 -0.0 0.0 0.0 0.0 0.0 0.0 0.0 -3.7500897179291224e-19 -2.710198272318793 -2.7181215328416957 -0.2945296251897431 -7.698014494531197e-06 0.010216715026315982 -3.7374526432401826e-18 -27.282473918046442 -27.22939504053219 -2.3781173220703278 -6.150623048378038e-05 0.08168102422443589 1.2755393981933594e-05 -1.5696970981410523 1.5700824896441858 0.00036255895581049913 1.5699806213378906 3.139801025390625 0.0 0.0 -0.0 -0.0 0.0 -0.0 -0.0013580643571913242 -2.6855926513671875 -2.714895725250244 -0.28635817766189575 0.009336535818874836 0.017659001052379608 -3.7500897179291224e-19 -2.710198272318793 -2.7181215328416957 -0.2945296251897431 -7.698014494531197e-06 0.010216715026315982 -0.6053401508436967 -0.13308491509193052 0.4526578182892072 -1.2103402882779037 -1.2099032679382595 1.2081979118784272 0.0 0.0 0.0 0.0 0.0 0.0 -0.8880218176974689 1.1134333742276141 0.10511064360776677 -0.08122081621396633 -0.005086060483530991 0.026927164316135364 -0.6053385723613129 -0.1330943475299016 0.45266034172284686 -1.2103314709038102 -1.2098946113456066 1.2082035877705903 0.0 0.0 0.0 0.0 0.0 0.0 0 30.75 31.9375 30.9375 34.3125 35.6875 35.9375 0.760272 7 253 253 253 253 253 253 1 -0.2298433631658554 -9.442731857299805 0.09576806426048279 1.0 1.0 0.11022203001184255 47.70658874511719 47.77823257446289 0.6814691424369812 47.64226531982422 47.6279296875 47.65659713745117 47.599266052246094 47.5275993347168 47.599266052246094 0 2
7805.427 4.875659942626953e-05 -1.5696851772120972 1.5700939337359827 0.000350638026855421 1.570028305053711 3.139777183532715 0.0 0.0 -0.0 -0.0 0.0 -0.0 0.0 0.0 0.0 0.0 0.0 0.0 1.4216152993942297e-19 -2.710247838977591 -2.7181138801391236 -0.29452015907933576 -7.937216121761011e-06 0.010217006080412063 1.4168247316828777e-18 -27.282972885627398 -27.229318377859478 -2.3780408899588963 -6.341742335396063e-05 0.08168335115599965 2.467632293701172e-05 -1.569661096935608 1.5700576941119593 0.0003864008137206554 1.570028305053711 3.139801025390625 0.0 0.0 -0.0 -0.0 0.0 -0.0 0.02484254352748394 -2.679309844970703 -2.697824001312256 -0.2937987148761749 -0.012870035134255886 0.01375496108084917 1.4216152993942297e-19 -2.710247838977591 -2.7181138801391236 -0.29452015907933576 -7.937216121761011e-06 0.010217006080412063 -0.6053491462110412 -0.13308199743539553 0.4526459353582978 -1.2103830271611817 -1.2099028156161127 1.2081549451566338 0.0 0.0 0.0 0.0 0.0 0.0 -0.9351651841334082 1.0755021512529002 -0.3105419482286248 -0.07951743267715389 0.002899759027369634 0.021678350275398838 -0.6053388891565171 -0.13309574284544654 0.4526461880121964 -1.2103367138040448 -1.2099144407356777 1.2081662752349813 0.0 0.0 0.0 0.0 0.0 0.0 0 30.75 31.9375 30.9375 34.3125 35.6875 35.9375 0.761161 7 253 253 253 253 253 253 1 -0.28730419278144836 -9.481039047241211 0.15322890877723694 1.0 1.0 0.08140213164098672 47.704795837402344 47.76569747924805 0.6747510433197021 47.6279296875 47.64226531982422 47.670928955078125 47.599266052246094 47.51326370239258 47.61359786987305 0 2
7805.4349999999995 3.6716461181640625e-05 -1.5696851772120972 1.5701053778277796 0.000350638026855421 1.570028305053711 3.139777183532715 0.0 0.0 -0.0 -0.0 0.0 -0.0 0.0 0.0 0.0 0.0 0.0 0.0 5.992543610938035e-19 -2.7102440116231574 -2.718110034112865 -0.29451540193516546 -8.056831953445582e-06 0.010217005883587572 5.9723499017512666e-18 -27.28293435719257 -27.22927984942465 -2.3780024794019017 -6.437313978166116e-05 0.08168334958241891 2.467632293701172e-05 -1.5696851772120972 1.5700700918780726 0.00036255895581049913 1.570028305053711 3.139801025390625 0.0 0.0 -0.0 -0.0 0.0 -0.0 -0.006107301451265812 -2.716224193572998 -2.733384370803833 -0.29960542917251587 0.013026249594986439 0.021208930760622025 5.992543610938035e-19 -2.7102440116231574 -2.718110034112865 -0.29451540193516546 -8.056831953445582e-06 0.010217005883587572 -0.6053437017933059 -0.13308199232020781 0.4526580814182399 -1.2103568817931296 -1.209876643067606 1.208171734831719 0.0 0.0 0.0 0.0 0.0 0.0 -0.9125411322180687 1.1594103657575079 0.58314667262667 -0.07743988722218512 -0.01692406188900609 0.0260268211146278 -0.6053389486801577 -0.13308845940021533 0.45263926636256996 -1.2103508434768704 -1.2099139910720464 1.2081520110532862 0.0 0.0 0.0 0.0 0.0 0.0 0 30.75 31.9375 30.9375 34.3125 35.6875 35.9375 0.765924 7 253 253 253 253 253 253 1 -0.26815059781074524 -9.346963882446289 0.1149216815829277 1.0 1.0 0.06507040038651295 47.71196365356445 47.78718948364258 0.7441308498382568 47.64226531982422 47.64226531982422 47.670928955078125 47.584930419921875 47.5275993347168 47.61359786987305 0 2
7805.442999999999 1.2755393981933594e-05 -1.5696970981410523 1.5700700918780726 0.0003864008137206554 1.570028305053711 3.1397652626037598 0.0 0.0 -0.0 -0.0 0.0 -0.0 0.0 0.0 0.0 0.0 0.0 0.0 4.5002034409156305e-19 -2.710190691115801 -2.718113914653653 -0.2945201588770175 -7.937326770743889e-06 0.010217151696948779 4.485038628530908e-18 -27.282397601130807 -27.229318723616554 -2.3780408883253203 -6.341830742632091e-05 0.08168451533722937 2.467632293701172e-05 -1.5696731370738526 1.5700824896441858 0.00037447988476557725 1.5700163841247559 3.139801025390625 0.0 0.0 -0.0 -0.0 0.0 -0.0 -0.004311054013669491 -2.689580202102661 -2.737435817718506 -0.3050788938999176 -0.003927979618310928 0.0067755249328911304 4.5002034409156305e-19 -2.710190691115801 -2.718113914653653 -0.2945201588770175 -7.937326770743889e-06 0.010217151696948779 -0.605343915059501 -0.13308453627626274 0.4526407651088387 -1.2103780099284638 -1.2099121824791619 1.2081633504600353 0.0 0.0 0.0 0.0 0.0 0.0 -0.7550701208392577 0.8911663229648451 0.1253957207201797 -0.08097366633640672 -0.005295552272219735 0.018254476693502723 -0.6053386152686316 -0.13307354045946507 0.4526602268706951 -1.2103449545212532 -1.2098935767748416 1.2081310427315524 0.0 0.0 0.0 0.0 0.0 0.0 0 30.75 31.9375 30.9375 34.3125 35.6875 35.9375 0.773053 7 253 253 253 253 253 253 1 -0.2298433631658554 -9.346963882446289 0.038307227194309235 1.0 1.0 0.13875101700904147 47.703006744384766 47.780921936035156 0.6344689130783081 47.64226531982422 47.64226531982422 47.670928955078125 47.599266052246094 47.51326370239258 47.584930419921875 0 2
7805.451 3.6716461181640625e-05 -1.5696851772120972 1.5700824896441858 0.0003983217426757335 1.570052146911621 3.139801025390625 0.0 0.0 -0.0 -0.0 0.0 -0.0 0.0 0.0 0.0 0.0 0.0 0.0 -5.661234862183578e-19 -2.7102359654324606 -2.7181019486686657 -0.29450534157441577 -8.31011578087022e-06 0.01021671444683697 -5.642157599193574e-18 -27.282853359433084 -27.229198851665164 -2.377921249141449 -6.639684777525629e-05 0.08168101959159264 3.6716461181640625e-05 -1.5696851772120972 1.5701053778277796 0.000350638026855421 1.5700044631958008 3.1397652626037598 0.0 0.0 -0.0 -0.0 0.0 -0.0 -0.05954704433679581 -2.749549150466919 -2.7540502548217773 -0.2955935597419739 -0.004420957528054714 0.00950908474624157 -5.661234862183578e-19 -2.7102359654324606 -2.7181019486686657 -0.29450534157441577 -8.31011578087022e-06 0.01021671444683697 -0.6053389448259126 -0.13309311055616121 0.4526392723978247 -1.2103307629380629 -1.2099371655456848 1.2081608175576146 0.0 0.0 0.0 0.0 0.0 0.0 -0.837720155947235 0.9965290055378082 0.2898315810801086 -0.08424790636300539 -0.009191262511823848 0.02119548091320602 -0.6053356111608812 -0.13308423555214366 0.45264297787211377 -1.21039795192658 -1.2099034589449036 1.2081403000704833 0.0 0.0 0.0 0.0 0.0 0.0 0 30.75 31.9375 30.9375 34.3125 35.6875 35.9375 0.763704 7 253 253 253 253 253 253 1 -0.24899697303771973 -9.327810287475586 0.038307227194309235 1.0 1.0 0.04720065263906605 47.71733474731445 47.77375411987305 0.6590895652770996 47.65659713745117 47.65659713745117 47.68526077270508 47.61359786987305 47.54193115234375 47.599266052246094 0 2
7805.459 2.467632293701172e-05 -1.5696970981410523 1.5700576941119593 0.000350638026855421 1.5700044631958008 3.139777183532715 0.0 0.0 -0.0 -0.0 0.0 -0.0 0.0 0.0 0.0 0.0 0.0 0.0 2.1446700967212762e-20 -2.7102065618121274 -2.7181298627754886 -0.2945399316266044 -7.438885203793961e-06 0.010217006686914925 2.137442974643149e-19 -27.28255736503554 -27.229478487521288 -2.378200539220429 -5.9435817925775235e-05 0.08168335600489432 7.152557373046875e-07 -1.569709138279297 1.5700824896441858 0.00037447988476557725 1.5700044631958008 3.139801025390625 0.0 0.0 -0.0 -0.0 0.0 -0.0 -0.023054245859384537 -2.7233946323394775 -2.6794323921203613 -0.30270281434059143 -0.003707029391080141 0.01156366802752018 2.1446700967212762e-20 -2.7102065618121274 -2.7181298627754886 -0.2945399316266044 -7.438885203793961e-06 0.010217006686914925 -0.6053366566324027 -0.1330725657076334 0.4526625673919944 -1.210357197536988 -1.2098767809564968 1.2081715503707786 0.0 0.0 0.0 0.0 0.0 0.0 -0.8431435310988762 1.1762763095524984 0.22395437106854427 -0.07779634669625203 -0.008189713223646217 0.024699686625744652 -0.6053435167960974 -0.13308621731480244 0.45267533335224563 -1.210301329654725 -1.2098787749601214 1.2081888842874169 0.0 0.0 0.0 0.0 0.0 0.0 0 30.75 31.9375 30.9375 34.3125 35.6875 35.9375 0.770328 7 253 253 253 253 253 253 1 -0.13407529890537262 -9.366117477416992 0.05746084079146385 1.0 1.0 0.05670526848958277 47.71733474731445 47.80241775512695 0.6837049722671509 47.65659713745117 47.64226531982422 47.68526077270508 47.61359786987305 47.54193115234375 47.599266052246094 0 2
7805.467 3.6716461181640625e-05 -1.569721059208252 1.5700824896441858 0.0003983217426757335 1.5700044631958008 3.1398253440856934 0.0 0.0 -0.0 -0.0 0.0 -0.0 0.0 0.0 0.0 0.0 0.0 0.0 -3.7954305574435925e-19 -2.7100754490895915 -2.7181136073775276 -0.2945197645722147 -7.945903915773113e-06 0.01021641754741686 -3.782640692923342e-18 -27.28123750609037 -27.22931564540872 -2.3780377045943757 -6.348683780638645e-05 0.0816786459275858 3.6716461181640625e-05 -1.5696970981410523 1.5700824896441858 0.0003387170979003429 1.570028305053711 3.13978910446167 0.0 0.0 -0.0 -0.0 0.0 -0.0 0.00024620501790195704 -2.7168514728546143 -2.7031853199005127 -0.2827162444591522 -0.0029597333632409573 0.0027824987191706896 -3.7954305574435925e-19 -2.7100754490895915 -2.7181136073775276 -0.2945197645722147 -7.945903915773113e-06 0.01021641754741686 -0.6053401825662547 -0.13308885984619406 0.4526628624652322 -1.210325207603798 -1.2098739400793026 1.2081828550143878 0.0 0.0 0.0 0.0 0.0 0.0 -0.7233412807732909 1.549422704132559 0.28291136835255365 -0.08153797804234676 -0.005929475978732363 0.037922515221968316 -0.6053251934473735 -0.1330952171601408 0.45266472638652866 -1.2103668631726812 -1.2099005874860536 1.2082103475651986 0.0 0.0 0.0 0.0 0.0 0.0 0 30.75 31.9375 30.9375 34.3125 35.6875 35.9375 0.76914 7 253 253 253 253 253 253 1 -0.19153612852096558 -9.461885452270508 0.13407529890537262 1.0 1.0 0.12894209494126255 47.694053649902344 47.76838302612305 0.6904177665710449 47.64226531982422 47.599266052246094 47.65659713745117 47.599266052246094 47.498931884765625 47.584930419921875 0 2
7805.474999999999 1.2755393981933594e-05 -1.569661096935608 1.5700824896441858 0.000350638026855421 1.5700044631958008 3.13978910446167 0.0 0.0 -0.0 -0.0 0.0 -1.424594273657931e-07 0.0 0.0 0.0 0.0 0.0 0.0 -8.527506465672129e-18 -2.710358923288081 -2.7181094348088966 -0.29451465992600206 -8.074663710490368e-06 0.010216802748656708 -1.7209773885574009e-18 -27.284091126619067 -27.22927384576208 -2.3779964882054525 -6.451561342335801e-05 0.08168218342746 3.6716461181640625e-05 -1.569709138279297 1.5700939337359827 0.00041024267163081163 1.570028305053711 3.13978910446167 0.0 0.0 -0.0 -0.0 0.0 -9.301582615250936e-09 -0.008009144105017185 -2.712010383605957 -2.67368745803833 -0.3060964047908783 0.006790975108742714 0.01151764765381813 -1.7267963572168463e-19 -2.710358923288081 -2.7181094348088966 -0.29451465992600206 -8.074663710492703e-06 0.010216860020175541 -0.6053255057579786 -0.13308889731636145 0.4526480379378765 -1.210377445798715 -1.2099261964445522 1.2081494279253107 1.5000365617599907e-13 3.242533068212495e-10 -2.1132029686850952e-12 9.301572687429972e-09 -4.218832180486275e-12 1.2918600938611603e-11 -0.7621474524278312 0.977407005004603 0.06829374743283406 -0.07671060552300857 -0.002822057348868152 0.020372145310698284 -0.605352206328812 -0.13307942669963446 0.4526385408555853 -1.2103605250396428 -1.2099091061222331 1.2081601344208612 2.2976778297030237e-12 4.9661377358169e-09 -3.2364692518905765e-11 1.4245927982421637e-07 -6.464344257277548e-11 1.9457281573460352e-10 0 30.75 31.9375 30.9375 34.3125 35.6875 35.9375 0.76368 7 253 253 253 253 253 253 1 -0.19153612852096558 -9.346963882446289 0.019153613597154617 1.0 1.0 0.07922776036880601 47.712860107421875 47.76569747924805 0.6859408020973206 47.65659713745117 47.64226531982422 47.6995964050293 47.61359786987305 47.5275993347168 47.599266052246094 0 2
7805.482999999999 3.6716461181640625e-05 -1.569661096935608 1.5700824896441858 0.0003983217426757335 1.5700044631958008 3.139777183532715 0.0 0.0 -0.0 -0.0 0.0 -2.5891296485253124e-12 0.0 0.0 0.0 0.0 0.0 0.0 3.036681748800958e-19 -2.710343024256089 -2.7180934582131586 -0.2944948378527713 -8.573514218637903e-06 0.010217004788152273 3.026448720539615e-18 -27.283931077470605 -27.229113796613618 -2.3778364390569875 -6.850137031596026e-05 0.0816833408329083 1.2755393981933594e-05 -1.5696851772120972 1.5700462500201624 0.00036255895581049913 1.570028305053711 3.13978910446167 0.0 0.0 -0.0 -0.0 0.0 -1.6905167586969694e-13 0.0010611843317747116 -2.683073043823242 -2.7120814323425293 -0.2916065454483032 0.0019404074409976602 0.005882328376173973 3.036681748800958e-19 -2.710343024256089 -2.7180934582131586 -0.2944948378527713 -8.573514218637903e-06 0.01021700478919316 -0.6053485018952299 -0.13307435014402064 0.45267249890591627 -1.2103361698759167 -1.2098559535066609 1.208165442958058 2.8652078241728127e-18 5.893143845623964e-15 -3.840588680314183e-17 1.6905150987825333e-13 -8.074027113434282e-17 2.2271785848560843e-16 -0.9635237096351604 1.1843675195448575 -0.1025819987352675 -0.07296615013355985 -0.0022898254181495884 0.023726561078919614 -0.6053425897609762 -0.13309353758342024 0.4526284098173808 -1.210375516821085 -1.2099675402289933 1.2081465126109654 3.9617191639450544e-17 9.025710562418487e-14 -5.871397066265079e-16 2.5891268229443815e-12 -1.1126566012949075e-15 3.6597237636240084e-15 0 30.75 31.9375 30.9375 34.3125 35.6875 35.9375 0.764629 7 253 253 253 253 253 253 1 -0.3064578175544739 -9.500192642211914 0.019153613597154617 1.0 1.0 0.1564709926114644 47.69584274291992 47.76838302612305 0.6546126008033752 47.64226531982422 47.61359786987305 47.670928955078125 47.599266052246094 47.51326370239258 47.584930419921875 0 2
7805.491 1.2755393981933594e-05 -1.5696851772120972 1.5700824896441858 0.00037447988476557725 1.5700163841247559 3.13978910446167 0.0 0.0 -0.0 -0.0 0.0 -4.7056151069826656e-17 0.0 0.0 0.0 0.0 0.0 0.0 -1.8322449954916356e-19 -2.710243618000527 -2.718109638569939 -0.29451488239203794 -8.069428769538044e-06 0.010216860136749379 -1.826070685382263e-18 -27.28293039475216 -27.22927588698424 -2.3779982844605256 -6.447378686078724e-05 0.08168218435944942 1.2755393981933594e-05 -1.569661096935608 1.5700824896441858 0.0003983217426757335 1.5700163841247559 3.139777183532715 0.0 0.0 -0.0 -0.0 0.0 -3.072430036430213e-18 -0.01131887175142765 -2.711522340774536 -2.688749313354492 -0.29259607195854187 -0.004160241689532995 0.012309292331337929 -1.8322449954916356e-19 -2.710243618000527 -2.718109638569939 -0.29451488239203794 -8.069428769538044e-06 0.010216860136749375 -0.6053457804406985 -0.13307649953083883 0.45262840544916305 -1.2103925026550169 -1.2099411162526412 1.2081200877903469 5.08554943313308e-23 1.071049639983827e-19 -6.96737210207717e-22 3.072426633967736e-18 -1.4305956387518979e-21 4.3429299283564535e-21 -0.8450451323392973 1.007036667068226 0.4444082509094955 -0.0780614383684067 -0.010608208320395487 0.023834074975743847 -0.6053420080918851 -0.13307690466534214 0.45264805247116446 -1.2103660044564573 -1.209900175204558 1.208151503839366 7.78449987961779e-22 1.6403781098780162e-18 -1.0690501750757843e-20 4.70561020918246e-17 -2.1911932638553485e-20 6.4259608905225e-20 0 30.75 31.9375 30.9375 34.3125 35.6875 35.9375 0.77004 7 253 253 253 253 253 253 1 -0.2106897532939911 -9.461885452270508 0.019153613597154617 1.0 1.0 0.05969316235857981 47.6895751953125 47.762115478515625 0.7217512726783752 47.65659713745117 47.64226531982422 47.68526077270508 47.61359786987305 47.54193115234375 47.599266052246094 0 2
7805.499 2.467632293701172e-05 -1.569661096935608 1.5700700918780726 0.000350638026855421 1.570028305053711 3.139777183532715 0.0 0.0 -0.0 -0.0 0.0 -8.552221564876104e-22 0.0 0.0 0.0 0.0 0.0 0.0 2.2976133660597137e-19 -2.710363267304023 -2.718113800017207 -0.2945200599725589 -7.939708118265164e-06 0.0102170060763252 2.2898708548407457e-18 -27.28413485607711 -27.229317575220122 -2.3780400897421354 -6.343733411295674e-05 0.08168335112332582 2.467632293701172e-05 -1.569661096935608 1.5700700918780726 0.0003864008137206554 1.5700163841247559 3.13978910446167 0.0 0.0 -0.0 -0.0 0.0 -5.583989151841658e-23 0.020783258602023125 -2.7061455249786377 -2.717912435531616 -0.2968367338180542 -0.0015014507807791233 0.0026141891721636057 2.2976133660597137e-19 -2.710363267304023 -2.718113800017207 -0.2945200599725589 -7.939708118265164e-06 0.0102170060763252 -0.6053474727114202 -0.13308412059051875 0.4526384386021178 -1.2103777315564814 -1.2099263498617712 1.2081491086403666 9.008339501579108e-28 1.9465794404359547e-24 -1.2686018402562923e-26 5.58398318887662e-23 -2.533589295082531e-26 7.757264589410705e-26 -0.8327216765309536 0.9929642002421616 0.200770944830662 -0.0806355519666813 -0.0028981424371053678 0.02393552097622726 -0.6053522947848768 -0.13308115540824753 0.45264602786642827 -1.2103482631877136 -1.2098968784192057 1.2081484072919153 1.414624518800571e-26 2.981305912358034e-23 -1.9393765482632856e-25 8.55221280435182e-22 -3.982713094437278e-25 1.1575051145466504e-24 0 30.75 31.9375 30.9375 34.3125 35.6875 35.9375 0.789313 7 253 253 253 253 253 253 1 -0.28730422258377075 -9.385271072387695 0.05746084079146385 1.0 1.0 0.062120810459373066 47.70658874511719 47.780025482177734 0.6389458775520325 47.65659713745117 47.64226531982422 47.64226531982422 47.61359786987305 47.51326370239258 47.61359786987305 0 2
7805.507 4.875659942626953e-05 -1.5696490567973633 1.5700576941119593 0.0003864008137206554 1.5699806213378906 3.1397652626037598 0.0 0.0 -0.0 -0.0 0.0 -1.5543239186592564e-26 0.0 0.0 0.0 0.0 0.0 0.0 3.321250316017085e-19 -2.710408820919871 -2.718101540084592 -0.29450484869254656 -8.321180838274963e-06 0.010217150616435227 3.310058346901384e-18 -27.284593425971767 -27.229194758582125 -2.3779172694707786 -6.648525628261046e-05 0.08168450669869404 7.152557373046875e-07 -1.5696851772120972 1.5701053778277796 0.00037447988476557725 1.5699925422668457 3.13978910446167 0.0 0.0 -0.0 -0.0 0.0 -1.0148624286260375e-27 0.026415418833494186 -2.744175434112549 -2.7139949798583984 -0.285016804933548 0.01188215147703886 0.0026620517019182444 3.321250316017085e-19 -2.710408820919871 -2.718101540084592 -0.29450484869254656 -8.321180838274963e-06 0.010217150616435227 -0.6053405208690692 -0.13307469294195834 0.4526342179643259 -1.2103772706417206 -1.209925679396005 1.2081494173878653 1.637628548019982e-32 3.5378119189053043e-29 -2.3056400126904873e-31 1.0148613458973869e-27 -4.605891179478249e-31 1.4090769136043756e-30 -0.7650111681303811 0.7323598195384075 0.3415169288398815 -0.07802174320255074 -0.010085024119790384 0.015420515263241253 -0.6053494264488847 -0.1331054610212737 0.45263865453508634 -1.2103315519186797 -1.2099814200406886 1.208175807077117 2.1830886528941363e-31 5.418376449189779e-28 -3.518287584061103e-30 1.5543222991679267e-26 -6.122271580447552e-30 2.1586114760428676e-29 0 30.75 31.9375 30.9375 34.3125 35.6875 35.9375 0.767004 7 253 253 253 253 253 253 1 -0.2298433631658554 -9.385271072387695 0.07661445438861847 1.0 1.0 0.08500471667093415 47.69136428833008 47.76301193237305 0.6590895652770996 47.65659713745117 47.64226531982422 47.65659713745117 47.599266052246094 47.51326370239258 47.599266052246094 0 2
7805.514999999999 2.467632293701172e-05 -1.569721059208252 1.5701177755938929 0.0003983217426757335 1.5700163841247559 3.139801025390625 0.0 0.0 -0.0 -0.0 0.0 -2.8249066464949724e-31 0.0 0.0 0.0 0.0 0.0 0.0 -1.735814062489224e-19 -2.7100637496748052 -2.7181018508869124 -0.29450521952880615 -8.312361757791176e-06 0.010216714109778112 -1.7299647059127895e-18 -27.28111973279606 -27.229197872114412 -2.377920263709922 -6.641479286671586e-05 0.08168101689686026 2.467632293701172e-05 -1.5696490567973633 1.5700939337359827 0.00036255895581049913 1.5700163841247559 3.13978910446167 0.0 0.0 -0.0 -0.0 0.0 -1.8444620145299095e-32 -0.006050302181392908 -2.733351707458496 -2.6770739555358887 -0.29823049902915955 -0.006253065075725317 -0.00248390669003129 -1.735814062489224e-19 -2.7100637496748052 -2.7181018508869124 -0.29450521952880615 -8.312361757791176e-06 0.010216714109778112 -0.6053509648049197 -0.13308411987485166 0.4526217926060777 -1.210386607166258 -1.2099351974370687 1.208143393746431 2.9762206827058043e-37 6.429797297975558e-34 -4.190350072850841e-36 1.8444600138836648e-32 -8.369189482719906e-36 2.5845298754938166e-35 -0.8959342367434117 0.9540878312161079 0.08810412034824947 -0.07597438468727453 -0.004559507175187449 0.023299720899836684 -0.6053220403878063 -0.13308456309512767 0.45264337477865063 -1.2103862933646867 -1.2099204323965151 1.208158139350026 4.5570310908163224e-36 9.847627957763275e-33 -6.429600260409973e-35 2.824903631318868e-31 -1.2816201463745835e-34 3.923343312060212e-34 0 30.75 31.9375 30.9375 34.3125 35.6875 35.9375 0.78246 7 253 253 253 253 253 253 1 -0.24899697303771973 -9.519346237182617 0.1149216815829277 1.0 1.0 0.09206112649740225 47.705692291259766 47.786293029785156 0.6590895652770996 47.64226531982422 47.64226531982422 47.670928955078125 47.6279296875 47.5275993347168 47.599266052246094 0 2
7805.522999999999 3.6716461181640625e-05 -1.569661096935608 1.5700700918780726 0.00037447988476557725 1.570028305053711 3.139801025390625 0.0 0.0 -0.0 -0.0 0.0 -5.1341283432781416e-36 0.0 0.0 0.0 0.0 0.0 0.0 -2.885625018264555e-19 -2.7103553183373257 -2.718105812271316 -0.2945101496207795 -8.188679447669251e-06 0.010216714427277817 -2.8759010218743515e-18 -27.284054837032443 -27.229237556175455 -2.377960070697466 -6.54265857545404e-05 0.08168101943522031 2.467632293701172e-05 -1.5696851772120972 1.5700700918780726 0.0003983217426757335 1.5700044631958008 3.13978910446167 0.0 0.0 -0.0 -0.0 0.0 -3.352218920689954e-37 0.01734868995845318 -2.6960203647613525 -2.7058022022247314 -0.28683578968048096 -0.010216385126113892 0.01666075550019741 -2.885625018264555e-19 -2.7103553183373257 -2.718105812271316 -0.2945101496207795 -8.188679447669251e-06 0.010216714427277817 -0.6053388775921767 -0.13308665973488454 0.4526504910469422 -1.2103631358326277 -1.2099261671537709 1.208163679028469 5.267515719663172e-42 1.1685840154678513e-38 -7.615793496370157e-41 3.3522154153521118e-37 -1.4809630450969194e-40 4.616064973971117e-40 -0.7806813028764479 0.8181061780523295 0.0968590174895109 -0.07910019793457834 -0.003796389390186944 0.017729814062344557 -0.6053474791897453 -0.1330892858518022 0.4526409690383403 -1.2103776884661204 -1.209912030604245 1.2081635741580676 8.279664821523544e-41 1.7897577575193778e-37 -1.1685301926204707e-39 5.134122945458864e-36 -2.3289477828828465e-39 7.071221038100191e-39 0 30.75 31.9375 30.9375 34.3125 35.6875 35.9375 0.76614 7 253 253 253 253 253 253 1 -0.26815059781074524 -9.442731857299805 0.019153613597154617 1.0 1.0 0.0638714990959271 47.712860107421875 47.77375411987305 0.7329410910606384 47.65659713745117 47.64226531982422 47.68526077270508 47.64226531982422 47.5275993347168 47.599266052246094 0 2
7805.531 2.467632293701172e-05 -1.5696970981410523 1.5700700918780726 0.00036255895581049913 1.570040225982666 3.13981294631958 0.0 0.0 -0.0 -0.0 0.0 -9.330966214246092e-41 0.0 0.0 0.0 0.0 0.0 0.0 -3.064033656509306e-19 -2.71019873979252 -2.718122002596002 -0.29453019354198284 -7.685082367199487e-06 0.010216569734954998 -3.0537084576263e-18 -27.282478623916077 -27.229399746401825 -2.378121911110583 -6.140290430728709e-05 0.08167986264293484 1.2755393981933594e-05 -1.5696851772120972 1.5700824896441858 0.0003864008137206554 1.5700163841247559 3.139777183532715 0.0 0.0 -0.0 -0.0 0.0 -6.092845722884305e-42 0.027475208044052124 -2.7303991317749023 -2.7155864238739014 -0.29581189155578613 0.0019079555058851838 0.005112403072416782 -3.064033656509306e-19 -2.71019873979252 -2.718122002596002 -0.29453019354198284 -7.685082367199487e-06 0.010216569734954998 -0.6053404010690138 -0.13307649454029383 0.45264551765309213 -1.2103659995115283 -1.2099146018152926 1.208137109566326 1.0080354194075624e-46 2.1239670687910956e-43 -1.3816796282934541e-45 6.092839281623478e-42 -2.8370654583486684e-45 8.39298725422591e-45 -0.673652234107187 1.4150285354852623 0.11549989583834752 -0.07933289833180145 -0.005816305569319033 0.03343779884814703 -0.6053402449272617 -0.13307987470466853 0.45266529765784314 -1.2103625382572258 -1.209853455841902 1.2081773627113788 1.5818011046017602e-45 3.2527756537950096e-42 -2.127610267339835e-44 9.330956904774885e-41 -4.456439382297772e-44 1.2404546907119982e-43 0 30.75 31.9375 30.9375 34.3125 35.6875 35.9375 0.767436 7 253 253 253 253 253 253 1 -0.2298433631658554 -9.423578262329102 0.05746084079146385 1.0 1.0 0.15868482458000235 47.72897720336914 47.80241775512695 0.6971306204795837 47.64226531982422 47.670928955078125 47.6995964050293 47.599266052246094 47.54193115234375 47.6279296875 0 2
7805.539 3.6716461181640625e-05 -1.5696851772120972 1.5700700918780726 0.00036255895581049913 1.5700163841247559 3.1397414207458496 0.0 0.0 -0.0 -0.0 0.0 -1.401298464324817e-45 0.0 0.0 0.0 0.0 0.0 0.0 1.6256038434369265e-19 -2.710251737532009 -2.718117797712717 -0.29452499047079167 -7.815597939280794e-06 0.01021744302042782 1.6201258739137106e-18 -27.283012130803783 -27.229357623035863 -2.378079900009935 -6.244570837889e-05 0.08168684442246736 7.152557373046875e-07 -1.569661096935608 1.5700700918780726 0.0003983217426757335 1.570040225982666 3.139777183532715 0.0 0.0 -0.0 -0.0 0.0 -0.0 -0.005456030368804932 -2.7277605533599854 -2.7567291259765625 -0.29501277208328247 0.006838994100689888 0.01453747320920229 1.6256038434369265e-19 -2.710251737532009 -2.718117797712717 -0.29452499047079167 -7.815597939280794e-06 0.01021744302042782 -0.6053490577166416 -0.1330641389552033 0.4526358950857468 -1.2104003601917228 -1.2099055870221886 1.2080994991452079 0.0 0.0 0.0 0.0 0.0 0.0 -0.802726154106267 1.0628523329665889 0.33320688705297774 -0.07290042615883759 -0.008478335275651125 0.02314954870369443 -0.6053420966570355 -0.13308973627328413 0.45265807228200977 -1.2103016218142886 -1.2099224980739651 1.2081455177237796 2.200138095100334e-50 4.884930050013561e-47 -3.1602517163039916e-49 1.4012970671366532e-45 -6.1897493543486356e-49 1.879527423157937e-48 0 30.75 31.9375 30.9375 34.3125 35.6875 35.9375 0.758953 7 253 253 253 253 253 253 1 -0.2298433631658554 -9.481039047241211 0.038307227194309235 1.0 1.0 0.09836158822149907 47.72629165649414 47.796146392822266 0.6881819367408752 47.65659713745117 47.64226531982422 47.68526077270508 47.6279296875 47.5275993347168 47.61359786987305 0 2
7805.547 2.467632293701172e-05 -1.569661096935608 1.5700824896441858 0.00041024267163081163 1.5700163841247559 3.1398253440856934 0.0 0.0 -0.0 -0.0 0.0 -0.0 0.0 0.0 0.0 0.0 0.0 0.0 2.550700057648915e-19 -2.7103391490907174 -2.718089564142715 -0.29449000650128987 -8.694755321993666e-06 0.01021641638883225 2.5421046933877655e-18 -27.28389206774233 -27.22907478688534 -2.377797429328714 -6.947007247317301e-05 0.08167863666488469 3.6716461181640625e-05 -1.5696851772120972 1.5701053778277796 0.00037447988476557725 1.570028305053711 3.139777183532715 0.0 0.0 -0.0 -0.0 0.0 -0.0 -0.01726241037249565 -2.712958812713623 -2.6999154090881348 -0.29660511016845703 0.0021774203050881624 0.010188227519392967 2.550700057648915e-19 -2.7103391490907174 -2.718089564142715 -0.29449000650128987 -8.694755321993666e-06 0.01021641638883225 -0.6053357350031869 -0.13308847020076303 0.4526342021539825 -1.2103683992014476 -1.209931557469444 1.2081407693648822 0.0 0.0 0.0 0.0 0.0 0.0 -0.7943545304795258 1.3268114188873703 0.36258812464447104 -0.08129130382622955 -0.007864583118678834 0.027454728120207796 -0.6053425878324259 -0.13308540010243258 0.45262588437573525 -1.210431124645819 -1.209935883753314 1.20815868457851 0.0 0.0 0.0 0.0 0.0 0.0 0 30.75 31.9375 30.9375 34.3125 35.6875 35.9375 0.76272 7 253 253 253 253 253 253 1 -0.24899697303771973 -9.404424667358398 0.07661445438861847 1.0 1.0 0.08662350288536758 47.70927429199219 47.775550842285156 0.7060845494270325 47.65659713745117 47.65659713745117 47.65659713745117 47.64226531982422 47.51326370239258 47.61359786987305 0 2
7805.554999999999 4.875659942626953e-05 -1.5696851772120972 1.5700824896441858 0.00036255895581049913 1.5700044631958008 3.139777183532715 0.0 0.0 -0.0 -0.0 0.0 -0.0 0.0 0.0 0.0 0.0 0.0 0.0 -6.08702990671512e-20 -2.7102474935219196 -2.71811353299814 -0.2945197141873897 -7.947598004489892e-06 0.010217005850937107 -6.066517797045528e-19 -27.28296940806436 -27.22931490029644 -2.378037297772736 -6.350037337599966e-05 0.08168334932138359 3.6716461181640625e-05 -1.5696970981410523 1.5700700918780726 0.0003983217426757335 1.570028305053711 3.139801025390625 0.0 0.0 -0.0 -0.0 0.0 -0.0 0.03746124729514122 -2.7019739151000977 -2.691596508026123 -0.289972186088562 -0.011667248792946339 0.009253958240151405 -6.08702990671512e-20 -2.7102474935219196 -2.71811353299814 -0.2945197141873897 -7.947598004489892e-06 0.010217005850937107 -0.6053338202929387 -0.1330892970720284 0.45265770285581225 -1.2103687445146334 -1.2099030873786065 1.2081693778505551 0.0 0.0 0.0 0.0 0.0 0.0 -0.6766496914681153 0.9968788474387164 0.49817040569207854 -0.07627107842403012 -0.011670426851858741 0.021174898586290205 -0.6053388215024031 -0.13310081003630214 0.4526505862648059 -1.2103257610657192 -1.209932331928866 1.2081836372284942 0.0 0.0 0.0 0.0 0.0 0.0 0 30.75 31.9375 30.9375 34.3125 35.6875 35.9375 0.760801 7 253 253 253 253 253 253 1 -0.2298433631658554 -9.461885452270508 0.019153613597154617 1.0 1.0 0.08110565380310092 47.71375274658203 47.790771484375 0.6568484306335449 47.65659713745117 47.599266052246094 47.670928955078125 47.599266052246094 47.51326370239258 47.6279296875 0 2
7805.562999999999 -2.3190175191700746e-05 -1.5696970981410523 1.5700824896441858 0.000350638026855421 1.570028305053711 3.139777183532715 0.0 0.0 -0.0 -0.0 0.0 -0.0 0.0 0.0 0.0 0.0 0.0 0.0 -1.8257794709567233e-19 -2.7101984698508264 -2.7181217313373924 -0.29452987146224757 -7.693000462194337e-06 0.010217006478107242 -1.819626948410475e-18 -27.282475906521825 -27.229397029007572 -2.3781193105457095 -6.146616895508579e-05 0.08168335433550983 3.6716461181640625e-05 -1.5696731370738526 1.5700824896441858 0.000350638026855421 1.570028305053711 3.13978910446167 0.0 0.0 -0.0 -0.0 0.0 -0.0 -0.005300597287714481 -2.694326639175415 -2.735461711883545 -0.285111665725708 0.003185848006978631 0.014132851734757423 -1.8257794709567233e-19 -2.7101984698508264 -2.7181217313373924 -0.29452987146224757 -7.693000462194337e-06 0.010217006478107242 -0.6053455279199352 -0.13308886496695554 0.45264582227347844 -1.2103516228603273 -1.2099003671209172 1.2081658897902228 0.0 0.0 0.0 0.0 0.0 0.0 -0.7149143337420194 1.012226674848276 0.06467867664721495 -0.07592131371861942 -0.004166091260324168 0.025687597419532516 -0.6053465474642319 -0.13305218564588223 0.45266032757049723 -1.210353545691549 -1.2098442194780223 1.2081243695167045 0.0 0.0 0.0 0.0 0.0 0.0 0 30.75 31.9375 30.9375 34.3125 35.6875 35.9375 0.770856 7 253 253 253 253 253 253 1 -0.363918662071228 -9.404424667358398 0.07661445438861847 1.0 1.0 0.14458506437985771 47.699424743652344 47.77375411987305 0.6725152134895325 47.64226531982422 47.64226531982422 47.65659713745117 47.584930419921875 47.498931884765625 47.599266052246094 0 2
7805.571 4.875659942626953e-05 -1.5696970981410523 1.5700824896441858 0.00036255895581049913 1.5700044631958008 3.139801025390625 0.0 0.0 -0.0 -0.0 0.0 -0.0 0.0 0.0 0.0 0.0 0.0 0.0 -8.2460494840120185e-19 -2.710194297756401 -2.7181175388893215 -0.2945246699153066 -7.822695529951078e-06 0.010216714820635693 -8.218261897299107e-18 -27.28243390772841 -27.22935503021416 -2.378077311752298 -6.250241729363109e-05 0.08168102258005444 1.2755393981933594e-05 -1.5696731370738526 1.5700824896441858 0.0003387170979003429 1.570040225982666 3.139777183532715 0.0 0.0 -0.0 -0.0 0.0 -0.0 0.041226454079151154 -2.7280426025390625 -2.725435972213745 -0.30172157287597656 -0.0028271805495023727 -0.0006381786661222577 -8.2460494840120185e-19 -2.710194297756401 -2.7181175388893215 -0.2945246699153066 -7.822695529951078e-06 0.010216714820635693 -0.6053503249908736 -0.13307140584147506 0.4526483473503001 -1.2103510473297767 -1.2098708039225272 1.208136311774297 0.0 0.0 0.0 0.0 0.0 0.0 -0.6273908027679066 1.5092814240832424 0.3546614121305025 -0.07080091340798302 -0.008805962542859891 0.03468544637575692 -0.6053353631078496 -0.1331016412612239 0.4526578095531701 -1.2103345524371427 -1.2099122673523413 1.2082068284911534 0.0 0.0 0.0 0.0 0.0 0.0 0 30.75 31.9375 30.9375 34.3125 35.6875 35.9375 0.7638 7 253 253 253 253 253 253 1 -0.28730422258377075 -9.423578262329102 0.038307227194309235 1.0 1.0 0.07573383295560843 47.74061965942383 47.81495666503906 0.6613254547119141 47.64226531982422 47.6279296875 47.68526077270508 47.599266052246094 47.5275993347168 47.599266052246094 0 2
7805.579 1.2755393981933594e-05 -1.569661096935608 1.5700700918780726 0.000350638026855421 1.570028305053711 3.13978910446167 0.0 0.0 -0.0 -0.0 0.0 -0.0 0.0 0.0 0.0 0.0 0.0 0.0 -8.47332304613263e-20 -2.710363267466323 -2.7181138001802987 -0.2945200601749056 -7.939597433439364e-06 0.010216860458336563 -8.444769591615115e-19 -27.284134857710917 -27.22931757685393 -2.378040091375941 -6.343644975421573e-05 0.08168218693048823 2.467632293701172e-05 -1.569721059208252 1.5700939337359827 0.00036255895581049913 1.570028305053711 3.139801025390625 0.0 0.0 -0.0 -0.0 0.0 -0.0 -0.009637514129281044 -2.679123878479004 -2.71370792388916 -0.29968103766441345 0.003923372831195593 0.006811656057834625 -8.47332304613263e-20 -2.710363267466323 -2.7181138001802987 -0.2945200601749056 -7.939597433439364e-06 0.010216860458336563 -0.6053300767170228 -0.13308200316989055 0.4526653869107048 -1.2103480385386953 -1.2098677695246427 1.2081774675952923 0.0 0.0 0.0 0.0 0.0 0.0 -0.7160624569619076 1.385292802052865 0.23649333031299388 -0.07596801997617364 -0.004032040986443608 0.03212705785270019 -0.6053538813950043 -0.1330743546008835 0.4526460305721993 -1.2103626861964436 -1.2098824498575813 1.208148407291915 0.0 0.0 0.0 0.0 0.0 0.0 0 30.75 31.9375 30.9375 34.3125 35.6875 35.9375 0.762493 7 253 253 253 253 253 253 1 -0.28730422258377075 -9.423578262329102 0.09576806426048279 1.0 1.0 0.0612627226724048 47.711063385009766 47.78361129760742 0.6971306204795837 47.65659713745117 47.64226531982422 47.68526077270508 47.64226531982422 47.54193115234375 47.61359786987305 0 2
7805.5869999999995 1.2755393981933594e-05 -1.5696851772120972 1.5700700918780726 0.00037447988476557725 1.570040225982666 3.139777183532715 0.0 0.0 -0.0 -0.0 0.0 -0.0 0.0 0.0 0.0 0.0 0.0 0.0 -2.9536350325700473e-19 -2.710247961212954 -2.718114002970814 -0.29452028235567557 -7.934518868859056e-06 0.010217006190992951 -2.9436818556281717e-18 -27.282974116121544 -27.229319608353624 -2.378041885327695 -6.339587262048531e-05 0.0816833520400764 2.467632293701172e-05 -1.5696851772120972 1.5700939337359827 0.00037447988476557725 1.5699925422668457 3.13978910446167 0.0 0.0 -0.0 -0.0 0.0 -0.0 0.04511236399412155 -2.673262357711792 -2.7034785747528076 -0.2971392273902893 -0.0026330221444368362 0.010296210646629333 -2.9536350325700473e-19 -2.710247961212954 -2.718114002970814 -0.29452028235567557 -7.934518868859056e-06 0.010217006190992951 -0.6053388750650156 -0.13308919256161716 0.45264113957698904 -1.2103575002552327 -1.2099349146531588 1.2081724548238708 0.0 0.0 0.0 0.0 0.0 0.0 -0.8646686280612557 1.6591918240912271 0.04085508791582758 -0.07704216421019917 -0.001210775096329675 0.03845116703016428 -0.6053436827730289 -0.1330714170027402 0.4526555394823659 -1.2103593827907735 -1.209879162507324 1.2081310030808186 0.0 0.0 0.0 0.0 0.0 0.0 0 30.75 31.9375 30.9375 34.3125 35.6875 35.9375 0.767292 7 253 253 253 253 253 253 1 -0.2106897532939911 -9.346963882446289 0.0 1.0 1.0 0.029947189812515252 47.7164421081543 47.785400390625 0.6948947906494141 47.65659713745117 47.64226531982422 47.68526077270508 47.61359786987305 47.5562629699707 47.61359786987305 0 2
7805.594999999999 3.6716461181640625e-05 -1.5696851772120972 1.5700576941119593 0.00037447988476557725 1.5700163841247559 3.139801025390625 0.0 0.0 -0.0 -0.0 0.0 -0.0 0.0 0.0 0.0 0.0 0.0 0.0 1.6028558207857226e-19 -2.710251908918661 -2.7181179699354825 -0.2945251896955026 -7.810067831427615e-06 0.010216714945921279 1.5974545076848573e-18 -27.28301385608415 -27.22935934831623 -2.378081508607833 -6.240152346751325e-05 0.08168102358169294 2.467632293701172e-05 -1.5696970981410523 1.5700939337359827 0.0003864008137206554 1.570028305053711 3.13981294631958 0.0 0.0 -0.0 -0.0 0.0 -0.0 -0.016434766352176666 -2.7178611755371094 -2.739718198776245 -0.30093148350715637 0.007357092574238777 0.019662020727992058 1.6028558207857226e-19 -2.710251908918661 -2.7181179699354825 -0.2945251896955026 -7.810067831427615e-06 0.010216714945921279 -0.6053338154753624 -0.13308242920966978 0.45264581762030087 -1.2103920151121903 -1.2098973355987854 1.2081636549036645 0.0 0.0 0.0 0.0 0.0 0.0 -0.6099567502204666 1.130867897622 -0.03486714525072265 -0.07859164494852271 0.0018906209241900725 0.02623262004085402 -0.6053421621238975 -0.1330918141537068 0.4526630521084302 -1.2103451787774542 -1.2098939398055588 1.2081896184268264 0.0 0.0 0.0 0.0 0.0 0.0 0 30.75 31.9375 30.9375 34.3125 35.6875 35.9375 0.760009 7 253 253 253 253 253 253 1 -0.2106897532939911 -9.385271072387695 0.07661445438861847 1.0 1.0 0.09622507739698355 47.71196365356445 47.780025482177734 0.6971306204795837 47.64226531982422 47.64226531982422 47.68526077270508 47.599266052246094 47.498931884765625 47.599266052246094 0 2
7805.603 7.152557373046875e-07 -1.569709138279297 1.5701053778277796 0.00036255895581049913 1.5700163841247559 3.139777183532715 0.0 0.0 -0.0 -0.0 0.0 -0.0 0.0 0.0 0.0 0.0 0.0 0.0 -4.159302642475682e-19 -2.7101330149932767 -2.718113992942814 -0.294520283527966 -7.93368126520835e-06 0.010217005980132582 -4.14528659963394e-18 -27.281816998846267 -27.229319507895873 -2.3780418947931063 -6.338918026582283e-05 0.08168335035428102 7.152557373046875e-07 -1.569661096935608 1.5700824896441858 0.000434561366699171 1.5700163841247559 3.13981294631958 0.0 0.0 -0.0 -0.0 0.0 -0.0 -0.012193230912089348 -2.731452465057373 -2.7257862091064453 -0.2858513295650482 0.014153722673654556 0.00753887789323926 -4.159302642475682e-19 -2.7101330149932767 -2.718113992942814 -0.294520283527966 -7.93368126520835e-06 0.010217005980132582 -0.6053424980511977 -0.13307047435815725 0.4526207162536093 -1.210451234531255 -1.2099420114024853 1.2081204590136894 0.0 0.0 0.0 0.0 0.0 0.0 -0.7905071266470767 0.9194267019543324 0.4108670841961431 -0.08025547185375914 -0.012614926434307693 0.0201603191001491 -0.6053351792389305 -0.1330692057299002 0.4526512464234105 -1.210353368887797 -1.2098873652514426 1.208140028420993 0.0 0.0 0.0 0.0 0.0 0.0 0 30.75 31.9375 30.9375 34.3125 35.6875 35.9375 0.784224 7 253 253 253 253 253 253 1 -0.2298433631658554 -9.346963882446289 0.038307227194309235 1.0 1.0 0.08937757017512502 47.71733474731445 47.78718948364258 0.7329410910606384 47.670928955078125 47.65659713745117 47.68526077270508 47.65659713745117 47.54193115234375 47.61359786987305 0 2
7805.611 1.2755393981933594e-05 -1.5696851772120972 1.5700824896441858 0.00036255895581049913 1.570052146911621 3.139777183532715 0.0 0.0 -0.0 -0.0 0.0 -0.0 0.0 0.0 0.0 0.0 0.0 0.0 -2.652080976315796e-19 -2.710247889102649 -2.7181139305087183 -0.2945202073765464 -7.936802220532882e-06 0.010217006293538411 -2.6431439780305053e-18 -27.282973390216167 -27.229318882448247 -2.3780412799245343 -6.341411633182487e-05 0.08168335285991117 -1.0792409078419496e-05 -1.5696970981410523 1.5700939337359827 0.0003864008137206554 1.570028305053711 3.1397533416748047 0.0 0.0 -0.0 -0.0 0.0 -0.0 -0.034472037106752396 -2.7175095081329346 -2.730496406555176 -0.29611077904701233 0.01153515838086605 0.008843351155519485 -2.652080976315796e-19 -2.710247889102649 -2.7181139305087183 -0.2945202073765464 -7.936802220532882e-06 0.010217006293538411 -0.6053385342997835 -0.1330588808842582 0.45264580409130767 -1.210364881854252 -1.2098994151066604 1.2080936827584097 0.0 0.0 0.0 0.0 0.0 0.0 -0.7263298291291638 1.2129525497968232 0.400589684332538 -0.07786276336481386 -0.011186351768901055 0.027705852535370768 -0.6053436198802787 -0.13306888358298932 0.452650568792949 -1.210365389219773 -1.2098707387706076 1.2081219807825532 0.0 0.0 0.0 0.0 0.0 0.0 0 30.75 31.9375 30.9375 34.3125 35.6875 35.9375 0.770773 7 253 253 253 253 253 253 1 -0.26815059781074524 -9.423578262329102 -0.07661445438861847 1.0 1.0 0.06279996681953692 47.731666564941406 47.78718948364258 0.6076123714447021 47.65659713745117 47.64226531982422 47.65659713745117 47.599266052246094 47.54193115234375 47.61359786987305 0 2
7805.619 3.6716461181640625e-05 -1.5696490567973633 1.5700824896441858 0.0003864008137206554 1.5700163841247559 3.13981294631958 0.0 0.0 -0.0 -0.0 0.0 -0.0 0.0 0.0 0.0 0.0 0.0 0.0 -1.0667302104679214e-19 -2.7104008252867144 -2.7180935054445796 -0.2944949122913744 -8.571490769536082e-06 0.010216568048102184 -1.063135536645004e-18 -27.284512937154666 -27.229114269765024 -2.377837040095784 -6.84852031956051e-05 0.08167984915681281 2.467632293701172e-05 -1.569721059208252 1.5700939337359827 0.0003864008137206554 1.570028305053711 3.139777183532715 0.0 0.0 -0.0 -0.0 0.0 -0.0 -0.012173633091151714 -2.6969685554504395 -2.726914405822754 -0.29265934228897095 -0.0008172704838216305 0.010072600096464157 -1.0667302104679214e-19 -2.7104008252867144 -2.7180935054445796 -0.2944949122913744 -8.571490769536082e-06 0.010216568048102184 -0.6053268628252558 -0.1330811828815769 0.45266031717179367 -1.2103480288486297 -1.2098966226902317 1.2081486788020654 0.0 0.0 0.0 0.0 0.0 0.0 -1.0132369147162952 0.6651773147078491 0.4520785331651221 -0.07914788615382244 -0.009839559488152592 0.012181986033293277 -0.6053476921036636 -0.1330922453741037 0.45262365549798633 -1.2104075997798893 -1.2099419263572235 1.2081639627378984 0.0 0.0 0.0 0.0 0.0 0.0 0 30.75 31.9375 30.9375 34.3125 35.6875 35.9375 0.76518 7 253 253 253 253 253 253 1 -0.28730422258377075 -9.366117477416992 0.1149216815829277 1.0 1.0 0.17820630871955773 47.685096740722656 47.76659393310547 0.6948947906494141 47.64226531982422 47.64226531982422 47.65659713745117 47.599266052246094 47.5275993347168 47.584930419921875 0 2
7805.6269999999995 4.875659942626953e-05 -1.569661096935608 1.5700939337359827 0.0003864008137206554 1.570052146911621 3.13978910446167 0.0 0.0 -0.0 -0.0 0.0 -0.0 0.0 0.0 0.0 0.0 0.0 0.0 -6.281095240059561e-20 -2.710343566926628 -2.7180940035311267 -0.2944955294699762 -8.5567682463652e-06 0.010216859656993172 -6.259929167872677e-19 -27.283936540316247 -27.22911925945926 -2.377842023374199 -6.836757196691691e-05 0.08168218052387428 6.0677528381347656e-05 -1.569661096935608 1.5700576941119593 0.0003864008137206554 1.5699925422668457 3.139777183532715 0.0 0.0 -0.0 -0.0 0.0 -0.0 -0.0015362126287072897 -2.706308364868164 -2.7105445861816406 -0.2891003489494324 -0.0024523241445422173 0.003352739382535219 -6.281095240059561e-20 -2.710343566926628 -2.7180940035311267 -0.2944955294699762 -8.5567682463652e-06 0.010216859656993172 -0.6053443486064805 -0.13311055960007237 0.45264594304587147 -1.2103314810049122 -1.2099669304977025 1.2081902643995117 0.0 0.0 0.0 0.0 0.0 0.0 -0.6807909378014763 1.0237548520422568 0.12121271317190843 -0.07193885803143932 -0.0018491079243133095 0.023713034052711003 -0.6053410586134378 -0.13309110763540166 0.4526240055299657 -1.2104008520225462 -1.2099353474341237 1.2081292040026843 0.0 0.0 0.0 0.0 0.0 0.0 0 30.75 31.9375 30.9375 34.3125 35.6875 35.9375 0.771168 7 253 253 253 253 253 253 1 -0.2106897532939911 -9.308655738830566 0.15322890877723694 1.0 1.0 0.1270320419583966 47.71017074584961 47.77913284301758 0.7306999564170837 47.65659713745117 47.64226531982422 47.68526077270508 47.61359786987305 47.5275993347168 47.599266052246094 0 2
7805.634999999999 7.152557373046875e-07 -1.5696970981410523 1.5700939337359827 0.000350638026855421 1.570040225982666 3.1397652626037598 0.0 0.0 -0.0 -0.0 0.0 -0.0 0.0 0.0 0.0 0.0 0.0 0.0 -1.1423892971885293e-20 -2.7101947419382997 -2.7181179852381705 -0.29452523747400916 -7.810070296407399e-06 0.010217152009395512 -1.1385396669241128e-19 -27.282438379128603 -27.22935950161435 -2.3780818943853044 -6.240154316241183e-05 0.08168451783519169 7.152557373046875e-07 -1.5696851772120972 1.5700824896441858 0.0003983217426757335 1.570040225982666 3.13981294631958 0.0 0.0 -0.0 -0.0 0.0 -0.0 -0.0008115591481328011 -2.7165091037750244 -2.7493855953216553 -0.29064834117889404 0.012083522975444794 0.01447724923491478 -1.1423892971885293e-20 -2.7101947419382997 -2.7181179852381705 -0.29452523747400916 -7.810070296407399e-06 0.010217152009395512 -0.6053404004944712 -0.13306539157791225 0.4526429849559249 -1.210418119694347 -1.2098800490924746 1.2081313677669057 0.0 0.0 0.0 0.0 0.0 0.0 -0.7318321770158056 1.1873980673657336 0.1553139826912069 -0.07696130510230946 -0.004218144382315979 0.029043102353394492 -0.6053418253472147 -0.1330637127379904 0.45265339881605837 -1.2103475348023065 -1.2098671371422687 1.2081189975702913 0.0 0.0 0.0 0.0 0.0 0.0 0 30.75 31.9375 30.9375 34.3125 35.6875 35.9375 0.771805 7 253 253 253 253 253 253 1 -0.28730422258377075 -9.366117477416992 0.09576806426048279 1.0 1.0 0.060444591685462075 47.71017074584961 47.77286148071289 0.7150384783744812 47.64226531982422 47.64226531982422 47.65659713745117 47.599266052246094 47.5275993347168 47.599266052246094 0 2
7805.643 7.152557373046875e-07 -1.5696970981410523 1.5700939337359827 0.0003864008137206554 1.5700163841247559 3.1397533416748047 0.0 0.0 -0.0 -0.0 0.0 -0.0 0.0 0.0 0.0 0.0 0.0 0.0 -2.91687533017579e-19 -2.710182620084262 -2.7181058042474247 -0.2945101245867254 -8.1894259489206e-06 0.010217296786421231 -2.907046026298198e-18 -27.28231635330857 -27.229237475794317 -2.3779598685652776 -6.543255021174617e-05 0.08168567530466346 1.2755393981933594e-05 -1.5696731370738526 1.5700939337359827 0.00037447988476557725 1.5699925422668457 3.139777183532715 0.0 0.0 -0.0 -0.0 0.0 -0.0 -0.016513414680957794 -2.723644256591797 -2.7119646072387695 -0.2854510247707367 -0.00386312254704535 0.020882152020931244 -2.91687533017579e-19 -2.710182620084262 -2.7181058042474247 -0.2945101245867254 -8.1894259489206e-06 0.010217296786421231 -0.6053439545168858 -0.1330815605625841 0.45263384681673835 -1.21036322015945 -1.2099406386365823 1.2081492074227078 0.0 0.0 0.0 0.0 0.0 0.0 -0.9597254416551664 0.5491223151801876 0.18883203018322378 -0.0799892914060156 -0.005465207507492283 0.012020641492018959 -0.6053370013428782 -0.13306838026835865 0.45264580845943236 -1.2103537885243 -1.2099166610855292 1.2081109423670453 0.0 0.0 0.0 0.0 0.0 0.0 0 30.75 31.9375 30.9375 34.3125 35.6875 35.9375 0.769452 7 253 253 253 253 253 253 1 -0.24899697303771973 -9.346963882446289 0.038307227194309235 1.0 1.0 0.06296808351115449 47.704795837402344 47.77286148071289 0.7172743082046509 47.65659713745117 47.64226531982422 47.65659713745117 47.599266052246094 47.51326370239258 47.599266052246094 0 2
7805.659 3.6716461181640625e-05 -1.5696731370738526 1.5700939337359827 0.000350638026855421 1.570040225982666 3.13981294631958 0.0 0.0 -0.0 -0.0 0.0 -0.0 0.0 0.0 0.0 0.0 0.0 0.0 3.7233901725165943e-19 -2.7103016656667145 -2.718109933638561 -0.29451527804867444 -8.059984710367612e-06 0.010216569127316171 3.710843070114964e-18 -27.283514737217047 -27.229278842900662 -2.3780014791065662 -6.439832993868717e-05 0.08167985778495832 4.875659942626953e-05 -1.5696731370738526 1.5700824896441858 0.0003864008137206554 1.570028305053711 3.139801025390625 0.0 0.0 -0.0 -0.0 0.0 -0.0 -0.0032118645031005144 -2.712948799133301 -2.745954751968384 -0.3087576925754547 0.003410111414268613 -0.0012366087175905704 3.7233901725165943e-19 -2.7103016656667145 -2.718109933638561 -0.29451527804867444 -8.059984710367612e-06 0.010216569127316171 -0.6053391051765417 -0.1330965851075182 0.4526382286477911 -1.2103810430701563 -1.2099299461100161 1.208166661870137 0.0 0.0 0.0 0.0 0.0 0.0 -0.7142227653781152 1.1902995550037447 0.06065102851362679 -0.07589910665545191 -0.0012592369545111476 0.02814946992109158 -0.605343987182178 -0.1330871676627396 0.45263890168321597 -1.2103832703928286 -1.2098887374013907 1.2081692440603817 0.0 0.0 0.0 0.0 0.0 0.0 0 30.75 31.9375 30.9375 34.3125 35.6875 35.9375 0.7674 7 253 253 253 253 253 253 1 -0.19153614342212677 -9.442731857299805 0.038307227194309235 1.0 1.0 0.057398000478475666 47.711063385009766 47.76569747924805 0.7239871025085449 47.670928955078125 47.65659713745117 47.71392822265625 47.6279296875 47.5562629699707 47.6279296875 0 2
7805.6669999999995 3.6716461181640625e-05 -1.5696970981410523 1.5700700918780726 0.0003983217426757335 1.570028305053711 3.139801025390625 0.0 0.0 -0.0 -0.0 0.0 -0.0 0.0 0.0 0.0 0.0 0.0 0.0 4.357658129391492e-19 -2.7101867169744387 -2.7181099211243627 -0.2945152041274988 -8.061591171160747e-06 0.010216714637928755 4.3429736670473755e-18 -27.282357595051117 -27.229278717536864 -2.3780008822456287 -6.441116537149597e-05 0.08168102111934131 -1.0792409078419496e-05 -1.569721059208252 1.5700576941119593 0.0003864008137206554 1.5699806213378906 3.139777183532715 0.0 0.0 -0.0 -0.0 0.0 -0.0 0.017810504883527756 -2.6868765354156494 -2.7425498962402344 -0.29347002506256104 -0.006807032506912947 0.008437935262918472 4.357658129391492e-19 -2.7101867169744387 -2.7181099211243627 -0.2945152041274988 -8.061591171160747e-06 0.010216714637928755 -0.6053364605711885 -0.13306983022312194 0.452682253317765 -1.2103155097285259 -1.2098788741272894 1.2081748416040292 0.0 0.0 0.0 0.0 0.0 0.0 -0.604873702496855 0.7238690531914821 0.4695660959221891 -0.07838988149295363 -0.01926889044113578 0.02583589320553234 -0.6053338202929387 -0.1330892970720284 0.45265770285581225 -1.2103687445146334 -1.2099030873786065 1.2081693778505551 0.0 0.0 0.0 0.0 0.0 0.0 0 30.75 31.9375 30.9375 34.3125 35.6875 35.9375 0.766752 7 253 253 253 253 253 253 1 -0.19153612852096558 -9.461885452270508 0.05746084079146385 1.0 1.0 0.11454925426714468 47.71375274658203 47.788089752197266 0.6590895652770996 47.65659713745117 47.64226531982422 47.68526077270508 47.670928955078125 47.54193115234375 47.61359786987305 0 2
7805.674999999999 4.875659942626953e-05 -1.5696731370738526 1.5700576941119593 0.00037447988476557725 1.570052146911621 3.13981294631958 0.0 0.0 -0.0 -0.0 0.0 -0.0 0.0 0.0 0.0 0.0 0.0 0.0 9.475952436205128e-20 -2.7103059341443245 -2.718114222940024 -0.2945205548467617 -7.92775436330691e-06 0.010216569449283881 9.444020315191423e-19 -27.283557706261142 -27.229321811944757 -2.3780440854994827 -6.334182501666558e-05 0.08167986035903935 4.875659942626953e-05 -1.5696970981410523 1.5700824896441858 0.0003864008137206554 1.5699806213378906 3.13978910446167 0.0 0.0 -0.0 -0.0 0.0 -0.0 0.04623578116297722 -2.6768832206726074 -2.7142014503479004 -0.3026955723762512 0.005196427460759878 0.01491820253431797 9.475952436205128e-20 -2.7103059341443245 -2.718114222940024 -0.2945205548467617 -7.92775436330691e-06 0.010216569449283881 -0.6053321455056612 -0.13310630317885197 0.45265275129679133 -1.2103320278180696 -1.2099530082415075 1.2082043933965698 0.0 0.0 0.0 0.0 0.0 0.0 -0.8332080386591215 0.8558234458906291 0.2191152282992851 -0.0758082962078003 -0.0050679781588148405 0.017525750075686707 -0.6053440587260385 -0.13309191793306172 0.4526557516070595 -1.2103740735578423 -1.2098797377984551 1.208175182986824 0.0 0.0 0.0 0.0 0.0 0.0 0 30.75 31.9375 30.9375 34.3125 35.6875 35.9375 0.76212 7 253 253 253 253 253 253 1 -0.24899697303771973 -9.346963882446289 0.07661445438861847 1.0 1.0 0.11819665115885494 47.705692291259766 47.76569747924805 0.6769921779632568 47.64226531982422 47.64226531982422 47.65659713745117 47.599266052246094 47.51326370239258 47.570594787597656 0 2
7805.683 7.152557373046875e-07 -1.569709138279297 1.5700700918780726 0.000350638026855421 1.570028305053711 3.139801025390625 0.0 0.0 -0.0 -0.0 0.0 -0.0 0.0 0.0 0.0 0.0 0.0 0.0 -9.859302432634562e-22 -2.7101488864005367 -2.7181299417790528 -0.29454003004299645 -7.4373634431254504e-06 0.010216715650665682 -9.826078496517416e-21 -27.281976769907686 -27.229479278957292 -2.3782013338628234 -5.9423659237001004e-05 0.08168102921601321 2.467632293701172e-05 -1.5696970981410523 1.5700824896441858 0.0003864008137206554 1.5699687004089355 3.139801025390625 0.0 0.0 -0.0 -0.0 0.0 -0.0 0.026106249541044235 -2.6958274841308594 -2.741095781326294 -0.3033936023712158 0.0015944438055157661 0.010507145896553993 -9.859302432634562e-22 -2.7101488864005367 -2.7181299417790528 -0.29454003004299645 -7.4373634431254504e-06 0.010216715650665682 -0.6053353488229507 -0.1330946754983823 0.45265275837572744 -1.2103465559358306 -1.2099383846986727 1.2082042343888313 0.0 0.0 0.0 0.0 0.0 0.0 -0.6004397171289108 1.0794790969034822 -0.13015800395382107 -0.07155779645988475 -0.008049932366046777 0.029094437983710832 -0.6053415447267688 -0.13306748267259436 0.4526751215479471 -1.2103418022494694 -1.209832558644742 1.208171064494733 0.0 0.0 0.0 0.0 0.0 0.0 0 30.75 31.9375 30.9375 34.3125 35.6875 35.9375 0.766224 7 253 253 253 253 253 253 1 -0.15322890877723694 -9.327810287475586 0.09576806426048279 1.0 1.0 0.049872224699056396 47.73524856567383 47.786293029785156 0.6904177665710449 47.65659713745117 47.64226531982422 47.68526077270508 47.6279296875 47.54193115234375 47.61359786987305 0 2
7805.691 2.467632293701172e-05 -1.5696851772120972 1.5701053778277796 0.0003387170979003429 1.570028305053711 3.13978910446167 0.0 0.0 -0.0 -0.0 0.0 -0.0 0.0 0.0 0.0 0.0 0.0 0.0 5.1937002504041885e-20 -2.710247986414543 -2.71811402829535 -0.2945203574950996 -7.932121548144347e-06 0.010216860470595394 5.176198488336328e-19 -27.282974369815786 -27.229319862047866 -2.3780424920251217 -6.337671830991248e-05 0.08168218702849565 7.152557373046875e-07 -1.5696970981410523 1.5700700918780726 0.00036255895581049913 1.570040225982666 3.13981294631958 0.0 0.0 -0.0 -0.0 0.0 -0.0 -0.053140051662921906 -2.7119710445404053 -2.694976806640625 -0.28631776571273804 0.002608630573377013 0.007489187642931938 5.1937002504041885e-20 -2.710247986414543 -2.71811402829535 -0.2945203574950996 -7.932121548144347e-06 0.010216860470595394 -0.6053434334893092 -0.1330653700681697 0.45266529765784314 -1.2103738742990748 -1.2098357978089032 1.2081597274931137 0.0 0.0 0.0 0.0 0.0 0.0 -0.5683336953792832 0.8657106673023911 0.31764420086802087 -0.08194861816613272 -0.013617189036698101 0.02648754571045629 -0.6053421580300595 -0.13308158117010213 0.4526418012013813 -1.2103565451090512 -1.2098906915201555 1.208157544089996 0.0 0.0 0.0 0.0 0.0 0.0 0 30.75 31.9375 30.9375 34.3125 35.6875 35.9375 0.769969 7 253 253 253 253 253 253 1 -0.2106897532939911 -9.385271072387695 0.038307227194309235 1.0 1.0 0.06579220290683205 47.71733474731445 47.793460845947266 0.7262282371520996 47.64226531982422 47.64226531982422 47.670928955078125 47.61359786987305 47.51326370239258 47.584930419921875 0 2
7805.699 3.6716461181640625e-05 -1.5696731370738526 1.5700700918780726 0.00037447988476557725 1.5700044631958008 3.139801025390625 0.0 0.0 -0.0 -0.0 0.0 -0.0 0.0 0.0 0.0 0.0 0.0 0.0 5.952591815172626e-19 -2.7103013928426147 -2.718109659483483 -0.29451490790222457 -8.068317166459752e-06 0.01021671441119812 5.932532735785414e-18 -27.283511990806772 -27.229276096490388 -2.377998490437146 -6.446490528292212e-05 0.08168101930666567 3.6716461181640625e-05 -1.5696490567973633 1.5700939337359827 0.00036255895581049913 1.5700163841247559 3.1397533416748047 0.0 0.0 -0.0 -0.0 0.0 -0.0 0.09045188128948212 -2.6965537071228027 -2.7269668579101562 -0.297381728887558 -0.011116309091448784 0.006192737724632025 5.952591815172626e-19 -2.7103013928426147 -2.718109659483483 -0.29451490790222457 -8.068317166459752e-06 0.01021671441119812 -0.6053493618478145 -0.13309016168309318 0.45262178450358403 -1.2103545605940598 -1.2099610011127566 1.208125934571722 0.0 0.0 0.0 0.0 0.0 0.0 -0.4172422066458381 0.8593440398599681 0.3621525198074709 -0.08130351284021924 -0.008800824250375856 0.026771929489072588 -0.6053439822767415 -0.1330943527119613 0.4526482679096347 -1.2103575287495336 -1.209920696256333 1.2081868548709216 0.0 0.0 0.0 0.0 0.0 0.0 0 30.75 31.9375 30.9375 34.3125 35.6875 35.9375 0.773256 7 253 253 253 253 253 253 1 -0.2298433631658554 -9.481039047241211 0.09576806426048279 1.0 1.0 0.13269450965634877 47.718231201171875 47.798831939697266 0.6747510433197021 47.670928955078125 47.64226531982422 47.68526077270508 47.6279296875 47.51326370239258 47.6279296875 0 2
7805.706999999999 1.2755393981933594e-05 -1.5696851772120972 1.5701053778277796 0.0003983217426757335 1.5700163841247559 3.1397533416748047 0.0 0.0 -0.0 -0.0 0.0 -0.0 0.0 0.0 0.0 0.0 0.0 0.0 4.589816938933477e-20 -2.7102280135201102 -2.7180939579627514 -0.29449545634537666 -8.558377032553148e-06 0.010217296161512866 4.574350146448871e-19 -27.282773310735717 -27.229118802967797 -2.3778414329450466 -6.83804259793568e-05 0.08168567030861972 4.875659942626953e-05 -1.5696851772120972 1.5700824896441858 0.0003864008137206554 1.5700044631958008 3.139801025390625 0.0 0.0 -0.0 -0.0 0.0 -0.0 0.0030195461586117744 -2.7516751289367676 -2.698359489440918 -0.2952231764793396 -0.006095591001212597 -0.003622761694714427 4.589816938933477e-20 -2.7102280135201102 -2.7180939579627514 -0.29449545634537666 -8.558377032553148e-06 0.010217296161512866 -0.605335608235525 -0.13310165192558285 0.45264552743776176 -1.2103608834341528 -1.2099386116733883 1.2081899427791671 0.0 0.0 0.0 0.0 0.0 0.0 -0.38260056400625836 1.2572901008717297 0.7983473086698597 -0.08828399096837566 -0.020033511299698447 0.03259667971651453 -0.6053357078190067 -0.13307567878223905 0.4526291369935336 -1.210374077370421 -1.20995151824136 1.208103136350806 0.0 0.0 0.0 0.0 0.0 0.0 0 30.75 31.9375 30.9375 34.3125 35.6875 35.9375 0.772525 7 253 253 253 253 253 253 1 -0.24899697303771973 -9.423578262329102 -0.019153613597154617 1.0 1.0 0.06811940262711463 47.725399017333984 47.77913284301758 0.6792280077934265 47.65659713745117 47.64226531982422 47.670928955078125 47.6279296875 47.51326370239258 47.64226531982422 0 2
7805.714999999999 -3.511110414677887e-05 -1.5696731370738526 1.5700824896441858 0.00036255895581049913 1.570040225982666 3.13978910446167 0.0 0.0 -0.0 -0.0 0.0 -0.0 0.0 0.0 0.0 0.0 0.0 0.0 8.411240730957863e-20 -2.710301518083343 -2.7181097853352 -0.2945150794293689 -8.06519175243009e-06 0.01021686035948295 8.382896481796148e-19 -27.283513251554712 -27.229277357238328 -2.377999875396886 -6.443993359239047e-05 0.0816821861401692 -1.0792409078419496e-05 -1.5696731370738526 1.5700576941119593 0.00041024267163081163 1.570040225982666 3.13978910446167 0.0 0.0 -0.0 -0.0 0.0 -0.0 0.028796162456274033 -2.7273502349853516 -2.701716899871826 -0.2981640696525574 0.009779645130038261 0.0013942192308604717 8.411240730957863e-20 -2.710301518083343 -2.7181097853352 -0.2945150794293689 -8.06519175243009e-06 0.01021686035948295 -0.6053471605854008 -0.133057588720708 0.45264815420734 -1.2104053672722237 -1.209882254962009 1.2081057361342604 0.0 0.0 0.0 0.0 0.0 0.0 -0.21704968581710216 1.1044161447033436 0.5598905954426101 -0.08515955880317519 -0.017603074199340492 0.03604293032345608 -0.6053534806256903 -0.13304285628382911 0.452643285774203 -1.2104000324393704 -1.2098474511128945 1.2080986148955999 0.0 0.0 0.0 0.0 0.0 0.0 0 30.75 31.9375 30.9375 34.3125 35.6875 35.9375 0.772044 7 253 253 253 253 253 253 1 -0.28730422258377075 -9.385271072387695 0.13407529890537262 1.0 1.0 0.04139593051716437 47.702110290527344 47.77107238769531 0.6434228420257568 47.64226531982422 47.6279296875 47.670928955078125 47.599266052246094 47.498931884765625 47.584930419921875 0 2
7805.723 1.2755393981933594e-05 -1.569661096935608 1.5700939337359827 0.000350638026855421 1.5699925422668457 3.13981294631958 0.0 0.0 -0.0 -0.0 0.0 -0.0 0.0 0.0 0.0 0.0 0.0 0.0 -3.8874675896901863e-19 -2.710354996903266 -2.718105489269134 -0.29450977976106585 -8.196913626625423e-06 0.010216568464113441 -3.87436757822996e-18 -27.28405160128529 -27.229234320428304 -2.377957084343237 -6.54923758760169e-05 0.08167985248275715 4.875659942626953e-05 -1.5696970981410523 1.5700700918780726 0.0003387170979003429 1.5699563026428223 3.1397533416748047 0.0 0.0 -0.0 -0.0 0.0 -0.0 0.04311329498887062 -2.6922225952148438 -2.70180082321167 -0.306596964597702 -0.002979443408548832 0.015751831233501434 -3.8874675896901863e-19 -2.710354996903266 -2.718105489269134 -0.29450977976106585 -8.196913626625423e-06 0.010216568464113441 -0.6053402391743533 -0.13311019769913987 0.4526703792770518 -1.2102499055132 -1.2099435605767632 1.2082243380642346 0.0 0.0 0.0 0.0 0.0 0.0 -0.17872301172403882 0.8122494009245778 0.7678259994012534 -0.08609491809559153 -0.02291159737258191 0.031564654056540964 -0.6053506618671883 -0.13308279615222232 0.45263162902009546 -1.2103808759826589 -1.209915007684363 1.2081810688654078 0.0 0.0 0.0 0.0 0.0 0.0 0 30.75 31.9375 30.9375 34.3125 35.6875 35.9375 0.767676 7 253 253 253 253 253 253 1 -0.24899697303771973 -9.423578262329102 0.0 1.0 1.0 0.1313953801430603 47.736141204833984 47.78718948364258 0.6232790946960449 47.64226531982422 47.65659713745117 47.68526077270508 47.6279296875 47.51326370239258 47.61359786987305 0 2
7805.731 7.152557373046875e-07 -1.5696970981410523 1.5700700918780726 0.0003983217426757335 1.5699806213378906 3.139777183532715 0.0 0.0 -0.0 -0.0 0.0 -0.0 0.0 0.0 0.0 0.0 0.0 0.0 -1.795428024651562e-19 -2.710186320798003 -2.718109523015172 -0.2945147101956463 -8.07277431176029e-06 0.01021700542609039 -1.7893777805900233e-18 -27.28235360690258 -27.229274729388326 -2.3779968940970897 -6.45005173496894e-05 0.08168334592480114 4.875659942626953e-05 -1.569709138279297 1.5701053778277796 0.00036255895581049913 1.5700044631958008 3.13978910446167 0.0 0.0 -0.0 -0.0 0.0 -0.0 -0.050155047327280045 -2.718172550201416 -2.75982666015625 -0.3007568418979645 0.008415378630161285 0.002446132944896817 -1.795428024651562e-19 -2.710186320798003 -2.718109523015172 -0.2945147101956463 -8.07277431176029e-06 0.01021700542609039 -0.6053287840125217 -0.1331012356153793 0.45265125349729307 -1.2103337730705215 -1.2099258911312882 1.2081929498077075 0.0 0.0 0.0 0.0 0.0 0.0 -0.1149089043440274 1.245118497751491 0.8174647456774501 -0.0867705419139539 -0.01985527906174403 0.03957373617570822 -0.6053386037610835 -0.13307680655074325 0.45265771491167317 -1.210345617506013 -1.2099229058500323 1.208160494630583 0.0 0.0 0.0 0.0 0.0 0.0 0 30.75 31.9375 30.9375 34.3125 35.6875 35.9375 0.757992 7 253 253 253 253 253 253 1 -0.28730422258377075 -9.346963882446289 0.13407528400421143 1.0 1.0 0.07464267789328938 47.731666564941406 47.790771484375 0.7284641265869141 47.64226531982422 47.64226531982422 47.68526077270508 47.61359786987305 47.5275993347168 47.6279296875 0 2
7805.739 3.6716461181640625e-05 -1.5696851772120972 1.5700700918780726 0.0003387170979003429 1.5699806213378906 3.1398253440856934 0.0 0.0 -0.0 -0.0 0.0 -0.0 0.0 0.0 0.0 0.0 0.0 0.0 -3.4582198388601544e-19 -2.7102593908389556 -2.7181254883564754 -0.2945345322096112 -7.573271565736844e-06 0.010216417959762381 -3.446566309029785e-18 -27.28308917356087 -27.22943466579295 -2.378156942767025 -6.050954915314663e-05 0.08167864922422316 1.2755393981933594e-05 -1.5696731370738526 1.5700576941119593 0.000350638026855421 1.5699806213378906 3.139801025390625 0.0 0.0 -0.0 -0.0 0.0 -0.0 0.04954008013010025 -2.7312278747558594 -2.701643943786621 -0.3001999855041504 0.008317111991345882 0.01570293679833412 -3.4582198388601544e-19 -2.7102593908389556 -2.7181254883564754 -0.2945345322096112 -7.573271565736844e-06 0.010216417959762381 -0.6053520523756029 -0.13308489844957444 0.45266083942168733 -1.2103308755290632 -1.2098938786513218 1.2082038937998445 0.0 0.0 0.0 0.0 0.0 0.0 0.029311089599773524 1.224875438360032 1.1643156112608395 -0.09136918365581741 -0.032880122025523796 0.041852182747478095 -0.605345305708273 -0.13310025112150453 0.45266316879511836 -1.2103289511902635 -1.209891500528413 1.2082448952872105 0.0 0.0 0.0 0.0 0.0 0.0 0 30.75 31.9375 30.9375 34.3125 35.6875 35.9375 0.769632 7 253 253 253 253 253 253 1 -0.325611412525177 -9.327810287475586 0.1149216815829277 1.0 1.0 0.10428939328198807 47.730770111083984 47.798831939697266 0.6411817073822021 47.65659713745117 47.64226531982422 47.68526077270508 47.61359786987305 47.54193115234375 47.61359786987305 0 2
7805.746999999999 2.467632293701172e-05 -1.5696970981410523 1.5700939337359827 0.0003864008137206554 1.5700163841247559 3.13978910446167 0.0 0.0 -0.0 -0.0 0.0 -0.0 0.0 0.0 0.0 0.0 0.0 0.0 1.5957611733243068e-19 -2.710182620582148 -2.71810580474774 -0.2945101252074624 -8.18908358021164e-06 0.010216859936809033 1.590383767808754e-18 -27.28231635832059 -27.229237480806336 -2.3779598735772876 -6.542981472602596e-05 0.08168218276095794 3.6716461181640625e-05 -1.5696970981410523 1.5701177755938929 0.00036255895581049913 1.5699687004089355 3.13981294631958 0.0 0.0 -0.0 -0.0 0.0 -0.0 0.0026217447593808174 -2.7300751209259033 -2.7103753089904785 -0.2882438004016876 0.0036039408296346664 0.013938618823885918 1.5957611733243068e-19 -2.710182620582148 -2.71810580474774 -0.2945101252074624 -8.18908358021164e-06 0.010216859936809033 -0.6053322028369115 -0.13310238376922287 0.4526364836231931 -1.210358088914522 -1.2099500192659265 1.208216452171323 0.0 0.0 0.0 0.0 0.0 0.0 0.21159289176585536 1.1426901451403992 0.7476882347931537 -0.08937945512884592 -0.018227900133286522 0.038426894238572325 -0.6053338132855027 -0.13308413144213505 0.45264581656197816 -1.2103688005936122 -1.209917388542071 1.2081548979315597 0.0 0.0 0.0 0.0 0.0 0.0 0 30.75 31.9375 30.9375 34.3125 35.6875 35.9375 0.769333 7 253 253 253 253 253 253 1 -0.24899697303771973 -9.404424667358398 0.07661445438861847 1.0 1.0 0.10854352329520739 47.72808074951172 47.780025482177734 0.6613254547119141 47.65659713745117 47.65659713745117 47.68526077270508 47.61359786987305 47.5275993347168 47.599266052246094 0 2
7805.754999999999 1.2755393981933594e-05 -1.5696851772120972 1.5700939337359827 0.00036255895581049913 1.5700044631958008 3.13978910446167 0.0 0.0 -0.0 -0.0 0.0 -0.0 0.0 0.0 0.0 0.0 0.0 0.0 -5.469881065251918e-19 -2.7102436666557037 -2.7181096874624804 -0.29451495724880755 -8.067182744315605e-06 0.01021686003273328 -5.451448627427636e-18 -27.28293088454422 -27.2292763767763 -2.3779988888757195 -6.445584138340448e-05 0.08168218352785717 6.0677528381347656e-05 -1.5696970981410523 1.5700939337359827 0.00036255895581049913 1.570028305053711 3.13981294631958 0.0 0.0 -0.0 -0.0 0.0 -0.0 -0.0023594407830387354 -2.7886736392974854 -2.7492074966430664 -0.30587297677993774 -0.011640287935733795 0.014586406759917736 -5.469881065251918e-19 -2.7102436666557037 -2.7181096874624804 -0.29451495724880755 -8.067182744315605e-06 0.01021686003273328 -0.6053322375743255 -0.13310421114700166 0.4526508818656432 -1.2103574258786842 -1.2099063007974165 1.2082013929946613 0.0 0.0 0.0 0.0 0.0 0.0 -0.1294932383158684 0.9015756524258651 0.6615190023406371 -0.09327102351373956 -0.01578485410974582 0.03299851566401677 -0.6053420702187793 -0.133079437551806 0.45264366732182737 -1.210360011018572 -1.209908580837438 1.2081605118578147 0.0 0.0 0.0 0.0 0.0 0.0 0 30.75 31.9375 30.9375 34.3125 35.6875 35.9375 0.76224 7 253 253 253 253 253 253 1 -0.2298433631658554 -9.423578262329102 0.13407529890537262 1.0 1.0 0.11812629498532133 47.69853210449219 47.78718948364258 0.6814691424369812 47.65659713745117 47.64226531982422 47.670928955078125 47.599266052246094 47.54193115234375 47.61359786987305 0 2
7805.763 7.152557373046875e-07 -1.5696490567973633 1.5700824896441858 0.0003983217426757335 1.5699806213378906 3.13978910446167 0.0 0.0 -0.0 -0.0 0.0 -0.0 0.0 0.0 0.0 0.0 0.0 0.0 -5.737303957777132e-19 -2.710396553214733 -2.7180892125312095 -0.29448958609769743 -8.705232891855197e-06 0.01021685871092668 -5.717970356695284e-18 -27.284469931927482 -27.22907126453784 -2.377794034868599 -6.955378702414859e-05 0.08168217296022198 3.6716461181640625e-05 -1.569709138279297 1.5700700918780726 0.000350638026855421 1.5700044631958008 3.139801025390625 0.0 0.0 -0.0 -0.0 0.0 -0.0 -0.0233929380774498 -2.7211530208587646 -2.735008716583252 -0.29198649525642395 0.0013012116542086005 0.014048395678400993 -5.737303957777132e-19 -2.710396553214733 -2.7180892125312095 -0.29448958609769743 -8.705232891855197e-06 0.01021685871092668 -0.6053367500524843 -0.13309434233146508 0.4526751302836034 -1.2103134721492865 -1.2098766205459714 1.2082151409435147 0.0 0.0 0.0 0.0 0.0 0.0 -0.12850973911894029 1.1721675494158088 0.8622445423413304 -0.09164117629603383 -0.02219339806157532 0.038759140112434046 -0.6053508704560455 -0.13307722645163353 0.452621131141272 -1.2103989004208493 -1.2099617616854028 1.2081406704846533 0.0 0.0 0.0 0.0 0.0 0.0 0 30.75 31.9375 30.9375 34.3125 35.6875 35.9375 0.825277 7 253 253 253 253 253 253 1 -0.24899697303771973 -9.404424667358398 0.15322890877723694 1.0 1.0 0.12695034348015005 47.72897720336914 47.80241775512695 0.6389458775520325 47.65659713745117 47.65659713745117 47.71392822265625 47.64226531982422 47.5275993347168 47.61359786987305 0 2
7805.771 2.467632293701172e-05 -1.569661096935608 1.5700939337359827 0.0003864008137206554 1.5699925422668457 3.13978910446167 0.0 0.0 -0.0 -0.0 0.0 -0.0 0.0 0.0 0.0 0.0 0.0 0.0 -1.7147874131224118e-19 -2.7103430723736173 -2.718093506565429 -0.2944949128874069 -8.571317271429523e-06 0.010216859060511892 -1.7090089122743711e-18 -27.283931561850373 -27.229114280993386 -2.3778370449083224 -6.8483816966138e-05 0.0816821757551006 7.152557373046875e-07 -1.569721059208252 1.5700576941119593 0.00036255895581049913 1.5699806213378906 3.13978910446167 0.0 0.0 -0.0 -0.0 0.0 -0.0 0.01100856065750122 -2.711940288543701 -2.6958844661712646 -0.2863793969154358 0.0047280872240662575 -0.006813469342887402 -1.7147874131224118e-19 -2.7103430723736173 -2.718093506565429 -0.2944949128874069 -8.571317271429523e-06 0.010216859060511892 -0.6053381427089232 -0.13307720087119115 0.45268732046190646 -1.2103012912875093 -1.2098641451851946 1.208203325472285 0.0 0.0 0.0 0.0 0.0 0.0 -0.29119717811625817 0.9788228266098029 0.8576668452714541 -0.08406558417914782 -0.017272086784751353 0.02821052556854216 -0.6053442543324751 -0.13308919761627636 0.4526240273709588 -1.2103840037756617 -1.209961429061762 1.2081554331136832 0.0 0.0 0.0 0.0 0.0 0.0 0 30.75 31.9375 30.9375 34.3125 35.6875 35.9375 0.771924 7 253 253 253 253 253 253 1 -0.15322890877723694 -9.385271072387695 0.13407529890537262 1.0 1.0 0.029788225246652106 47.71196365356445 47.774654388427734 0.6926589012145996 47.64226531982422 47.64226531982422 47.65659713745117 47.599266052246094 47.5275993347168 47.599266052246094 0 2
7805.7789999999995 7.152557373046875e-07 -1.5696970981410523 1.5700824896441858 0.000350638026855421 1.5699687004089355 3.13978910446167 0.0 0.0 -0.0 -0.0 0.0 -0.0 0.0 0.0 0.0 0.0 0.0 0.0 -3.2772366104860974e-19 -2.7101979751217367 -2.718121234194757 -0.2945292546601521 -7.705964519936982e-06 0.010216860324220195 -3.2661929590176968e-18 -27.28247092628343 -27.229392048769178 -2.3781143303073153 -6.156975025180725e-05 0.08168218585824905 3.6716461181640625e-05 -1.5696970981410523 1.5701053778277796 0.0003387170979003429 1.5700044631958008 3.13981294631958 0.0 0.0 -0.0 -0.0 0.0 -0.0 -0.009350532665848732 -2.696997880935669 -2.7394628524780273 -0.2967652380466461 0.0009523362386971712 0.006835971027612686 -3.2772366104860974e-19 -2.7101979751217367 -2.718121234194757 -0.2945292546601521 -7.705964519936982e-06 0.010216860324220195 -0.60533709370377 -0.1330947675499703 0.45264903323716926 -1.2103483422827088 -1.2098970310580768 1.2082071766904319 0.0 0.0 0.0 0.0 0.0 0.0 -0.13065313646605173 1.1514769193987988 0.6676291092545813 -0.07371843055529742 -0.010219388162326768 0.031429784327490974 -0.6053433578527322 -0.13307973904129705 0.45266035211600153 -1.2103227747104561 -1.2099000211019837 1.2081946870377447 0.0 0.0 0.0 0.0 0.0 0.0 0 30.75 31.9375 31.0 34.3125 35.6875 35.9375 0.76878 7 253 253 253 253 253 253 1 -0.26815059781074524 -9.481039047241211 0.038307227194309235 1.0 1.0 0.04531724585707334 47.74778747558594 47.827491760253906 0.6971306204795837 47.65659713745117 47.64226531982422 47.68526077270508 47.599266052246094 47.5275993347168 47.61359786987305 0 2
7805.786999999999 6.0677528381347656e-05 -1.569661096935608 1.5700576941119593 0.00036255895581049913 1.570040225982666 3.13978910446167 0.0 0.0 -0.0 -0.0 0.0 -0.0 0.0 0.0 0.0 0.0 0.0 0.0 -1.5720835759004327e-19 -2.710363537655885 -2.7181140716879852 -0.2945203816630061 -7.931917103833074e-06 0.010216860577056975 -1.5667859592938412e-18 -27.28413757760036 -27.229320296743374 -2.3780426871637843 -6.337508482390916e-05 0.08168218787963918 2.467632293701172e-05 -1.5696490567973633 1.5700700918780726 0.000350638026855421 1.5700044631958008 3.13978910446167 0.0 0.0 -0.0 -0.0 0.0 -0.0 0.045874714851379395 -2.7318060398101807 -2.752081871032715 -0.29375624656677246 -0.004152377136051655 0.008712295442819595 -1.5720835759004327e-19 -2.710363537655885 -2.7181140716879852 -0.2945203816630061 -7.931917103833074e-06 0.010216860577056975 -0.6053557845556139 -0.13308663750935582 0.4526387490920339 -1.210354611468099 -1.2099176319731013 1.2081690605254964 0.0 0.0 0.0 0.0 0.0 0.0 -0.17094587530774227 1.2398813813788303 0.7793032717582182 -0.08049921622636053 -0.010346200450017159 0.032432385529666485 -0.605347569998527 -0.13310083100121217 0.4526509925258221 -1.2103453035260074 -1.2099086582557819 1.2081751195989126 0.0 0.0 0.0 0.0 0.0 0.0 0 30.75 31.9375 31.0 34.3125 35.6875 35.9375 0.766213 7 253 253 253 253 253 253 1 -0.19153612852096558 -9.346963882446289 0.1149216815829277 1.0 1.0 0.1033708213361756 47.69136428833008 47.77017593383789 0.6725152134895325 47.64226531982422 47.64226531982422 47.670928955078125 47.599266052246094 47.498931884765625 47.599266052246094 0 2
7805.795 6.0677528381347656e-05 -1.5696851772120972 1.5700824896441858 0.00036255895581049913 1.5699806213378906 3.139801025390625 0.0 0.0 -0.0 -0.0 0.0 -0.0 0.0 0.0 0.0 0.0 0.0 0.0 -2.790508769583492e-19 -2.7102472958655923 -2.7181133343775428 -0.2945194677599209 -7.952774449467285e-06 0.010216714392198466 -2.781105296495162e-18 -27.282967418337762 -27.229312910569842 -2.378035308046128 -6.354173256259151e-05 0.08168101915476643 7.152557373046875e-07 -1.569709138279297 1.5700939337359827 0.00036255895581049913 1.570040225982666 3.139777183532715 0.0 0.0 -0.0 -0.0 0.0 -0.0 0.06781645119190216 -2.727959394454956 -2.6780190467834473 -0.30583271384239197 0.00048590032383799553 0.015359289012849331 -2.790508769583492e-19 -2.7102472958655923 -2.7181133343775428 -0.2945194677599209 -7.952774449467285e-06 0.010216714392198466 -0.6053367254548797 -0.13306413402603617 0.4526581593555909 -1.2103562329139244 -1.2098614109487578 1.2081278510441578 0.0 0.0 0.0 0.0 0.0 0.0 -0.1788767857548404 0.6828630592628637 0.9075481062076531 -0.08191840276058915 -0.006443877437558206 0.014374554837288604 -0.6053372311846164 -0.13311392407504852 0.45265060041742394 -1.2103263893909562 -1.2099473617885521 1.2082275378910936 0.0 0.0 0.0 0.0 0.0 0.0 0 30.75 31.9375 31.0 34.3125 35.6875 35.9375 0.76854 7 253 253 253 253 253 253 1 -0.24899697303771973 -9.327810287475586 0.07661445438861847 1.0 1.0 0.11752958010013889 47.72270965576172 47.77286148071289 0.6971306204795837 47.65659713745117 47.64226531982422 47.670928955078125 47.599266052246094 47.5275993347168 47.61359786987305 0 2
7805.803 4.875659942626953e-05 -1.5696970981410523 1.5700576941119593 0.000350638026855421 1.5700044631958008 3.1397533416748047 0.0 0.0 -0.0 -0.0 0.0 -0.0 0.0 0.0 0.0 0.0 0.0 0.0 -3.931203252766849e-19 -2.7102065614913764 -2.7181298624531727 -0.29453993122670874 -7.4390924660806325e-06 0.010217297918541849 -3.9179558606084415e-18 -27.282557361806667 -27.229478484292414 -2.378200535991556 -5.9437473927070596e-05 0.08168568435578913 2.467632293701172e-05 -1.5697332185557862 1.5700214544879358 0.0003864008137206554 1.5700044631958008 3.1397414207458496 0.0 0.0 -0.0 -0.0 0.0 -0.0 0.01602904126048088 -2.7149791717529297 -2.745864152908325 -0.28705015778541565 0.010982991196215153 0.013529255986213684 -3.931203252766849e-19 -2.7102065614913764 -2.7181298624531727 -0.29453993122670874 -7.4390924660806325e-06 0.010217297918541849 -0.6053330990634704 -0.1330849717651506 0.4527115175082857 -1.2102480228130628 -1.2098687825050607 1.208179909037094 0.0 0.0 0.0 0.0 0.0 0.0 -0.18587923353459707 1.3482352599247762 0.5294929928424278 -0.08127327676098868 0.0015925692821961177 0.030865623795852375 -0.6053403115134133 -0.1330999629878305 0.45267532795554544 -1.2102723707469674 -1.209907806141135 1.2081890597639637 0.0 0.0 0.0 0.0 0.0 0.0 0 30.75 31.9375 31.0 34.3125 35.6875 35.9375 0.812545 7 253 253 253 253 253 253 1 -0.2106897532939911 -9.385271072387695 0.05746084079146385 1.0 1.0 0.1830183090148014 47.693153381347656 47.78361129760742 0.6635612845420837 47.599266052246094 47.61359786987305 47.65659713745117 47.584930419921875 47.498931884765625 47.599266052246094 0 2
7805.811 2.467632293701172e-05 -1.5696970981410523 1.5701177755938929 0.0003864008137206554 1.5700163841247559 3.139777183532715 0.0 0.0 -0.0 -0.0 0.0 -0.0 0.0 0.0 0.0 0.0 0.0 0.0 -2.512692899108833e-19 -2.7101746469287153 -2.71809779219468 -0.29450021407259375 -8.438482030315043e-06 0.010217005133957858 -2.5042256115971247e-18 -27.282236090764513 -27.22915721325026 -2.3778798482097296 -6.742247901176547e-05 0.08168334358924766 3.6716461181640625e-05 -1.569709138279297 1.5700939337359827 0.00036255895581049913 1.5700163841247559 3.1397652626037598 0.0 0.0 -0.0 -0.0 0.0 -0.0 -0.025293398648500443 -2.74953031539917 -2.7303664684295654 -0.2890593409538269 -0.00526195764541626 0.005719814449548721 -2.512692899108833e-19 -2.7101746469287153 -2.71809779219468 -0.29450021407259375 -8.438482030315043e-06 0.010217005133957858 -0.6053319307943715 -0.13309057794760784 0.4526581653907137 -1.2103191194190537 -1.2099111160574896 1.2081631538681032 0.0 0.0 0.0 0.0 0.0 0.0 0.041444862520931915 0.9395659474676585 0.6423752410033688 -0.08804599863085406 -0.0010734246026002086 0.024677924788591432 -0.605330598570613 -0.13308372618483083 0.45263139384944945 -1.2103775864594908 -1.2099405801800576 1.2081348685148936 0.0 0.0 0.0 0.0 0.0 0.0 0 30.75 31.9375 31.0 34.3125 35.6875 35.9375 0.761976 7 253 253 253 253 253 253 1 -0.3064578175544739 -9.461885452270508 0.038307227194309235 1.0 1.0 0.09650975101523686 47.69584274291992 47.75584411621094 0.6255202293395996 47.64226531982422 47.64226531982422 47.65659713745117 47.584930419921875 47.498931884765625 47.570594787597656 0 2
7805.8189999999995 2.467632293701172e-05 -1.5696731370738526 1.5701053778277796 0.00037447988476557725 1.5700163841247559 3.1397652626037598 0.0 0.0 -0.0 -0.0 0.0 -0.0 0.0 0.0 0.0 0.0 0.0 0.0 4.532841475166066e-19 -2.710289690067965 -2.718097899616613 -0.29450036252800543 -8.434860310174578e-06 0.010217150756850292 4.517566678938943e-18 -27.283394183690067 -27.229158289373682 -2.377881046881632 -6.739354189377674e-05 0.08168450782129033 2.467632293701172e-05 -1.569661096935608 1.5700824896441858 0.000350638026855421 1.5700044631958008 3.139777183532715 0.0 0.0 -0.0 -0.0 0.0 -0.0 -0.0436045303940773 -2.745720863342285 -2.691807746887207 -0.29986506700515747 -0.010528221726417542 0.017967727035284042 4.532841475166066e-19 -2.710289690067965 -2.718097899616613 -0.29450036252800543 -8.434860310174578e-06 0.010217150756850292 -0.6053506196680971 -0.13308622748700213 0.45263853814980204 -1.2103461017131458 -1.2099235346580925 1.208160134420861 0.0 0.0 0.0 0.0 0.0 0.0 -0.03935725270231468 1.1271618736908562 0.6886637227598096 -0.08361529639342684 -0.009105854646530112 0.03730800055347924 -0.605340828432161 -0.13308329947883882 0.4526269137853815 -1.2103685267660578 -1.2099459593321706 1.2081262242831954 0.0 0.0 0.0 0.0 0.0 0.0 0 30.75 31.9375 31.0 34.3125 35.6875 35.9375 0.765361 7 253 253 253 253 253 253 1 -0.2298433631658554 -9.461885452270508 0.019153613597154617 1.0 1.0 0.17203182339513506 47.74778747558594 47.79435729980469 0.6725152134895325 47.670928955078125 47.64226531982422 47.670928955078125 47.64226531982422 47.5275993347168 47.61359786987305 0 2
7805.826999999999 7.152557373046875e-07 -1.5696851772120972 1.5700824896441858 0.000350638026855421 1.5699925422668457 3.139801025390625 0.0 0.0 -0.0 -0.0 0.0 -0.0 0.0 0.0 0.0 0.0 0.0 0.0 -1.9790630310601563e-19 -2.7102513694716013 -2.71811742785672 -0.2945245465167074 -7.825352131871783e-06 0.010216714711719088 -1.9723939726592183e-18 -27.283008425687974 -27.229353917920054 -2.378076315396342 -6.252364323054698e-05 0.08168102170928337 4.875659942626953e-05 -1.5696970981410523 1.5700939337359827 0.0003864008137206554 1.570040225982666 3.1397533416748047 0.0 0.0 -0.0 -0.0 0.0 -0.0 0.005730543285608292 -2.6827237606048584 -2.7130038738250732 -0.2967010736465454 -0.010166384279727936 0.003685110015794635 -1.9790630310601563e-19 -2.7102513694716013 -2.71811742785672 -0.2945245465167074 -7.825352131871783e-06 0.010216714711719088 -0.6053306115133958 -0.13309239459797512 0.4526457997232066 -1.2103423550580688 -1.2099345337365826 1.2081287196082877 0.0 0.0 0.0 0.0 0.0 0.0 -0.20468133876128614 0.9226712719826271 0.5439593208329204 -0.09515201141272381 -0.01300718529920753 0.0306483865568602 -0.6053468205051847 -0.13307508762172973 0.45265312819983555 -1.2103516303154442 -1.2098856241716336 1.20818023726806 0.0 0.0 0.0 0.0 0.0 0.0 0 30.75 31.9375 31.0 34.3125 35.6875 35.9375 0.767208 7 253 253 253 253 253 253 1 -0.24899697303771973 -9.385271072387695 0.0 1.0 1.0 0.12870660224321084 47.71375274658203 47.780025482177734 0.7038487195968628 47.65659713745117 47.670928955078125 47.68526077270508 47.64226531982422 47.5275993347168 47.599266052246094 0 2
7805.835 2.467632293701172e-05 -1.5696970981410523 1.5700939337359827 0.0003143984028319835 1.5700044631958008 3.13978910446167 0.0 0.0 -0.0 -0.0 3.0666393286082894e-05 -0.0 0.0 0.0 0.0 0.0 0.0 0.0 2.733997327006303e-12 -2.710206528098439 -2.7181298288876556 -0.2945399318238706 5.2332131279654134e-06 0.010216861068929429 -3.490636837705385e-18 -27.282557025578157 -27.229478148063905 -2.378200540834863 -5.9434989912742706e-05 0.08168219181203497 2.467632293701172e-05 -1.5696851772120972 1.5700824896441858 0.00036255895581049913 1.570028305053711 3.139777183532715 0.0 0.0 -0.0 -0.0 3.161998392897658e-05 -0.0 -0.009394699707627296 -2.71636700630188 -2.6691856384277344 -0.2856384813785553 0.004055079072713852 0.001607515849173069 -3.5024393788050916e-19 -2.7102065280909624 -2.718129828889814 -0.29453993182655197 -7.438781571100558e-06 0.010216861068923567 -0.6053420300422815 -0.13308116655171068 0.4526505775288318 -1.2103484519350751 -1.209897055054382 1.2081483345042745 -4.709044762877951e-09 6.7196776634092645e-06 -1.1585922410847705e-08 2.3928068385865935e-08 -5.450162512822412e-08 -3.1619927904553145e-05 -0.33577582892757196 0.6980432940210222 0.6338464810275548 -0.0916785171089665 -0.015880980786260372 0.022810422671394062 -0.6053435162203724 -0.13308663206778404 0.45266111518410146 -1.2103101322442047 -1.2098731042334008 1.20819763638203 -4.735306273835288e-09 6.517026546907635e-06 -1.123612917119999e-08 2.171491758218435e-08 -5.285664078541531e-08 -3.0666340045962275e-05 0 30.75 31.9375 31.0 34.3125 35.6875 35.9375 0.766344 7 253 253 253 253 253 253 1 -0.2298433631658554 -9.442731857299805 -0.038307227194309235 1.0 1.0 0.09028249555458735 47.7164421081543 47.79704284667969 0.6434228420257568 47.599266052246094 47.65659713745117 47.68526077270508 47.64226531982422 47.5275993347168 47.6279296875 0 2
7805.843 2.467632293701172e-05 -1.5696490567973633 1.5700824896441858 0.000350638026855421 1.570040225982666 3.13978910446167 0.0 0.0 -0.0 -0.0 2.8725460651912726e-05 -0.0 0.0 0.0 0.0 0.0 0.0 0.0 2.399145399230369e-12 -2.710412946939083 -2.718105686224186 -0.2945100249166952 3.6777221610351936e-06 0.010216860150533504 4.769571388456286e-18 -27.28463496087853 -27.22923629348889 -2.3779590638196426 -6.545502306286812e-05 0.08168218446961023 2.467632293701172e-05 -1.5696970981410523 1.5700824896441858 0.000350638026855421 1.5700163841247559 3.1397652626037598 0.0 0.0 -0.0 -0.0 2.7836940716952085e-05 -0.0 -0.025122597813606262 -2.700249671936035 -2.69752836227417 -0.30105558037757874 -0.004912491422146559 0.012212192639708519 4.785698262994527e-19 -2.7104129469325224 -2.718105686226079 -0.29451002491904793 -8.192238612488333e-06 0.01021686015052836 -0.6053401760458897 -0.13308327910892492 0.4526603292375608 -1.2103164675790172 -1.2098939027743127 1.2081596152660226 -4.2047534411478814e-09 5.9157293512229215e-06 -1.0199631247339676e-08 2.0401609430428435e-08 -4.7980600829475056e-08 -2.7836891890356246e-05 -0.29188733633876146 0.9971658061875343 0.5821554326702162 -0.08613753460034097 -0.01627878889383351 0.033440063268306515 -0.6053541183452795 -0.1330790427885741 0.45263123755577855 -1.2103806929705352 -1.2099004600173549 1.208136837213954 -4.216778103588847e-09 6.104552062343024e-06 -1.0525296943494303e-08 2.243281018949355e-08 -4.951204684946028e-08 -2.8725409222338846e-05 0 30.75 31.9375 31.0 34.3125 35.6875 35.9375 0.765733 7 253 253 253 253 253 253 1 -0.26815059781074524 -9.366117477416992 0.19153612852096558 1.0 1.0 0.19077765059465102 47.72718811035156 47.805999755859375 0.6948947906494141 47.65659713745117 47.64226531982422 47.6995964050293 47.64226531982422 47.54193115234375 47.61359786987305 0 2
7805.851 2.467632293701172e-05 -1.5696970981410523 1.5700824896441858 0.0003864008137206554 1.570028305053711 3.1397533416748047 0.0 0.0 -0.0 -0.0 2.547307849454228e-05 -0.0 0.0 0.0 0.0 0.0 0.0 0.0 1.8865516971804612e-12 -2.710186545734221 -2.7181097490420725 -0.29451500509526624 2.4589836115606846e-06 0.010217297098750215 1.1878867807271888e-18 -27.28235587119291 -27.229276993678656 -2.377999275216794 -6.445457981915625e-05 0.08168567780165206 3.6716461181640625e-05 -1.5696970981410523 1.5700939337359827 0.00036255895581049913 1.5700163841247559 3.139777183532715 0.0 0.0 -0.0 -0.0 2.4771879907348193e-05 -0.0 -0.04196041822433472 -2.7072737216949463 -2.6953318119049072 -0.2846297025680542 -0.006420412566512823 0.02854512259364128 1.191903263450309e-19 -2.7101865457290613 -2.7181097490435615 -0.2945150050971163 -8.067024849094383e-06 0.01021729709874617 -0.60533542432201 -0.1330909933709901 0.4526508781014232 -1.2103367649069716 -1.2099143386308655 1.2081662271497502 -3.815353652521916e-09 5.264362107750816e-06 -9.076828596918235e-09 1.873454432421061e-08 -4.2698094491624765e-08 -2.4771836024680467e-05 -0.33982817386409586 1.1139184399590405 0.46678671509685854 -0.09074280384873339 -0.016246960846510294 0.0387838421700393 -0.6053353573380631 -0.13308034644386796 0.4526527257218266 -1.2103396670765392 -1.2099171302803133 1.2081251898397891 -3.7725040500308795e-09 5.413376446854207e-06 -9.333816036086626e-09 1.958012924171185e-08 -4.3907299135308216e-08 -2.5473033128324823e-05 0 30.75 31.9375 31.0 34.3125 35.6875 35.9375 0.7629 7 253 253 253 253 253 253 1 -0.2298433631658554 -9.366117477416992 0.019153613597154617 1.0 1.0 0.060450192777981415 47.730770111083984 47.798831939697266 0.6747510433197021 47.65659713745117 47.65659713745117 47.71392822265625 47.64226531982422 47.5275993347168 47.6279296875 0 2
7805.8589999999995 7.152557373046875e-07 -1.5696731370738526 1.5700824896441858 0.00037447988476557725 1.5699806213378906 3.13981294631958 0.0 0.0 -0.0 -0.0 2.288225368829444e-05 -0.0 0.0 0.0 0.0 0.0 0.0 0.0 1.5220780638103759e-12 -2.710297049042165 -2.7181052944863304 -0.2945095076582191 1.2519862156935943e-06 0.010216568343599111 -4.580878255843139e-18 -27.2834682634761 -27.229232369159714 -2.37795488731826 -6.554451542745597e-05 0.081679851519238 2.467632293701172e-05 -1.5696970981410523 1.5700824896441858 0.00036255895581049913 1.5699806213378906 3.139777183532715 0.0 0.0 -0.0 -0.0 2.231492726423312e-05 -0.0 -0.007731291931122541 -2.7113847732543945 -2.7202305793762207 -0.3045310974121094 -0.00368214538320899 -0.005663279443979263 -4.5963671211709e-19 -2.7102970490380027 -2.7181052944875326 -0.29450950765971196 -8.20343932360863e-06 0.010216568343595845 -0.6053385639501988 -0.13309130017189014 0.45265781287265 -1.2103170819428566 -1.2099233394417175 1.2081891382216976 -3.549504617521477e-09 4.742226101197929e-06 -8.17657354168891e-09 1.6620556887008586e-08 -3.846301790926506e-08 -2.2314887926255796e-05 -0.5136803368533401 0.9025574632806558 0.4442009884169954 -0.0878323402317894 -0.022305304588830337 0.03186123081769882 -0.605347098520696 -0.1330780471952671 0.4526407809288772 -1.210381184426095 -1.2099151776776456 1.208180859468939 -3.5515291451609646e-09 4.8627907949120534e-06 -8.384673266245393e-09 1.786322631863208e-08 -3.9441638271998354e-08 -2.2882212723374908e-05 0 30.75 31.9375 31.0 34.3125 35.6875 35.9375 0.761269 7 253 253 253 253 253 253 1 -0.2106897532939911 -9.404424667358398 0.038307227194309235 1.0 1.0 0.03160412844349456 47.70390319824219 47.780025482177734 0.6546126008033752 47.64226531982422 47.65659713745117 47.65659713745117 47.599266052246094 47.5275993347168 47.61359786987305 0 2
7805.866999999999 2.467632293701172e-05 -1.5696970981410523 1.5700576941119593 0.00036255895581049913 1.570028305053711 3.139801025390625 0.0 0.0 -0.0 -0.0 2.076984674204141e-05 -0.0 0.0 0.0 0.0 0.0 0.0 0.0 1.2542226866250816e-12 -2.710202785495814 -2.718126068031904 -0.29453522350939987 1.024312919014398e-06 0.010216715457434383 2.5874102027179074e-18 -27.282519350346377 -27.229440472832124 -2.3781625245312576 -6.038930415439124e-05 0.08168102767113798 2.467632293701172e-05 -1.5696970981410523 1.5701053778277796 0.000350638026855421 1.5699925422668457 3.1397652626037598 0.0 0.0 -0.0 -0.0 2.0301380573073402e-05 -0.0 -0.03344859555363655 -2.698514938354492 -2.74014949798584 -0.3098217844963074 -0.0023768367245793343 0.009312084876000881 2.5961587539649207e-19 -2.7102027854923842 -2.7181260680328947 -0.2945352235106299 -7.558221907579726e-06 0.010216715457431694 -0.605337086781465 -0.1330883557224868 0.45264649462007256 -1.2103220361031166 -1.2099282802030098 1.208166390079145 -3.1692432940995043e-09 4.3143200277424695e-06 -7.438837106518884e-09 1.534348101600576e-08 -3.499271436853295e-08 -2.030134461705169e-05 -0.6091023190009311 0.5429064865990412 0.008881003289980316 -0.08223175818496815 -0.006657795827058808 0.016626884469156385 -0.6053419141292439 -0.13308198714199848 0.4526727978235602 -1.2103389709437267 -1.2098587401450278 1.2081832317953978 -3.1106738600970186e-09 4.413875598538058e-06 -7.610059070086021e-09 1.4954754942660894e-08 -3.5799143390883766e-08 -2.076981050622574e-05 0 30.75 31.9375 31.0 34.3125 35.6875 35.9375 0.770064 7 253 253 253 253 253 253 1 -0.24899697303771973 -9.346963882446289 0.15322890877723694 1.0 1.0 0.12696473005085637 47.71196365356445 47.780025482177734 0.6702793836593628 47.65659713745117 47.64226531982422 47.670928955078125 47.599266052246094 47.5275993347168 47.61359786987305 0 2
7805.875 2.467632293701172e-05 -1.5696851772120972 1.5700824896441858 0.0003864008137206554 1.5700044631958008 3.1397533416748047 0.0 0.0 -0.0 -0.0 1.9014551071450114e-05 -0.0 0.0 0.0 0.0 0.0 0.0 0.0 1.0510970712701248e-12 -2.710239543892772 -2.7181055445828495 -0.2945098030050887 -3.399854537304142e-07 0.01021729666394374 -2.0721866961188407e-19 -27.28288938232215 -27.22923487455423 -2.377957272030519 -6.549462722227933e-05 0.08168567432545724 7.152557373046875e-07 -1.569661096935608 1.5700824896441858 0.00036255895581049913 1.5699925422668457 3.13978910446167 0.0 0.0 -0.0 -0.0 1.862114186224062e-05 -0.0 0.009591225534677505 -2.7277119159698486 -2.702479362487793 -0.2895205020904541 -0.002750569488853216 0.014222322031855583 -2.0791931736713107e-20 -2.7102395438898985 -2.71810554458368 -0.2945098030061195 -8.197195401268806e-06 0.010217296663941486 -0.6053521999584778 -0.13307467698367634 0.45263601311181906 -1.210369351315635 -1.2099177817504025 1.2081544425923698 -2.8274493286171003e-09 3.957246480030031e-06 -6.8231793579767585e-09 1.4538972718789303e-08 -3.2096574155654364e-08 -1.8621108524518345e-05 -0.5786476166210606 0.8878456601068025 0.2229602660438099 -0.08069946381752603 -0.008696026618188258 0.021708596661517705 -0.605338812435324 -0.13308541298299584 0.45264551662447083 -1.2103371442938664 -1.20994343930638 1.2081371261339409 -2.9122677492463624e-09 4.040851253887237e-06 -6.9673973313888065e-09 1.4842390089998172e-08 -3.277489367734584e-08 -1.9014517031957068e-05 0 30.75 31.9375 31.0 34.3125 35.6875 35.9375 0.762805 7 253 253 253 253 253 253 1 -0.13407529890537262 -9.423578262329102 0.09576806426048279 1.0 1.0 0.07349857532490564 47.72629165649414 47.80152130126953 0.6680382490158081 47.65659713745117 47.65659713745117 47.6995964050293 47.6279296875 47.5275993347168 47.61359786987305 0 2
7805.883 1.2755393981933594e-05 -1.5696851772120972 1.5700576941119593 0.0003864008137206554 1.5700044631958008 3.13978910446167 0.0 0.0 -0.0 -0.0 1.7532820493215695e-05 -0.0 0.0 0.0 0.0 0.0 0.0 0.0 8.936678456929738e-13 -2.710247835220004 -2.7181138763600443 -0.2945201108192848 -6.925847463494104e-07 0.010216860249572197 -2.877038395216612e-18 -27.282972847776687 -27.229318340008767 -2.3780405003003735 -6.341979268569295e-05 0.08168218526143478 3.6716461181640625e-05 -1.5696731370738526 1.5701053778277796 0.00036255895581049913 1.5700163841247559 3.1397533416748047 0.0 0.0 -0.0 -0.0 1.7197771740029566e-05 -0.0 0.024741515517234802 -2.7134604454040527 -2.770580291748047 -0.3079449236392975 0.0045098476111888885 0.0012772484915331006 -2.886766237293503e-19 -2.7102478352175603 -2.71811387636075 -0.2945201108201613 -7.937512663263787e-06 0.010216860249570284 -0.6053408327437408 -0.1330901668923045 0.45262944316480946 -1.2103452688043799 -1.209951692546036 1.208131932781312 -2.6342900957752235e-09 3.654760884691745e-06 -6.301685358715776e-09 1.3615265988649396e-08 -2.9643221069401595e-08 -1.7197740802969916e-05 -0.7162192251172673 0.9885151642935497 0.35489035558112536 -0.07884420799587598 -0.01093899285116256 0.025889377424966525 -0.6053437422165692 -0.13307943270612452 0.4526605216135648 -1.2103508619467378 -1.2098994740349056 1.208166379021329 -2.662888660468256e-09 3.725963353355014e-06 -6.424278605634808e-09 1.3250684953869882e-08 -3.022043652269151e-08 -1.753278944126943e-05 0 30.75 31.9375 31.0 34.3125 35.6875 35.9375 0.759672 7 253 253 253 253 253 253 1 -0.2298433631658554 -9.442731857299805 -0.05746084079146385 1.0 1.0 0.08943153852510763 47.690467834472656 47.76569747924805 0.6725152134895325 47.64226531982422 47.65659713745117 47.68526077270508 47.599266052246094 47.5275993347168 47.584930419921875 0 2
7805.891 2.467632293701172e-05 -1.5696731370738526 1.5700700918780726 0.00036255895581049913 1.570040225982666 3.13978910446167 0.0 0.0 -0.0 -0.0 1.6265339581877925e-05 -0.0 0.0 0.0 0.0 0.0 0.0 0.0 7.692182994792024e-13 -2.710305664040019 -2.718113951515288 -0.2945202330021484 -1.2144754612492217e-06 0.010216860570981064 1.838395676509303e-18 -27.28355498720876 -27.229319092892375 -2.3780414868391424 -6.34049403969994e-05 0.08168218783105005 4.875659942626953e-05 -1.5696731370738526 1.5700824896441858 0.00036255895581049913 1.5700163841247559 3.139801025390625 0.0 0.0 -0.0 -0.0 1.5976571376086213e-05 -0.0 -0.023441975936293602 -2.6698598861694336 -2.7801878452301025 -0.30342942476272583 0.00033382605761289597 0.0055230604484677315 1.8446116598780533e-19 -2.7103056640379157 -2.718113951515895 -0.29452023300290275 -7.935653776241438e-06 0.010216860570979416 -0.6053423169976762 -0.13309910770564182 0.45264329722091984 -1.210357838610748 -1.2099211454791439 1.2081866938779902 -2.514769878928364e-09 3.3952391455133114e-06 -5.854066722200668e-09 1.2283114186713463e-08 -2.753763580204321e-08 -1.5976542922012182e-05 -0.8779170400048342 1.0080385297250118 0.06295812141771724 -0.07204301465147843 -0.0007958847412207588 0.02077446419051594 -0.6053471967007116 -0.13307904321408964 0.45265078422703386 -1.21036261009741 -1.2098823866276145 1.2081484706738002 -2.3878719503738742e-09 3.456606440255981e-06 -5.95971928440216e-09 1.2302796519858599e-08 -2.8035389744728067e-08 -1.6265310767763537e-05 0 30.75 31.9375 31.0 34.3125 35.6875 35.9375 0.760908 7 253 253 253 253 253 253 1 -0.2298433631658554 -9.366117477416992 0.09576806426048279 1.0 1.0 0.07372977142612148 47.74509811401367 47.79435729980469 0.6971306204795837 47.670928955078125 47.64226531982422 47.68526077270508 47.599266052246094 47.51326370239258 47.6279296875 0 2
