UthiraS/rtde-2.8/rtde/examples/Validation/robot_data_shy.csv
timestamp target_q_0 target_q_1 target_q_2 target_q_3 target_q_4 target_q_5 target_qd_0 target_qd_1 target_qd_2 target_qd_3 target_qd_4 target_qd_5 target_qdd_0 target_qdd_1 target_qdd_2 target_qdd_3 target_qdd_4 target_qdd_5 target_current_0 target_current_1 target_current_2 target_current_3 target_current_4 target_current_5 target_moment_0 target_moment_1 target_moment_2 target_moment_3 target_moment_4 target_moment_5 actual_q_0 actual_q_1 actual_q_2 actual_q_3 actual_q_4 actual_q_5 actual_qd_0 actual_qd_1 actual_qd_2 actual_qd_3 actual_qd_4 actual_qd_5 actual_current_0 actual_current_1 actual_current_2 actual_current_3 actual_current_4 actual_current_5 joint_control_output_0 joint_control_output_1 joint_control_output_2 joint_control_output_3 joint_control_output_4 joint_control_output_5 actual_TCP_pose_0 actual_TCP_pose_1 actual_TCP_pose_2 actual_TCP_pose_3 actual_TCP_pose_4 actual_TCP_pose_5 actual_TCP_speed_0 actual_TCP_speed_1 actual_TCP_speed_2 actual_TCP_speed_3 actual_TCP_speed_4 actual_TCP_speed_5 actual_TCP_force_0 actual_TCP_force_1 actual_TCP_force_2 actual_TCP_force_3 actual_TCP_force_4 actual_TCP_force_5 target_TCP_pose_0 target_TCP_pose_1 target_TCP_pose_2 target_TCP_pose_3 target_TCP_pose_4 target_TCP_pose_5 target_TCP_speed_0 target_TCP_speed_1 target_TCP_speed_2 target_TCP_speed_3 target_TCP_speed_4 target_TCP_speed_5 actual_digital_input_bits joint_temperatures_0 joint_temperatures_1 joint_temperatures_2 joint_temperatures_3 joint_temperatures_4 joint_temperatures_5 actual_execution_time robot_mode joint_mode_0 joint_mode_1 joint_mode_2 joint_mode_3 joint_mode_4 joint_mode_5 safety_mode actual_tool_accelerometer_0 actual_tool_accelerometer_1 actual_tool_accelerometer_2 speed_scaling target_speed_fraction actual_momentum actual_main_voltage actual_robot_voltage actual_robot_current actual_joint_voltage_0 actual_joint_voltage_1 actual_joint_voltage_2 actual_joint_voltage_3 actual_joint_voltage_4 actual_joint_voltage_5 actual_digital_output_bits runtime_state
7452.554 -0.6595009008990687 -0.8768502038768311 1.6224125067340296 -0.7119714778712769 0.7383000254631042 2.956007480621338 0.2713194787502289 -0.0002683124621398747 4.069374898176052e-28 -0.00036787279532290995 0.010835457593202591 -0.00018559243471827358 0.0 0.0 0.0 0.0 0.0 0.0 1.01888540329235 -4.914754448079149 -2.1044582797970124 -0.37185483773730876 0.0441988666900678 -0.05362513509695053 -1.0069591436040738e-15 -50.557418184909125 -19.67397614760505 -1.4155780100546151 -0.061352986043336215 0.09608440189182829 -0.6589601675616663 -0.8768981856158753 1.6223991552936 -0.7119595569423218 0.7383836507797241 2.956043243408203 0.27083462476730347 -0.00025207572616636753 5.459585581264172e-30 -0.0003513248229864985 0.010118847712874413 -0.00018095236737281084 0.9941200017929077 -4.885486602783203 -2.097822666168213 -0.3747004270553589 0.02921135537326336 -0.043151505291461945 -1.0103638738096728e-16 -5.022294819349388 -1.9639164999375622 -0.1753192144302031 -0.007678834682754948 0.012018298765518515 -0.7310206985325639 0.2049807675592301 0.08413073095118327 -1.007623994640098 -1.4135130364131905 1.2067226310724588 -0.055876462378754835 -0.19580867166140323 0.00017578461182229596 0.0008125698422434082 0.0002947659171527924 0.26072552297679996 -23.174198548046963 5.09495915576714 -12.291466862134428 0.40433093836130285 1.2489523420382935 -0.7292582526662993 -0.730901514643102 0.2053550413971076 0.08409354214428189 -1.007917313060646 -1.413238380355012 1.206377240965602 -0.05610079429212268 -0.19597747298622367 0.00018576405123908239 0.0008565453420583881 0.0003056129712854308 0.2604942967732265 0 30.5 31.25 30.6875 33.9375 35.1875 35.375 0.864061 7 253 253 253 253 253 253 1 1.5322890281677246 -9.442731857299805 -0.26815056800842285 1.0 1.0 1.534621101501591 47.73255920410156 47.811370849609375 0.7777001857757568 47.64226531982422 47.6279296875 47.68526077270508 47.6279296875 47.54193115234375 47.584930419921875 0 2
7452.562 -0.6572907606707972 -0.8768502038768311 1.622387711201803 -0.7119714778712769 0.7383708357810974 2.956043243408203 0.2693127989768982 -0.00025718615506775677 1.3184256821129576e-35 -0.00034291474730707705 0.007467700634151697 -0.00016826653154566884 0.0 0.0 0.0 0.0 0.0 0.0 0.9958786583133253 -4.923698520823749 -2.117138223157038 -0.37578210724464006 0.0496098106445934 -0.05228116950028894 -5.688894974707658e-16 -50.558052558112266 -19.67461052080819 -1.415794367528595 -0.061304013801661145 0.09608311405287319 -0.6567266623126429 -0.8768742841533204 1.6223991552936 -0.711983398800232 0.7384426593780518 2.956043243408203 0.2711403965950012 -0.00028337747789919376 1.7688366307417874e-37 -0.0003255890333093703 0.006358633749186993 -0.00016442377818748355 0.992857813835144 -4.925707817077637 -2.090177536010742 -0.38132673501968384 0.0661512166261673 -0.052023034542798996 -5.708130266109393e-17 -5.022357836990835 -1.963979825011834 -0.1753460102846914 -0.007672705400838642 0.012018137681794003 -0.7314796425131719 0.20336081352190205 0.08411701506622296 -1.0063249911246448 -1.4149449192339452 1.2083036700647993 -0.05538847214830666 -0.19694952205128094 0.00021366223858883254 0.0007005892937622096 0.000377013944202303 0.26478902413912936 -22.915353350464976 4.398176789653947 -10.417369133940312 0.36173922935845554 1.2447452202530036 -0.7642729594937344 -0.7313634809017091 0.20375896689243422 0.08410367984149232 -1.006643939552562 -1.4146270917399821 1.207952909281827 -0.05515751566645912 -0.19534763396090965 0.00019190863150385867 0.0007283502124020437 0.0003468649318736842 0.2618530751148964 0 30.5 31.25 30.6875 33.9375 35.1875 35.375 0.83934 7 253 253 253 253 253 253 1 1.7046716213226318 -9.289502143859863 -0.24899697303771973 1.0 1.0 1.53054144666425 47.712860107421875 47.793460845947266 0.8045620322227478 47.65659713745117 47.64226531982422 47.670928955078125 47.61359786987305 47.5562629699707 47.584930419921875 0 2
7452.57 -0.6551168600665491 -0.8768986624530335 1.6224125067340296 -0.711983398800232 0.7385256886482239 2.956031322479248 0.26971423625946045 -0.001863258657976985 4.273960316190692e-43 -0.0003542554040905088 0.004337335471063852 -0.0001346893550362438 0.0 0.0 0.0 0.0 0.0 0.0 0.9750621286716664 -4.951135092182143 -2.1395001003021332 -0.3816001767992728 0.055087110379347985 -0.05013620557635475 1.1556977602193757e-15 -50.5570563153503 -19.675413090861163 -1.4161980243854353 -0.061231128110122233 0.09608664257935484 -0.6545408407794397 -0.8769350212863465 1.6223638693438929 -0.7120196384242554 0.738561749458313 2.9560790061950684 0.26785480976104736 -0.002572800265625119 -0.0006743802805431187 -0.00038936338387429714 0.0046026138588786125 -0.00013183116971049458 0.9745982885360718 -4.932995796203613 -2.078665256500244 -0.38940805196762085 0.04097331315279007 -0.04796653985977173 1.1596054054279773e-16 -5.0222588717936025 -1.9640599400103256 -0.17539600315158957 -0.007663583152482708 0.012018579032154973 -0.7319449760007153 0.20179994581874988 0.08417935104201918 -1.004985680792276 -1.4162516053638095 1.2098008475059308 -0.054616099781649455 -0.19476078317177792 0.002133899391499896 0.0024651632154798014 0.00281114761421542 0.2632581599216373 -24.479467515098708 5.186132425049935 -10.619270231694959 0.34336636544561316 1.2876988812993067 -0.7840092210687788 -0.7318059408893245 0.20219874292056797 0.08412803777787266 -1.0053910766340157 -1.415951633940742 1.209401284652645 -0.054825753182208024 -0.1963428971905674 0.001339815321392636 0.0015977628542662929 0.001690782694422835 0.2653823986447468 0 30.5 31.25 30.6875 33.9375 35.1875 35.375 0.830221 7 253 253 253 253 253 253 1 1.436521053314209 -9.327810287475586 -0.2106897532939911 1.0 1.0 1.5546529991204259 47.70121383666992 47.78450393676758 0.8157517910003662 47.670928955078125 47.65659713745117 47.6995964050293 47.61359786987305 47.5562629699707 47.6279296875 0 2
7452.5779999999995 -0.6529091040240687 -0.8769599956325074 1.6223509947406214 -0.7120319169810791 0.738527238368988 2.956019401550293 0.2656238377094269 -0.005414219107478857 -0.0019336655968800187 -0.0013241606066003442 0.008629973977804184 -0.0001240413257619366 0.0 0.0 0.0 0.0 0.0 0.0 0.9395093557762011 -4.982672240769315 -2.164884735599789 -0.3889112011187347 0.06606728339049191 -0.048106086383324705 -4.0149552778575336e-16 -50.5574384584722 -19.67807206414189 -1.4167862297494482 -0.060918254453626884 0.09609847257202207 -0.6523802916156214 -0.8769480747035523 1.6223629156695765 -0.7120199960521241 0.7385638952255249 2.956031322479248 0.26368629932403564 -0.005394665990024805 -0.0024337887298315763 -0.0013390003005042672 0.010206923820078373 -0.00012164616782683879 0.9516360759735107 -5.008881092071533 -2.1604933738708496 -0.40299564599990845 0.06896938383579254 -0.05212590843439102 -4.028530644440654e-17 -5.0222968332934235 -1.9643253668594653 -0.17546885233518095 -0.007624424421347438 0.012020058735243812 -0.7323807892257398 0.20022102480090195 0.08418924251088926 -1.0036400778497028 -1.4176817396864358 1.2113333521424359 -0.05438385259289576 -0.1900010117339395 0.004985542803234616 0.005956567999790352 0.007090835283489832 0.2534891642179535 -25.467376500871914 4.816163419728131 -10.333017761376992 0.3144926730577208 1.30196245223227 -0.8131263970670936 -0.7322796154344804 0.2006054970780943 0.08420473463051098 -1.0038894518325876 -1.4173498362252246 1.2109596940322043 -0.054661575949256004 -0.19184723097092574 0.004789616580443058 0.005619693657324668 0.006727992486323638 0.2570025265910862 0 30.5 31.25 30.6875 33.9375 35.1875 35.375 0.8307 7 253 253 253 253 253 253 1 1.5131354331970215 -9.557653427124023 -0.3064578175544739 1.0 1.0 1.6047786743024663 47.71554183959961 47.795249938964844 0.7239871025085449 47.670928955078125 47.6279296875 47.670928955078125 47.61359786987305 47.5562629699707 47.584930419921875 0 2
7452.585999999999 -0.6507709662066858 -0.8769847911647339 1.6223633925067347 -0.7119960349849244 0.7386486530303955 2.956055164337158 0.2636317014694214 -0.007576053496450186 -0.0019624067936092615 -0.0010451326379552484 0.012395698577165604 -6.882820889586583e-05 0.0 0.0 0.0 0.0 0.0 0.0 0.9174234318536603 -5.018359584812715 -2.18767617899453 -0.39426039358531656 0.07435933144224925 -0.045317220320791086 3.461166046841346e-16 -50.55687049166584 -19.678424598089553 -1.4169297932094913 -0.06095485788923573 0.0960942244635743 -0.6502788702594202 -0.8770092886737366 1.6223281065570276 -0.7120558184436341 0.7386606931686401 2.956019401550293 0.2628251910209656 -0.008361722342669964 -0.0016382916364818811 -0.0008777572656981647 0.01278393529355526 -3.522767292452045e-05 0.9175766706466675 -5.010929107666016 -2.1703011989593506 -0.38211819529533386 0.06899558752775192 -0.04745997488498688 3.472868941304468e-17 -5.0222404123595314 -1.9643605578768484 -0.17548663265732276 -0.007629005644674738 0.012019527379107869 -0.7328220650979027 0.19871674504740358 0.08425202781864775 -1.0022966696322682 -1.4189620466637622 1.2127510104237378 -0.05378163791357049 -0.18904485664232257 0.0066509476452768735 0.006956692783231119 0.008397924021442954 0.2500502054252193 -25.334438794927742 4.629567048993176 -8.54157629799681 0.28677247811265427 1.2802131853739918 -0.828001309984568 -0.7327041029859347 0.19905873301140092 0.08421087802160042 -1.002733412823812 -1.4186732337018129 1.2124547072856828 -0.05409236937236093 -0.18962779951017886 0.0062635743454989064 0.006807318772718354 0.008173111171071236 0.2512456763652026 0 30.5 31.25 30.6875 33.9375 35.1875 35.375 0.829801 7 253 253 253 253 253 253 1 1.5322890281677246 -9.461885452270508 -0.40222588181495667 1.0 1.0 1.5661925751888885 47.71375274658203 47.78450393676758 0.7329410910606384 47.65659713745117 47.64226531982422 47.670928955078125 47.61359786987305 47.54193115234375 47.599266052246094 0 2
7452.594 -0.6487425009356897 -0.8770698469928284 1.6223509947406214 -0.7120558184436341 0.73880535364151 2.956043243408203 0.26047587394714355 -0.010298304259777069 -0.0011300159385427833 -0.0007895800517871976 0.013947326689958572 -1.3620999084196228e-07 0.0 0.0 0.0 0.0 0.0 0.0 0.8919603110501606 -5.054334495065939 -2.2097665461875167 -0.39966403907535636 0.08200354095733563 -0.04259922216970473 4.894304070605525e-16 -50.55617832754953 -19.68089016134146 -1.4177528256197525 -0.060659911937814504 0.09610543991098533 -0.6482141653644007 -0.8770820659450074 1.622375790272848 -0.7120438379100342 0.7387813925743103 2.9560670852661133 0.25849395990371704 -0.01098624523729086 -0.0010711535578593612 -0.0007043385994620621 0.014868454076349735 -8.893539238385983e-09 0.9239866733551025 -5.045759677886963 -2.2202277183532715 -0.39719533920288086 0.07211217284202576 -0.04262113198637962 4.9108526912823623e-17 -5.022171653859192 -1.9646066779450913 -0.17558856515033458 -0.007592090714410192 0.012020930214480946 -0.7332222364686548 0.19721776596193497 0.0842800665469649 -1.001155885911988 -1.420220812142817 1.2141934280007625 -0.05256918525657653 -0.18557031513199845 0.008217366527913975 0.008095612700179167 0.009865591263558342 0.24363460975912798 -26.709926538580444 4.918661074563861 -8.446024394671884 0.2844366536043693 1.3097273341453435 -0.8479495088290957 -0.7331274150386223 0.19761746702216781 0.08428388888930946 -1.00144320571203 -1.4198591793960889 1.2137682826460177 -0.053017750378932756 -0.18720240381876208 0.007775853398642443 0.007748245023482295 0.009447007840918061 0.24653712489775956 0 30.5 31.25 30.6875 33.9375 35.1875 35.375 0.833556 7 253 253 253 253 253 253 1 1.4173674583435059 -9.557653427124023 -0.47884035110473633 1.0 1.0 1.377752185269683 47.70658874511719 47.77375411987305 0.6568484306335449 47.61359786987305 47.599266052246094 47.64226531982422 47.584930419921875 47.498931884765625 47.5562629699707 0 2
7452.602 -0.6466911474810999 -0.8771544259837647 1.6223509947406214 -0.712032215004303 0.7389508485794067 2.9560670852661133 0.2514480948448181 -0.011908918619155884 -0.0017253922997042537 -0.0023020459339022636 0.018964668735861778 -2.4755492794570344e-12 0.0 0.0 0.0 0.0 0.0 0.0 0.8593229178590132 -5.082571364828225 -2.232240457240902 -0.4059553054341875 0.09150223907107145 -0.04029290454157666 3.265295815468934e-16 -50.55493904095788 -19.68279112086404 -1.4182283897911518 -0.06054120103561099 0.09610756571448197 -0.646163288746969 -0.8771908444217225 1.622291390095846 -0.7120564144900818 0.7389872670173645 2.956043243408203 0.2500576674938202 -0.013093414716422558 -0.0022999620996415615 -0.0025295161176472902 0.020065363496541977 -1.6163567879978746e-13 0.8491806983947754 -5.069497585296631 -2.2042901515960693 -0.3937833905220032 0.10029494017362595 -0.033423423767089844 3.2763364335156127e-17 -5.0220485450681895 -1.964796437541428 -0.17564746373193776 -0.007577233061150778 0.012021196111349079 -0.7336675011900271 0.19578440428621044 0.08439392086490147 -0.9998218416077345 -1.4213777034629966 1.2154667566698591 -0.051453740868932514 -0.1778568206662325 0.010466971207879013 0.011319774872564635 0.013895583010507315 0.23000456180619533 -27.28345242070563 4.684013460132447 -8.12149918151189 0.26766586970931827 1.3197211809266278 -0.8757620564282002 -0.7335385219781249 0.19614490141560448 0.08433915355680435 -1.0002569933601544 -1.4210857083488604 1.215154223829161 -0.05149401630719793 -0.17928896639218456 0.009357438053688365 0.010102374043066641 0.012326009182663782 0.2324948275286917 0 30.5 31.25 30.6875 33.9375 35.1875 35.375 0.831108 7 253 253 253 253 253 253 1 1.4748282432556152 -9.53849983215332 -0.47884035110473633 1.0 1.0 1.4119626697603203 47.694053649902344 47.78181838989258 0.7105615139007568 47.64226531982422 47.64226531982422 47.65659713745117 47.599266052246094 47.54193115234375 47.584930419921875 0 2
7452.61 -0.6446750799762171 -0.8772754234126587 1.6223276297198694 -0.7121055287173768 0.7391326427459717 2.9560790061950684 0.24745695292949677 -0.014628715813159943 -0.002917883452028036 -0.005661402828991413 0.023850779980421066 -4.4991882146531173e-17 0.0 0.0 0.0 0.0 0.0 0.0 0.8399196163283682 -5.109880944575783 -2.249090918985746 -0.41101960996566145 0.09934531174233943 -0.038138132297394066 -6.160945526313805e-16 -50.55395577632674 -19.68630062892038 -1.419305283865592 -0.060134789767942516 0.09612064519164536 -0.6441829840289515 -0.8773117822459717 1.6222789923297327 -0.712070421581604 0.7391571998596191 2.9560670852661133 0.24530309438705444 -0.015379597432911396 -0.003293453250080347 -0.008086029440164566 0.02596263214945793 -2.93764840024021e-18 0.897111177444458 -5.131587028503418 -2.2419769763946533 -0.4060819745063782 0.08993808180093765 -0.03842250257730484 -6.181776915016839e-17 -5.021950869098167 -1.9651467673744423 -0.17578083697015873 -0.007526367322758996 0.012022832100762047 -0.7340723644626823 0.19437585953444345 0.08448539751698214 -0.9986052020855585 -1.4225128211893752 1.21676344265528 -0.05146157962174577 -0.172422242929818 0.013271925375996047 0.01675875749055135 0.020858458857854128 0.21935533477174243 -27.363945892591865 3.9938010475311376 -8.1489510754411 0.27013855581555296 1.32213769192357 -0.8889939815635725 -0.7339616343752006 0.19472090448911908 0.0844438941345777 -0.9989461348681091 -1.4222180060554939 1.216443735033637 -0.05145604643217318 -0.17474646132057386 0.012244180197907763 0.014577191127255307 0.01805702157785941 0.22362019393649876 0 30.5 31.25 30.6875 33.9375 35.1875 35.375 0.844765 7 253 253 253 253 253 253 1 1.5705963373184204 -9.576807022094727 -0.3447650372982025 1.0 1.0 1.426599593904419 47.718231201171875 47.79704284667969 0.7732232213020325 47.670928955078125 47.64226531982422 47.670928955078125 47.61359786987305 47.54193115234375 47.584930419921875 0 2
7452.6179999999995 -0.6427286306964319 -0.8774441641620179 1.6222661177264612 -0.7121577423862 0.7393522262573242 2.9560670852661133 0.24837470054626465 -0.016130609437823296 -0.004741149954497814 -0.017932262271642685 0.03469783440232277 -8.177051435256495e-22 0.0 0.0 0.0 0.0 0.0 0.0 0.8375517233458237 -5.127310321876495 -2.2587695901705445 -0.41711966070314593 0.10691292214710754 -0.03641350798914948 -4.974895599398464e-16 -50.55293438188407 -19.691545525721736 -1.4206710396015958 -0.059608451173538725 0.09613986087661956 -0.6422727743731897 -0.8774326008609314 1.6222780386554163 -0.7122059029391785 0.7394258379936218 2.9560790061950684 0.24677476286888123 -0.017407696694135666 -0.004954326432198286 -0.01888955757021904 0.03874144330620766 -5.339030170286257e-23 0.7998824119567871 -5.1175947189331055 -2.2686381340026855 -0.4283703863620758 0.10390377044677734 -0.027600642293691635 -4.991716716148394e-17 -5.021849405372326 -1.9656703290221422 -0.17594998570024567 -0.007460491685496198 0.012025235610993229 -0.7344741295876192 0.19304642006240083 0.08458882270592627 -0.9973692146475348 -1.4235069655567645 1.2179017585500964 -0.05372154291759383 -0.16952976254001617 0.01690306482792506 0.025742077143646364 0.03222918683272186 0.20805359950053112 -26.913360381755744 3.6938345548255 -7.475373124752465 0.2601682298735253 1.3024362349657803 -0.8974729770880904 -0.7343829109337352 0.19336558269263776 0.08459564864790466 -0.9976144035516648 -1.4232666329636505 1.217622672206032 -0.053715017410445265 -0.17171955526905822 0.01579477608642088 0.02418465597870482 0.030340153264106006 0.2136950449449059 0 30.5 31.25 30.6875 33.9375 35.1875 35.375 0.835068 7 253 253 253 253 253 253 1 1.7046716213226318 -9.519346237182617 -0.4596867263317108 1.0 1.0 1.3371070320214777 47.71464920043945 47.77375411987305 0.7911257743835449 47.64226531982422 47.61359786987305 47.64226531982422 47.584930419921875 47.51326370239258 47.584930419921875 0 2
7452.625999999999 -0.6407969633685511 -0.8775291603854676 1.622230354939596 -0.7122621697238465 0.7397364377975464 2.956043243408203 0.24156944453716278 -0.018893558531999588 -0.004909913521260023 -0.009452899917960167 0.06801176816225052 -1.4861387571313574e-26 0.0 0.0 0.0 0.0 0.0 0.0 0.8288205940262594 -5.146719567754036 -2.263869320633994 -0.41425836805456545 0.12310564275243492 -0.034747381196527004 3.0879130062669946e-15 -50.55328097268939 -19.69504883622718 -1.4221402719362197 -0.059178608923719615 0.09615673587577243 -0.6403287092791956 -0.8776014012149354 1.622218434010641 -0.7122607988170166 0.7398735880851746 2.9560670852661133 0.24160340428352356 -0.01925603672862053 -0.00446979608386755 -0.005013046786189079 0.0827408879995346 -9.703424394385877e-28 0.850915253162384 -5.134926795959473 -2.31680965423584 -0.4238606095314026 0.12259422987699509 -0.0462842620909214 3.0983538575681404e-16 -5.0218838351606445 -1.9660200401966617 -0.1761319499981453 -0.007406693365497673 0.01202734634673695 -0.7348992229607263 0.1917393757747139 0.08473907154018454 -0.9961737093245573 -1.424409440839366 1.2189068084610268 -0.05232696425074198 -0.1577996193851188 0.015790615984708736 0.019297791153928406 0.021395295373148555 0.15890810856317159 -25.915755091534173 2.529248606664944 -6.838193834257819 0.25535664209472986 1.3130596950836395 -0.9223763081397933 -0.7347966775435832 0.19204936919959031 0.08468407874449002 -0.9964367547728437 -1.4242245466655878 1.218670530485563 -0.052505832895257454 -0.16037868390995383 0.016434235890058792 0.021643905002837558 0.025291104508268093 0.17359507057102186 0 30.5 31.25 30.6875 33.9375 35.1875 35.375 0.834493 7 253 253 253 253 253 253 1 1.5705962181091309 -9.710882186889648 -0.40222588181495667 1.0 1.0 1.4110267419730649 47.70658874511719 47.79435729980469 0.7799360156059265 47.670928955078125 47.65659713745117 47.670928955078125 47.6279296875 47.54193115234375 47.584930419921875 0 2
7452.634 -0.6389105955706995 -0.8777348560145875 1.622206989918844 -0.712282733326294 0.7405686974525452 2.9560670852661133 0.24219758808612823 -0.02355766110122204 -0.003784145461395383 0.001167770940810442 0.14856362342834473 -2.700983210844845e-31 0.0 0.0 0.0 0.0 0.0 0.0 0.8432594405777549 -5.167100353366424 -2.2563003295497546 -0.40670535722831447 0.15556454960902133 -0.032721502898211935 -2.013056538717796e-15 -50.55187037674791 -19.701278601579624 -1.4245124464101881 -0.05868227157125927 0.09617194850416913 -0.638430420552389 -0.8777948182872315 1.622218434010641 -0.7122578781894227 0.7408621907234192 2.9560790061950684 0.24352723360061646 -0.023398203775286674 -0.003554013790562749 0.0034111731220036745 0.1659407615661621 -1.763549211879759e-32 0.8758219480514526 -5.167145729064941 -2.267448663711548 -0.4156726896762848 0.13886883854866028 -0.029814280569553375 -2.0198630853850418e-16 -5.021743708766864 -1.9666419144367548 -0.17642574360211027 -0.007344572632307488 0.012029249152077676 -0.7353072334463749 0.1905596899360308 0.08486981723049089 -0.9954418381448792 -1.424964791935595 1.219508511960133 -0.05427760136297016 -0.1425946039155932 0.016694406382634256 0.01825020390656293 0.01564085070443922 0.07767595648759792 -23.122483055707328 2.0617512081066627 -3.9445995547379122 0.21771873468633715 1.2681565371217345 -0.9190119943862655 -0.7352085116464615 0.19085361437214418 0.08483764043463587 -0.9955691234748171 -1.4248464489005905 1.219377193896642 -0.053832977627698904 -0.14498739836062752 0.01731317067113408 0.019392296861134643 0.018082940728135308 0.09371424884171276 0 30.5 31.25 30.6875 33.9375 35.1875 35.375 0.830544 7 253 253 253 253 253 253 1 1.9153614044189453 -9.366117477416992 -0.3447650372982025 1.0 1.0 1.2421958615010507 47.71464920043945 47.777339935302734 0.7575564384460449 47.6279296875 47.64226531982422 47.65659713745117 47.599266052246094 47.5275993347168 47.584930419921875 0 2
7452.642 -0.6369746367083948 -0.8779530686191102 1.622195068989889 -0.7122463148883362 0.7420324087142944 2.9560673236846924 0.25063610076904297 -0.029104795306921005 -0.003159364452585578 0.0026966179721057415 0.186719611287117 0.0004007798561360687 0.0 0.0 0.0 0.0 0.0 0.0 0.8680021058147054 -5.18849559647603 -2.2468381700060713 -0.4017946800625383 0.16938276678622968 -0.030084653002493366 2.6568918438882285e-15 -50.5509664414272 -19.708481385125783 -1.427840536444427 -0.05825736151309998 0.09618669142694358 -0.6364701429950159 -0.8780375880054017 1.622183624898092 -0.712234691982605 0.742465078830719 2.956103563308716 0.24963420629501343 -0.03060665726661682 -0.00268702139146626 0.0018387115560472012 0.18868137896060944 0.0004274642269592732 0.8635948896408081 -5.1837921142578125 -2.2486982345581055 -0.39928627014160156 0.16833367943763733 -0.015811169520020485 2.6658753264568645e-16 -5.0216539132464195 -1.967360918330307 -0.17683792726575256 -0.00729139161697206 0.012031093206337178 -0.7357579311871347 0.18947097012717165 0.08504442508956955 -0.9949873400261837 -1.4251491413499422 1.2196878487064615 -0.05629612568367476 -0.1421967834466176 0.02152293013695253 0.023045994067568392 0.021541379729360037 0.06104268291955763 -24.695144033795543 2.6791616837553196 -4.543758382342839 0.2250646352930413 1.3210291979794104 -0.93966646389792 -0.7356400934146744 0.1897468912911745 0.08498394831464973 -0.995086476192986 -1.4251309724569343 1.219639127518532 -0.05645029154782336 -0.14333867179971374 0.020550731559691133 0.021922798820422536 0.020046762693206273 0.0640068065711902 0 30.5 31.25 30.6875 33.9375 35.1875 35.375 0.830113 7 253 253 253 253 253 253 1 1.742978811264038 -9.500192642211914 -0.3064578175544739 1.0 1.0 1.407524025756513 47.725399017333984 47.80331039428711 0.8112748265266418 47.65659713745117 47.64226531982422 47.68526077270508 47.61359786987305 47.54193115234375 47.584930419921875 0 2
7452.65 -0.6349704901324671 -0.8782195013812562 1.622148338948385 -0.7122953099063416 0.7437235116958618 2.956055164337158 0.24542392790317535 -0.03556929901242256 -0.00230896333232522 -0.00022620122763328254 0.2175111174583435 0.00035000761272385716 0.0 0.0 0.0 0.0 0.0 0.0 0.8534068101055737 -5.220051401323939 -2.2539499527595335 -0.4060949411567048 0.18571410169277 -0.02923358496963788 -1.7424804697045027e-15 -50.55065052518279 -19.718065584491434 -1.4321536570277484 -0.05751592831659025 0.0962134060135651 -0.6344903151141565 -0.8783160609057923 1.6221359411822718 -0.7122953695109864 0.7441878318786621 2.9560790061950684 0.2442118376493454 -0.03691129758954048 -0.0023696809075772762 -0.0005848010769113898 0.241405189037323 0.00029186808387748897 0.8356835842132568 -5.233471870422363 -2.2635908126831055 -0.40483084321022034 0.17709071934223175 -0.02273053303360939 -1.748372144580839e-16 -5.021622530620989 -1.9683176424379136 -0.17737210687792487 -0.0071985951076011315 0.01203443468400778 -0.7362304727322247 0.18840532334160084 0.08526168213180295 -0.9944202670487832 -1.4252421625796652 1.2197276008876254 -0.05737537761262872 -0.1268554370437657 0.025944088369232256 0.029385047440519195 0.027416155984409038 0.002922951223789844 -26.5753839912834 3.0661297609553158 -5.844101960233186 0.24913333902446722 1.3398218272926994 -0.9444135109810261 -0.7361142186485812 0.18865480831126025 0.08519065726872099 -0.99452058318283 -1.4252641868462017 1.21973446474184 -0.05670646791613516 -0.13283649426762315 0.025029366107574294 0.027717579550728472 0.026418127946397148 0.02801670360966731 0 30.5 31.25 30.6875 33.9375 35.1875 35.375 0.830292 7 253 253 253 253 253 253 1 1.2832920551300049 -9.864110946655273 -0.17238251864910126 1.0 1.0 1.4236643821559487 47.73255920410156 47.811370849609375 0.7530794739723206 47.6279296875 47.64226531982422 47.65659713745117 47.599266052246094 47.5275993347168 47.570594787597656 0 2
7452.657999999999 -0.6330130735980433 -0.8785821956447144 1.6221359411822718 -0.7122833293727417 0.7457970976829529 2.956055164337158 0.24451306462287903 -0.04242398589849472 -0.002495099324733019 -0.0004276219115126878 0.2824946343898773 0.0002904371067415923 0.0 0.0 0.0 0.0 0.0 0.0 0.8484961798579551 -5.248739184366247 -2.2586170173660753 -0.40727545376283514 0.21434054559745047 -0.028123921624062586 2.3217212821997e-15 -50.54848782256495 -19.729383402456172 -1.4371603791913377 -0.05675600419031802 0.09623975010131347 -0.6325438658343714 -0.8786668938449402 1.622148338948385 -0.7122592490962525 0.7464455366134644 2.9560790061950684 0.24566695094108582 -0.04479522630572319 -0.002152621978893876 -0.0003501686151139438 0.28425920009613037 0.00026499235536903143 0.8515491485595703 -5.259552955627441 -2.264056921005249 -0.4025494456291199 0.21524152159690857 -0.03189976140856743 2.329571486082049e-16 -5.02140769112674 -1.9694474216588234 -0.1779921889859797 -0.007103484305121858 0.01203772981944112 -0.7366869521834829 0.18745557633628374 0.08548745300392208 -0.9942988647804446 -1.4249967946137125 1.2193770271757554 -0.05925027684723999 -0.11876778994746794 0.031196679648466178 0.03475520173357269 0.032704181297782235 -0.03845651384355795 -24.480457558292198 2.8348371344771506 -4.822196039985733 0.2335749548781383 1.3207375488215698 -0.9292968520263281 -0.7365784788114234 0.18766706017973134 0.08543985000242121 -0.9942214107117084 -1.425121132851 1.2195173750734964 -0.059009097183593304 -0.11828083255627658 0.029685430298008422 0.03355897988547298 0.0311347287898969 -0.03784672278055962 0 30.5 31.25 30.6875 33.9375 35.1875 35.375 0.829512 7 253 253 253 253 253 253 1 1.6663644313812256 -9.576807022094727 0.2106897532939911 1.0 1.0 1.5093655934189714 47.69673538208008 47.77375411987305 0.864982545375824 47.64226531982422 47.599266052246094 47.64226531982422 47.584930419921875 47.51326370239258 47.570594787597656 0 2
7452.665999999999 -0.6310904661761683 -0.8789208096316834 1.6221240202533167 -0.712295190697052 0.7483139634132385 2.9560909271240234 0.2461770623922348 -0.04959589242935181 -0.0015029243659228086 -0.0001980753877433017 0.34213048219680786 0.00020481206593103707 0.0 0.0 0.0 0.0 0.0 0.0 0.8542590418329377 -5.257104149960948 -2.2563323483096775 -0.4063545413876749 0.23867969966481403 -0.02707999959549868 7.462863455820614e-16 -50.547596741251105 -19.741081492019095 -1.4429628840426845 -0.055978187533916667 0.09626373939754003 -0.6305487791644495 -0.8790290516665955 1.6221240202533167 -0.7122713488391419 0.7489772439002991 2.9560909271240234 0.24784263968467712 -0.04996584355831146 -0.0014284279895946383 -0.00018933670071419328 0.3529980778694153 0.00019036076264455914 0.8972954750061035 -5.244525909423828 -2.3072359561920166 -0.4106246531009674 0.22754812240600586 -0.03269350901246071 7.488096889361274e-17 -5.021319172503226 -1.9706151607542666 -0.178710828711265 -0.007006134104207751 0.012040730416036911 -0.7371777524646079 0.18653934626761998 0.08574300490917935 -0.9942261469535038 -1.4245732310041126 1.2188447898991883 -0.06179478959459902 -0.1060270024274621 0.034221323392192304 0.03888255385745188 0.03503319395714162 -0.10498911833626338 -23.798613846457247 2.196482682543956 -4.644298728461575 0.2423608082711776 1.2667650398123969 -0.9153191941562856 -0.7370500706712972 0.18679651438947942 0.08567325520400342 -0.9942392273577435 -1.424664056171847 1.2189682755073898 -0.061190901959827626 -0.10704426531550609 0.03403465570288469 0.0384752644163692 0.03496384776967963 -0.09579165886472124 0 30.5 31.25 30.6875 33.9375 35.1875 35.375 0.831013 7 253 253 253 253 253 253 1 1.3024457693099976 -9.710882186889648 -0.13407528400421143 1.0 1.0 1.295023678082038 47.693153381347656 47.780921936035156 0.8135106563568115 47.6279296875 47.599266052246094 47.64226531982422 47.584930419921875 47.498931884765625 47.5562629699707 0 2
7452.674 -0.6291230360614222 -0.8793901366046448 1.6221488157855433 -0.7122951310924073 0.7511966228485107 2.956115245819092 0.23834779858589172 -0.05243333429098129 -0.001316248090006411 -7.240633567562327e-05 0.38583001494407654 0.0001571115426486358 0.0 0.0 0.0 0.0 0.0 0.0 0.8576689490718912 -5.257852444141401 -2.2512197507365834 -0.40371266683198964 0.25432653388181015 -0.026262088496252337 -1.1474692553445514e-15 -50.544348374227894 -19.755287853207516 -1.4496959832680083 -0.05503726806247762 0.09629430839076836 -0.6286075750934046 -0.8794742387584229 1.62213641801943 -0.7122472089580079 0.7520073056221008 2.9560790061950684 0.23607979714870453 -0.052671417593955994 -0.0010906216921284795 -6.686041160719469e-05 0.4049305021762848 0.00014846866542939097 0.8854913711547852 -5.200090408325195 -2.2376694679260254 -0.401630163192749 0.25011882185935974 -0.03296943008899689 -1.151349078332885e-16 -5.0209964848055995 -1.9720332831984888 -0.1795447224694895 -0.0068883702342330735 0.01204455400536406 -0.7376624919321908 0.18575925097233836 0.08603409204805862 -0.9944549582103938 -1.4238045838444413 1.2178801181591519 -0.06112338610820292 -0.08654089504020512 0.035775814066995815 0.04131654319177911 0.036063159350043845 -0.1686639297354257 -22.635400751727744 1.3537266982517169 -4.412370594556052 0.2523850368620071 1.2284642084854147 -0.9128742030690066 -0.7375352094994934 0.18596528849898974 0.08597990054151952 -0.9943579525869111 -1.4239808034822785 1.2181522232986535 -0.06103472494759345 -0.0921493862326772 0.0357847830010276 0.04087552546639627 0.03637487390430051 -0.1473037695386428 0 30.5 31.25 30.6875 33.9375 35.1875 35.375 0.8337 7 253 253 253 253 253 253 1 1.6280571222305298 -9.53849983215332 -0.26815059781074524 1.0 1.0 1.3754637330703505 47.69673538208008 47.76838302612305 0.8291773796081543 47.64226531982422 47.6279296875 47.64226531982422 47.570594787597656 47.5275993347168 47.570594787597656 0 2
7452.682 -0.6271398703204554 -0.8797996205142518 1.6221240202533167 -0.7122112077525635 0.754438042640686 2.9560790061950684 0.2404913604259491 -0.055902548134326935 -0.0008200844749808311 -3.6143827486512237e-08 0.4265933036804199 0.00016700649575795978 0.0 0.0 0.0 0.0 0.0 0.0 0.8857969491256068 -5.255012353533128 -2.2364833825456354 -0.39758302844229726 0.26512953793552274 -0.02532495204625371 -2.2517167189528187e-16 -50.54345214925962 -19.769626274507225 -1.4567369877323686 -0.05425268721534314 0.09632453372645267 -0.6266706625567835 -0.879921094780304 1.6221001783954065 -0.7122712892344971 0.7553085684776306 2.9560670852661133 0.24274466931819916 -0.05955718830227852 -0.0007361752795986831 -2.359933803930403e-09 0.44650810956954956 0.00016206735745072365 0.8539252281188965 -5.265898704528809 -2.223724842071533 -0.40022048354148865 0.26099061965942383 -0.023463577032089233 -2.2593302234094455e-17 -5.020907455219502 -1.9734645882871138 -0.18041675026500717 -0.00679017343878866 0.012048334609784652 -0.7381746201883339 0.1850538334236387 0.0863537533130348 -0.9947502483533893 -1.4228268772208983 1.216689449243814 -0.063757193396297 -0.08263436347183066 0.04035271805460649 0.045849060011338184 0.0407475889229545 -0.20356443730889262 -21.365736503951833 0.6779201797567374 -4.281771244712461 0.2716058985205956 1.2116380254505745 -0.9100638244900068 -0.7380365379074997 0.18520105857943683 0.08625272620706936 -0.9947260748247714 -1.4231338606342214 1.2170546701444793 -0.062551080422627 -0.08526249272105291 0.037874503281235185 0.043364163882235594 0.038141908012464615 -0.18590942820989748 0 30.5 31.25 30.6875 33.9375 35.1875 35.375 0.831061 7 253 253 253 253 253 253 1 1.436521053314209 -9.634267807006836 -0.2106897532939911 1.0 1.0 1.3701264014113714 47.70927429199219 47.774654388427734 0.8112748265266418 47.6279296875 47.599266052246094 47.6279296875 47.5562629699707 47.51326370239258 47.5562629699707 0 2
7452.69 -0.6252291838275355 -0.8802704376033326 1.622124497090475 -0.7122352880290528 0.7580904960632324 2.9560670852661133 0.24507160484790802 -0.06310635805130005 -0.0005633174441754818 -6.568961412149743e-13 0.47430914640426636 0.00014292713603936136 0.0 0.0 0.0 0.0 0.0 0.0 0.9179808023437304 -5.255606968216833 -2.221642325031372 -0.39189067803663263 0.27829968049004333 -0.02512499203244986 4.421686354340574e-17 -50.542085058547784 -19.785782077775362 -1.4649933220755813 -0.05319322981177349 0.09636219597381565 -0.6247361342059534 -0.8804156345180054 1.622113052998678 -0.7122233671000977 0.7590311765670776 2.9560670852661133 0.24727967381477356 -0.06616762280464172 -0.0005224324413575232 -4.2890621203316506e-14 0.4917674958705902 0.00013746859622187912 0.9148065447807312 -5.290597915649414 -2.241082191467285 -0.3753843903541565 0.2899602949619293 -0.03608826547861099 4.436636960018998e-18 -5.020771650567166 -1.975077310004879 -0.18143929656118007 -0.0066575735641927316 0.01205304542789953 -0.7386766095217053 0.18442190972762118 0.08667377377982047 -0.9953817099464651 -1.421601853833372 1.215205771729179 -0.0660958352245244 -0.07635118813303607 0.044801887289240325 0.05044324528739725 0.04533989881649843 -0.24427424693596886 -19.988936114054887 0.9779460414490719 -3.7975096816097955 0.2936597525957281 1.2063465511038929 -0.8838038467206853 -0.7385431684914575 0.18458039504099807 0.08657211638095824 -0.995259763533735 -1.421921127462292 1.2155845780116652 -0.06502361138936485 -0.0784808802342426 0.04271147147407247 0.04833749450279505 0.0431347388627141 -0.22902973565811627 0 30.5 31.25 30.6875 33.9375 35.1875 35.375 0.83094 7 253 253 253 253 253 253 1 1.3215992450714111 -9.423578262329102 0.0 1.0 1.0 1.243698207975201 47.71196365356445 47.78718948364258 0.7956027388572693 47.599266052246094 47.584930419921875 47.6279296875 47.584930419921875 47.48460006713867 47.5562629699707 0 2
7452.697999999999 -0.6232474485980433 -0.8808257144740601 1.6221006552325647 -0.7122588914683838 0.7620664834976196 2.9560670852661133 0.2444744110107422 -0.07136185467243195 -0.0004290220676921308 0.0006226724362932146 0.5250310897827148 0.00012333720223978162 0.0 0.0 0.0 0.0 0.0 0.0 0.9407033223990027 -5.258376589112655 -2.210517065812822 -0.387601743782647 0.2829108225432177 -0.025711349798994247 -4.789633463073677e-16 -50.54031570745466 -19.804687810694553 -1.474178194928148 -0.051930094762514104 0.09640585180852435 -0.6227305571185511 -0.8809826535037537 1.622113052998678 -0.7122109693339844 0.7631251811981201 2.9560909271240234 0.24663051962852478 -0.07373333722352982 -0.00037175032775849104 0.0006402386352419853 0.533725380897522 0.00011925108265131712 0.9043965339660645 -5.24107551574707 -2.2294862270355225 -0.3753755986690521 0.27339082956314087 -0.02594437450170517 -4.805828171497604e-17 -5.0205958859979365 -1.97696453811499 -0.18257684227163595 -0.006499481744205269 0.01205850592777315 -0.739213561880761 0.18382288826467122 0.0870547334084133 -0.9960907059742823 -1.4201366788249188 1.21348940896924 -0.0673107375919974 -0.06693387081496288 0.04990496854340126 0.05506875101366694 0.05037865544087412 -0.28687096287766667 -19.16428389668526 0.3758800710916592 -3.9914141431439996 0.304334244714736 1.1658061975894165 -0.8684781223923148 -0.7390838786856153 0.18398328301042266 0.0869609431419947 -0.9958452966651063 -1.4205067103937257 1.213911908834184 -0.06660831371596594 -0.06722722699260676 0.0482711669589402 0.053590690419855 0.048606038879076434 -0.2803350938362774 0 30.5 31.25 30.6875 33.9375 35.1875 35.375 0.831157 7 253 253 253 253 253 253 1 1.3215993642807007 -9.710882186889648 -0.15322890877723694 1.0 1.0 1.4367800533599935 47.6949462890625 47.77375411987305 0.8269415497779846 47.65659713745117 47.6279296875 47.65659713745117 47.61359786987305 47.5275993347168 47.584930419921875 0 2
7452.705999999999 -0.6212647596942347 -0.8814056676677247 1.6221492926227015 -0.7122109097293396 0.7663750648498535 2.956043243408203 0.24772655963897705 -0.08153194189071655 -0.00030313580646179616 0.0008913243073038757 0.5650889873504639 0.00010847051453310996 0.0 0.0 0.0 0.0 0.0 0.0 0.9780975992375438 -5.259609327325576 -2.1928420377492026 -0.3808831173475293 0.27422051207406295 -0.026192301326759596 4.0179722206184737e-16 -50.536968277617675 -19.822944376621543 -1.4835217093017414 -0.05087156476643424 0.09644443761094149 -0.620734993611471 -0.8816229862025757 1.6221492926227015 -0.7121987503818055 0.7674906849861145 2.9560670852661133 0.24975408613681793 -0.08475581556558609 -0.00010155080235563219 0.0016037647146731615 0.5623215436935425 0.000105297687696293 0.9249447584152222 -5.244919776916504 -2.1824567317962646 -0.38288015127182007 0.2485654503107071 -0.03519120439887047 4.031557788088306e-17 -5.020263357555386 -1.9787869643895375 -0.18373403572078573 -0.006366997942342827 0.012063332264747996 -0.7397472240165377 0.18328366689444225 0.08747165488334635 -0.9968905712534718 -1.4184938817996704 1.2115222261508956 -0.06886143325798992 -0.0630123496206999 0.05743735343131836 0.06106479364552164 0.058153287323850736 -0.3123403510112856 -16.89234510763688 -0.2267520587769618 -3.829877107603728 0.3133657541855237 1.088495118994296 -0.830286006744963 -0.739602429189506 0.18343341472666064 0.08732445313216033 -0.9967273466979322 -1.4189304644680993 1.2119990545813166 -0.06864153122452736 -0.060932417687802075 0.05530074637409788 0.05990628853420008 0.05612656877998657 -0.31713114642557244 0 30.5 31.25 30.6875 33.9375 35.1875 35.375 0.829956 7 253 253 253 253 253 253 1 1.4939818382263184 -9.749189376831055 -0.13407528400421143 1.0 1.0 1.3660822406137467 47.718231201171875 47.79166793823242 0.8784134984016418 47.64226531982422 47.6279296875 47.670928955078125 47.61359786987305 47.5275993347168 47.570594787597656 0 2
7452.714 -0.619244400654928 -0.8821053069880982 1.6221607367144983 -0.7121262711337586 0.771002471446991 2.9560790061950684 0.2540038228034973 -0.09076058119535446 -4.79721711599268e-06 0.002771087223663926 0.5863021016120911 9.680267976364121e-05 0.0 0.0 0.0 0.0 0.0 0.0 1.0240242979758074 -5.257441237751559 -2.171850192589187 -0.3715541440070837 0.2633666890798332 -0.026401900476061675 1.682097153527775e-16 -50.53272335375114 -19.844775657058513 -1.4938159143842726 -0.04959094943769215 0.09648567151358323 -0.6187275091754358 -0.8822745841792603 1.6221492926227015 -0.7121623915484925 0.7722086310386658 2.9560670852661133 0.25536638498306274 -0.09408575296401978 -6.436079047489329e-08 0.002631647512316704 0.6001320481300354 9.426777251064777e-05 0.9808484315872192 -5.287315368652344 -2.1426963806152344 -0.3678126335144043 0.2813805341720581 -0.017739005386829376 1.687784660338498e-17 -5.019841673460176 -1.980966229604828 -0.185008972132226 -0.00620671832050557 0.012068489827801513 -0.7403004771336859 0.18281499225536746 0.08790812548289317 -0.997888248293062 -1.4166166879213926 1.2093145363080195 -0.07103963797892027 -0.05904169143913058 0.06382253307390637 0.06627107016745296 0.06453320186004567 -0.3445329673246165 -16.53636814798402 -0.07145340894294172 -5.248717125557458 0.3443472055667412 1.0478080993042451 -0.7841692428606084 -0.7401496335443337 0.1829307644064875 0.08778269936537739 -0.9977045851991497 -1.41711164508004 1.2098962901800239 -0.0702594254576561 -0.06105974905964137 0.061464080609035465 0.06409006654052493 0.06183681055817827 -0.332067511246874 0 30.5 31.25 30.6875 33.9375 35.1875 35.375 0.834288 7 253 253 253 253 253 253 1 1.4748282432556152 -9.959878921508789 0.019153613597154617 1.0 1.0 1.4217211099071265 47.70390319824219 47.786293029785156 0.8828904628753662 47.61359786987305 47.61359786987305 47.64226531982422 47.570594787597656 47.48460006713867 47.5562629699707 0 2
7452.722 -0.6172245184527796 -0.8828283113292237 1.6221492926227015 -0.7121027869037171 0.7759327292442322 2.9560670852661133 0.2591582238674164 -0.09755636751651764 -1.5542371534747745e-13 0.001973256701603532 0.6171755790710449 6.556396692758426e-05 0.0 0.0 0.0 0.0 0.0 0.0 1.064594450845849 -5.253823060029473 -2.1542771531162734 -0.364157550487912 0.2526008450501156 -0.027216485373402793 1.5304979197067768e-15 -50.52922237750247 -19.868237503355243 -1.504974872358709 -0.04811516183119479 0.09653752182096766 -0.6167081038104456 -0.8830444377711792 1.6221607367144983 -0.7120909255794068 0.7771917581558228 2.9560670852661133 0.2594718337059021 -0.09765094518661499 -2.0852074983422706e-15 0.0018229634733870625 0.6193758249282837 6.399812991730869e-05 1.0436804294586182 -5.294137001037598 -2.174574375152588 -0.366527795791626 0.24533452093601227 -0.033744312822818756 1.5356728391957455e-16 -5.019493891957331 -1.983308262893648 -0.1863910081147307 -0.006022011270564312 0.012074975297586001 -0.7408597630873176 0.1823919125813296 0.08841816122915803 -0.9989634512110452 -1.4145500468773158 1.2069059046640012 -0.07217849173152749 -0.057942396603984106 0.06654061646119756 0.06878207843139086 0.0681674588425856 -0.3596749707229564 -16.55439158974962 0.34652247844766215 -6.81305666422996 0.38035881138986305 0.9973946401701858 -0.7403898533986534 -0.7407185207588539 0.18250405426506283 0.08827667981816599 -0.9987148575471388 -1.4150755319348478 1.2075132535666517 -0.0721647875386465 -0.05815597028859715 0.06642066902605878 0.06872313777275287 0.0678987633975989 -0.357785920561126 0 30.5 31.25 30.6875 33.9375 35.1875 35.375 0.832945 7 253 253 253 253 253 253 1 1.436521053314209 -10.093954086303711 0.19153612852096558 1.0 1.0 1.497655315055431 47.699424743652344 47.77913284301758 0.8739365339279175 47.64226531982422 47.61359786987305 47.65659713745117 47.584930419921875 47.51326370239258 47.584930419921875 0 2
7452.73 -0.6151469389544886 -0.8836456102183838 1.6221721808062952 -0.7121028465083619 0.7809177041053772 2.9560670852661133 0.258582204580307 -0.09937562793493271 -5.03553104526653e-21 0.0016632647020742297 0.6337924599647522 5.97484759055078e-05 0.0 0.0 0.0 0.0 0.0 0.0 1.0908260182400724 -5.246892097759764 -2.14235913720966 -0.35840580967876934 0.24309696062367564 -0.02868110709976488 1.125625885328335e-15 -50.523521606526465 -19.893035356880016 -1.5164765495682224 -0.04650010756085105 0.09659308162502239 -0.6146310011493128 -0.8838259142688294 1.6221845785724085 -0.7120668453029175 0.7821918725967407 2.956055164337158 0.2587023079395294 -0.10038754343986511 -6.755807947756366e-23 0.0017479171510785818 0.637551486492157 5.845482155564241e-05 1.0406229496002197 -5.236156940460205 -2.1259541511535645 -0.3591662645339966 0.25464314222335815 -0.01889669895172119 1.1294318515150706e-16 -5.018927586288114 -1.9857836605120531 -0.1878154898449349 -0.005819873843432614 0.01208192475359901 -0.7414278856343348 0.18193048169536052 0.08893925343439886 -0.999956042410696 -1.412492814650261 1.2045131221943326 -0.07223012439053747 -0.05355733979752493 0.0685788467321388 0.07027981734441137 0.07058540027269104 -0.3786257657076612 -15.598207310140259 0.32840981370286615 -6.3012044734042005 0.3963733295378672 0.9153902548076402 -0.694688670881052 -0.7412924699500134 0.1820426109020419 0.08882696364768412 -0.9996478618307941 -1.4130033430022324 1.2051282996898194 -0.07218006883935323 -0.05426583202561543 0.06785318423815077 0.06976895136011306 0.06980223764449227 -0.37498602377669005 0 30.5 31.25 30.6875 33.9375 35.1875 35.375 0.835344 7 253 253 253 253 253 253 1 1.1300631761550903 -9.921571731567383 -0.09576806426048279 1.0 1.0 1.4510011272170742 47.69136428833008 47.76032257080078 0.9186956286430359 47.61359786987305 47.61359786987305 47.64226531982422 47.570594787597656 47.5275993347168 47.5562629699707 0 2
7452.737999999999 -0.6130812803851526 -0.8844770354083558 1.6221492926227015 -0.7120789450458069 0.7859387397766113 2.9560790061950684 0.25769469141960144 -0.10754704475402832 -1.6314481540237576e-28 0.0013010600814595819 0.648205041885376 5.488968236022629e-05 0.0 0.0 0.0 0.0 0.0 0.0 1.1174337554480538 -5.245175890675396 -2.1294099671570534 -0.35145627855185047 0.23309852664194958 -0.029605077859157374 4.295590908675766e-16 -50.518408349231684 -19.91896886016936 -1.5281242183868549 -0.044832130151197205 0.09664938124553873 -0.6125519911395472 -0.8847049635699769 1.6221492926227015 -0.7120911043933411 0.7872588634490967 2.9560790061950684 0.26040348410606384 -0.10722625255584717 -2.188795871909077e-30 0.0012223123339936137 0.650587797164917 5.379600406740792e-05 1.1114223003387451 -5.20308780670166 -2.1137518882751465 -0.3628206253051758 0.2425817847251892 -0.026667937636375427 4.310115160439664e-17 -5.0184196433087545 -1.9883724221649601 -0.18925805262333456 -0.005611112646801454 0.012088966746330698 -0.7420245246330986 0.1815010765433953 0.08956397348331663 -1.000810664170258 -1.4103023396615741 1.2020641603758144 -0.07284129285054439 -0.051890895614244335 0.07365615079469075 0.07414865274595343 0.07690447242836435 -0.3899719002125294 -14.263211929785676 0.17609910134046158 -5.557121869450223 0.40351989615672795 0.8726919886855329 -0.6687066274253388 -0.7418741404750356 0.1816053958101447 0.08940498327335514 -1.0005814454113504 -1.4108779509676443 1.2027143836446479 -0.07243507522695296 -0.050339063907542815 0.07383325616587352 0.07440613245092491 0.0770094662633087 -0.39029473955964944 0 30.5 31.25 30.6875 33.9375 35.1875 35.375 0.832993 7 253 253 253 253 253 253 1 1.2066776752471924 -9.615114212036133 -0.09576806426048279 1.0 1.0 1.5325757019681778 47.692256927490234 47.786293029785156 0.8896032571792603 47.64226531982422 47.64226531982422 47.670928955078125 47.599266052246094 47.51326370239258 47.584930419921875 0 2
7452.746 -0.6109774748431605 -0.8853773039630433 1.6221368948565882 -0.7120790642550965 0.7911203503608704 2.956055164337158 0.2622443437576294 -0.10665113478899002 -5.285683816869342e-36 0.0008876031497493386 0.6529788970947266 5.076171873952262e-05 0.0 0.0 0.0 0.0 0.0 0.0 1.1469550903592556 -5.234354835549289 -2.1176799570327933 -0.3444242420751209 0.22341505538807477 -0.029995697486257914 -1.8553164086734328e-15 -50.512178764990026 -19.94638061046651 -1.5402891851807392 -0.04302647417304737 0.0967132588117898 -0.6104610602008265 -0.8855922979167481 1.6221607367144983 -0.7121031445315857 0.7924399971961975 2.9560790061950684 0.26256686449050903 -0.10344135016202927 -7.091419416352955e-38 0.0007910234271548688 0.653398871421814 4.982498285244219e-05 1.1840806007385254 -5.217230319976807 -2.1329638957977295 -0.3397071957588196 0.2261984497308731 -0.04008940979838371 -1.8615896044209234e-16 -5.017800806157118 -1.9911087469575106 -0.19076468271134434 -0.005385119836274725 0.012096956593387076 -0.742606112204426 0.18107504093863916 0.09017331321962142 -1.0017548360484654 -1.4080679841194308 1.1995357055049671 -0.07256227418869662 -0.053169485273990104 0.07119770802903046 0.07165191578354853 0.07460208721780978 -0.39063327278910637 -11.886264179913274 -0.26701814314298034 -3.9967366274312988 0.3963524972625687 0.7812157104903936 -0.6350863327899919 -0.7424666433224745 0.1811760933870005 0.09003202066962085 -1.0014746993152372 -1.40865250617946 1.200171610415642 -0.07281713638100705 -0.05286019134100907 0.07342659485613881 0.07358213134659393 0.0770404512963091 -0.3905323758891387 0 30.5 31.25 30.6875 33.9375 35.1875 35.375 0.831204 7 253 253 253 253 253 253 1 0.9385271072387695 -9.500192642211914 -0.26815059781074524 1.0 1.0 1.7110590117518034 47.68598937988281 47.76659393310547 0.8806493282318115 47.61359786987305 47.599266052246094 47.6279296875 47.570594787597656 47.498931884765625 47.5562629699707 0 2
7452.754 -0.6089356581317347 -0.8862303060344239 1.622124497090475 -0.7120312017253418 0.7963030934333801 2.9560790061950684 0.2628727853298187 -0.10742552578449249 -1.7095841264762768e-43 0.0006549133104272187 0.6579476594924927 4.721124787465669e-05 0.0 0.0 0.0 0.0 0.0 0.0 1.1701207079569975 -5.22524700860433 -2.107306738261598 -0.3372405659038852 0.21401674722904082 -0.03006085032834349 1.5800852037463463e-16 -50.506524427291076 -19.97262420482953 -1.5520897793885948 -0.04140008813094762 0.09676697989209057 -0.6084073225604456 -0.886446015243866 1.6221492926227015 -0.7120672029307862 0.797655463218689 2.9560909271240234 0.2631194293498993 -0.10692143440246582 -2.802596928649634e-45 0.000678383163176477 0.6534126400947571 4.639995313482359e-05 1.1056797504425049 -5.23301887512207 -2.1008460521698 -0.34006467461586 0.21100497245788574 -0.03197986260056496 1.5854277877576102e-17 -5.017239113096994 -1.9937284628502472 -0.19222618528600713 -0.005181564143992645 0.012103676060650744 -0.7431774020429636 0.1806824104086234 0.09076278969619188 -1.0028072412655245 -1.4057990102020523 1.1969789525990997 -0.07230253939053158 -0.05356224925772643 0.07387093553581758 0.07311130818806533 0.07800718572201137 -0.39010731273071947 -9.986774904194544 0.11809389552200678 -3.1888978923229923 0.41378122751321444 0.7314512202624391 -0.5923575831609097 -0.7430348657266208 0.18078452844704412 0.09061928382567405 -1.0025366981078332 -1.4063981261235743 1.1976402154854306 -0.07256967504598519 -0.0523672293822604 0.07417166763277437 0.07366219896542364 0.07825201786841117 -0.39488417116000957 0 30.5 31.25 30.6875 33.9375 35.1875 35.375 0.834216 7 253 253 253 253 253 253 1 0.9002197980880737 -9.442731857299805 -0.3447650372982025 1.0 1.0 1.5144562064525111 47.70838165283203 47.774654388427734 0.8896032571792603 47.64226531982422 47.599266052246094 47.64226531982422 47.584930419921875 47.584930419921875 47.5562629699707 0 2
7452.762 -0.6067708174334925 -0.887132005100586 1.622124497090475 -0.7120433014682312 0.8016058206558228 2.9560670852661133 0.2715056538581848 -0.11104167997837067 0.00011488290328998119 0.0008964663720689714 0.6433792114257812 4.4125059503130615e-05 0.0 0.0 0.0 0.0 0.0 0.0 1.2021971931637292 -5.218970085459856 -2.097338016280155 -0.3301424496637904 0.2045649571919883 -0.03000256894946067 1.4762859135301763e-15 -50.50010455168503 -19.999947435890995 -1.564378873831931 -0.039615765598842556 0.0968289467983599 -0.6062281767474573 -0.8873608273318787 1.6221492926227015 -0.7121150654605408 0.8029257655143738 2.9560790061950684 0.275543212890625 -0.11285439878702164 0.0001236340031027794 0.0008971589268185198 0.6429686546325684 4.34155335824471e-05 1.217768669128418 -5.235870361328125 -2.0944414138793945 -0.34075725078582764 0.21737848222255707 -0.03138276934623718 1.4812775313865934e-16 -5.016601372698954 -1.9964559513818299 -0.19374818857269363 -0.00495824139104511 0.012111426921128163 -0.7437776093142906 0.18021424116253415 0.09140504648637496 -1.003663803125253 -1.4035299307258988 1.194437175612978 -0.07393913275111103 -0.06496150221144904 0.07824373015303707 0.07542135522041941 0.08326038339132286 -0.3672565153107583 -9.891113655109999 0.28467499656573647 -3.7354106583249247 0.4266603464544714 0.7040738606574968 -0.5629406583030824 -0.7436298143906769 0.18033077507512407 0.09124617452042122 -1.0034698780027071 -1.4041189944144108 1.19507069608792 -0.07326823969256352 -0.061903942291412904 0.0769011426171772 0.07459077118208368 0.0816311615193739 -0.3717005607279888 0 30.5 31.25 30.6875 33.9375 35.1875 35.375 0.839964 7 253 253 253 253 253 253 1 0.9385270476341248 -9.385271072387695 -0.363918662071228 1.0 1.0 1.8020565210572972 47.69853210449219 47.78450393676758 0.8851262927055359 47.6279296875 47.61359786987305 47.6279296875 47.584930419921875 47.498931884765625 47.54193115234375 0 2
7452.7699999999995 -0.6045964399920862 -0.8879863184741517 1.6221368948565882 -0.7120430034450074 0.8067867755889893 2.9560909271240234 0.27782881259918213 -0.1165267750620842 0.00010885549272643402 0.0016967381816357374 0.6344699859619141 4.141751924180426e-05 0.0 0.0 0.0 0.0 0.0 0.0 1.2285686838412457 -5.21590059589762 -2.089690215332469 -0.3240352052411452 0.19558412743480347 -0.030337171585140807 5.146484986136954e-16 -50.49392472293676 -20.02576033929472 -1.5761679486361702 -0.03797455631287556 0.09688298796633601 -0.6040456930743616 -0.8882269424251099 1.6221607367144983 -0.7119949024966736 0.8080433011054993 2.9560670852661133 0.27707910537719727 -0.11693254858255386 0.0001353949774056673 0.0021694344468414783 0.630042552947998 4.079175414517522e-05 1.1649904251098633 -5.183988571166992 -2.1164448261260986 -0.3294765055179596 0.20371311902999878 -0.0284452922642231 5.1638862809126745e-17 -5.015987478180183 -1.9990326743851279 -0.19520826447021225 -0.00475283044694141 0.012118186425164058 -0.7443438636274078 0.17969236269762898 0.09198346122129121 -1.0046523195573547 -1.4014389033941679 1.192057729759815 -0.07336945662399101 -0.06892334307192154 0.0811627006449554 0.07620961630608579 0.08616229484774551 -0.35280767127074447 -8.301275720619158 0.5675982754115503 -4.449619185628526 0.44205252131747585 0.6566354076684309 -0.5045797018083444 -0.7442098648557496 0.17983609250831697 0.09183348993172816 -1.0044239593383766 -1.40193141185525 1.1926439240986635 -0.07380918808991165 -0.06848286111223617 0.08090493946609799 0.07647672145492646 0.08607825989032292 -0.3564820963567163 0 30.5 31.25 30.6875 33.9375 35.1875 35.375 0.830376 7 253 253 253 253 253 253 1 0.47884035110473633 -9.653421401977539 0.0 1.0 1.0 1.646759629330348 47.69853210449219 47.77107238769531 0.9209314584732056 47.599266052246094 47.584930419921875 47.61359786987305 47.570594787597656 47.47026824951172 47.54193115234375 0 2
7452.777999999999 -0.6024029890643519 -0.888887957935669 1.6221845785724085 -0.7119808358005066 0.8117451071739197 2.9560790061950684 0.2792011797428131 -0.11927784234285355 0.0003040978917852044 0.006893280893564224 0.6189512014389038 3.90231070923619e-05 0.0 0.0 0.0 0.0 0.0 0.0 1.2527595198780423 -5.209267370842012 -2.081225044451779 -0.3160967447865018 0.18562439750822576 -0.03135286258507831 -1.8295021796333515e-15 -50.48553831405599 -20.05116307102338 -1.5873596579948985 -0.03643977177315728 0.09693627406618188 -0.6018980185138147 -0.8891164821437378 1.6221960226642054 -0.711944119339325 0.81288081407547 2.9560670852661133 0.2815869152545929 -0.11986549198627472 0.00037199995131231844 0.008994152769446373 0.6092572212219238 3.846716208499856e-05 1.2527804374694824 -5.222100257873535 -2.073894739151001 -0.32319575548171997 0.17734776437282562 -0.028235189616680145 -1.835688092310913e-16 -5.015154385443509 -2.0015684527967266 -0.1965943567088362 -0.0045607394418545446 0.012124851484792755 -0.7448930830468634 0.17913672117486873 0.09258074511265155 -1.005436095817689 -1.3994675112770116 1.1898645726922705 -0.07238725206336703 -0.07729398428753864 0.08232213358411088 0.07290641373384973 0.08347700061651582 -0.3275284864857963 -7.089779770914458 0.07358304025933227 -5.690450212035755 0.46367602950072884 0.5425812678123214 -0.4415738777703981 -0.7447670338666451 0.17926930793561735 0.09243153036301127 -1.0052541080542987 -1.399923019704906 1.1903857710226475 -0.0725749024606939 -0.0732787219069232 0.08219248892214469 0.07410458012158458 0.084556214200481 -0.3396041443793232 0 30.5 31.25 30.6875 33.9375 35.1875 35.375 0.830941 7 253 253 253 253 253 253 1 0.7852981686592102 -9.730035781860352 -0.15322890877723694 1.0 1.0 1.5572564883320397 47.70748519897461 47.793460845947266 0.9030289053916931 47.6279296875 47.61359786987305 47.61359786987305 47.570594787597656 47.498931884765625 47.584930419921875 0 2
7452.786 -0.6001594702350062 -0.8898127239993592 1.6222088972674769 -0.7118322414210816 0.8164091110229492 2.9560790061950684 0.28469058871269226 -0.11970450729131699 0.0012412258656695485 0.020443428307771683 0.5845924019813538 3.6890400224365294e-05 0.0 0.0 0.0 0.0 0.0 0.0 1.2690346489011544 -5.196247526308741 -2.0507306183552023 -0.2961134293435256 0.1731496208866952 -0.0317523098296623 1.8387800144003973e-15 -50.47634112311392 -20.076647396834268 -1.5978738598444804 -0.03499510594174054 0.09698542746485227 -0.5995476881610315 -0.8901001972011109 1.6222088972674769 -0.7118075054934998 0.8175719976425171 2.9560790061950684 0.286342978477478 -0.11685001105070114 0.001740663661621511 0.023218240588903427 0.583696186542511 3.639315036707558e-05 1.2631916999816895 -5.183780193328857 -2.0984365940093994 -0.29180708527565 0.18603259325027466 -0.033225830644369125 1.8449972972924054e-16 -5.014240750885432 -2.0041123761792847 -0.19789653970089763 -0.004379927539994737 0.01213099962350133 -0.745473366623427 0.17839961440637897 0.09324366300102374 -1.0059918735564288 -1.397700138774438 1.1879383326998068 -0.06977503508305834 -0.08794631889388704 0.0775564161584269 0.061349373727957714 0.06889484500329542 -0.29722473693558554 -5.07367617308856 0.7728852654532853 -5.976402390135285 0.48478436113498624 0.5161048070697231 -0.376143017086102 -0.7453201319695478 0.17860097073003944 0.09304511143887095 -1.0059291015428393 -1.3981399536269157 1.1884053496301779 -0.07028737627466354 -0.08603539780430354 0.08021557690691714 0.06499871809743026 0.07381409367402537 -0.2997702951411318 0 30.5 31.25 30.6875 33.9375 35.1875 35.375 0.829764 7 253 253 253 253 253 253 1 0.6512228846549988 -9.787496566772461 0.28730422258377075 1.0 1.0 1.573895822275632 47.68330383300781 47.76122283935547 0.9433110356330872 47.599266052246094 47.599266052246094 47.6279296875 47.570594787597656 47.48460006713867 47.54193115234375 0 2
7452.794 -0.5978363196002405 -0.8907465499690552 1.622220818196432 -0.7115920347026368 0.8208255767822266 2.9560670852661133 0.28070443868637085 -0.11144430190324783 0.002526448806747794 0.022310616448521614 0.5596851706504822 -7.190212727437029e-07 0.0 0.0 0.0 0.0 0.0 0.0 1.2624880205800093 -5.175932867088437 -2.0168057859624904 -0.2797954770870207 0.1616652463253999 -0.03252096283337621 1.5838167494928322e-15 -50.466423280398644 -20.101777225451418 -1.6076923488580321 -0.033688435291421244 0.09703081415213904 -0.5972846190081995 -0.8910102409175416 1.622185532246725 -0.7115808886340638 0.8219108581542969 2.9560670852661133 0.279683917760849 -0.10956189036369324 0.0021803234703838825 0.02011743001639843 0.5437536835670471 -4.694695121543191e-08 1.240492582321167 -5.174292087554932 -2.019994020462036 -0.3003784418106079 0.1569085270166397 -0.029949411749839783 1.5891719506063862e-16 -5.0132555279077495 -2.0066209125672296 -0.19911255871823247 -0.004216386878721583 0.01213667661952826 -0.7460223320888523 0.17765089220464955 0.09385822999572001 -1.006497997300595 -1.3961519750649056 1.1862204537492578 -0.06684040567120522 -0.09171829893911457 0.07285849312069266 0.057657513756416784 0.06590302763870133 -0.2639578398446161 -2.685956122516909 1.2930625143546612 -4.862424497813292 0.4897552284944759 0.4254216206792557 -0.30961684147137297 -0.7458710495181471 0.17781614651657204 0.0936582171827208 -1.0064702599878523 -1.3965925158540524 1.1866761070823728 -0.0672995829085626 -0.08924431355268572 0.07362267073311882 0.057706364967270087 0.06505627162569681 -0.2788621871070969 0 30.5 31.25 30.6875 33.9375 35.1875 35.375 0.828841 7 253 253 253 253 253 253 1 0.4405331015586853 -9.730035781860352 -0.019153613597154617 1.0 1.0 1.7463380879622152 47.71375274658203 47.786293029785156 0.8739365339279175 47.6279296875 47.6279296875 47.65659713745117 47.599266052246094 47.498931884765625 47.584930419921875 0 2
7452.802 -0.5955460707293909 -0.8916573089412232 1.6222088972674769 -0.7114995878985901 0.8249706625938416 2.9560909271240234 0.28260666131973267 -0.10595576465129852 0.00185002654325217 0.012422335334122181 0.5156611204147339 -1.3067858427306955e-11 0.0 0.0 0.0 0.0 0.0 0.0 1.247470963116865 -5.15935141553827 -1.979008541085053 -0.26544133212540877 0.15122998015432948 -0.03298393801783147 -1.1929546334445317e-15 -50.457359220953066 -20.126920609829295 -1.6175272625770267 -0.03214928521506396 0.09708101419638285 -0.5949586073504847 -0.8918735545924683 1.6221850554095667 -0.7115001839450379 0.8259232640266418 2.9560790061950684 0.28203487396240234 -0.10629414767026901 0.0016838948940858245 0.010632519610226154 0.49686068296432495 -8.532377820773263e-13 1.2443115711212158 -5.172884941101074 -1.9845459461212158 -0.2553514838218689 0.1518525928258896 -0.028339648619294167 -1.1969882515910044e-16 -5.0123551184242325 -2.0091308021326895 -0.20033061193391957 -0.0040237494905437845 0.01214295567333809 -0.7465764275034743 0.17678841640355464 0.09445368255345898 -1.0067186554167769 -1.394810680046761 1.1848026525685644 -0.0666455687582562 -0.10282771476688748 0.0724791768005364 0.06021592379214557 0.07234395253062975 -0.2147323772831561 0.14805067330551405 0.2793850240138991 -2.526048123237596 0.48860120082400016 0.38294549024628377 -0.3057997608635345 -0.7464282035682885 0.17701184717515134 0.09429025290940965 -1.0067530089583367 -1.3951223788608391 1.1851325642932227 -0.06706000417172496 -0.09942560200954126 0.07179499459576304 0.05935712973178381 0.07013341561533748 -0.2329550438833584 0 30.5 31.25 30.6875 33.9375 35.1875 35.375 0.834468 7 253 253 253 253 253 253 1 0.6703764200210571 -9.117119789123535 0.019153613597154617 1.0 1.0 1.622008600613308 47.70390319824219 47.767486572265625 0.8672236800193787 47.61359786987305 47.599266052246094 47.6279296875 47.584930419921875 47.498931884765625 47.5275993347168 0 2
7452.8099999999995 -0.5932915846454065 -0.8925348681262513 1.6222088972674769 -0.7114539307406922 0.8288120627403259 2.9560790061950684 0.286102831363678 -0.10924161970615387 0.0012247253907844424 0.005785924382507801 0.4597923457622528 -2.375018709514586e-16 0.0 0.0 0.0 0.0 0.0 0.0 1.2205300360693352 -5.149859172098965 -1.9234695737417575 -0.24388735100329617 0.1244634667565589 -0.032837270852965776 1.6397054127207694e-15 -50.448218581360784 -20.150764254167807 -1.6268256686847116 -0.030627716312661705 0.09713346479404515 -0.5926802794085901 -0.8927633327296753 1.6221964995013636 -0.7114422482303162 0.8297497630119324 2.956055164337158 0.2857566177845001 -0.10946732759475708 0.0011593855451792479 0.0043944683857262135 0.44781166315078735 -1.550717479586631e-17 1.231095790863037 -5.147037982940674 -1.9654314517974854 -0.2607167363166809 0.12939949333667755 -0.029219672083854675 1.6452495845796128e-16 -5.011447101588762 -2.0115109476703137 -0.20148221872822786 -0.0038333125319951816 0.012149516227816487 -0.7471140269669952 0.1759221378859481 0.09506801296508235 -1.006792741726582 -1.3935505883960961 1.183461408847251 -0.06668278276386004 -0.11542529147802195 0.07622581256218533 0.06455882987713411 0.08146132024799947 -0.1619780902269381 0.29871602899981986 1.901020409365024 -1.9177693447452475 0.4887387275681676 0.3901934119096453 -0.2734069122357374 -0.7469673056306041 0.1761695536160577 0.09490254169360612 -1.0068480466083556 -1.3938297386758394 1.1837684043312442 -0.06696575951017034 -0.11323337630619011 0.07575168911287931 0.06392745494337186 0.07984270921832791 -0.1736084326118839 0 30.5 31.25 30.6875 33.9375 35.1875 35.375 0.850416 7 253 253 253 253 253 253 1 0.727837324142456 -9.097966194152832 0.07661445438861847 1.0 1.0 1.62117122533813 47.699424743652344 47.78181838989258 0.8537927865982056 47.6279296875 47.6279296875 47.64226531982422 47.599266052246094 47.51326370239258 47.570594787597656 0 2
7452.817999999999 -0.5909293333636683 -0.8934000295451661 1.6222088972674769 -0.7114073199084778 0.8323215842247009 2.9560670852661133 0.2865680158138275 -0.11037798225879669 0.001087282202206552 0.001879142364487052 0.4135206937789917 -4.316479660101019e-21 0.0 0.0 0.0 0.0 0.0 0.0 1.191165518949916 -5.143557790472019 -1.8894553493244006 -0.23007305492319885 0.0991186859580143 -0.033070322164833424 -8.694978988330972e-17 -50.43867463785115 -20.17376144766251 -1.6354970771486625 -0.02914860464460255 0.09718438185904729 -0.5903666655169886 -0.893591896896698 1.6222456137286585 -0.7114193600467225 0.8331454396247864 2.9560670852661133 0.2870141863822937 -0.10955163091421127 0.0020420539658516645 0.001500464859418571 0.4004797637462616 -2.818352627574798e-22 1.1903325319290161 -5.145208358764648 -1.8795360326766968 -0.2347467988729477 0.10606630146503448 -0.03141874819993973 -8.724378450848052e-18 -5.010499021173158 -2.013806597894633 -0.20255617191844777 -0.003648189448200407 0.012155884967043777 -0.7476315197735399 0.17492788472810072 0.09562870480087451 -1.0066852436131202 -1.3925960571470268 1.1825089198817673 -0.06534691126324203 -0.1265121290862446 0.07656785024051134 0.0645980747365257 0.08401646486465351 -0.11340279007430193 0.27631592380717573 0.8295664251736455 -2.713210031269026 0.49187852897312084 0.357285461152775 -0.2779140756679717 -0.7475127342035144 0.17517464437877436 0.09550757332043672 -1.0066982640110882 -1.392819693415003 1.1827383143240968 -0.06601179335838672 -0.1231697244846121 0.07747803614720337 0.06566657408379441 0.08497383865611204 -0.12688610211866996 0 30.5 31.25 30.6875 33.9375 35.1875 35.375 0.841669 7 253 253 253 253 253 253 1 0.6703764796257019 -9.251194953918457 -0.1149216815829277 1.0 1.0 1.8101526917941513 47.73883056640625 47.80241775512695 0.7844129800796509 47.6279296875 47.599266052246094 47.64226531982422 47.570594787597656 47.51326370239258 47.5562629699707 0 2
7452.826 -0.588663403187887 -0.8942884367755433 1.6222694555865687 -0.711358444099762 0.8353837728500366 2.9560790061950684 0.29051437973976135 -0.10915308445692062 0.005931046791374683 0.0037094266153872013 0.35738152265548706 -7.844988125639307e-26 0.0 0.0 0.0 0.0 0.0 0.0 1.1748612162460559 -5.131085959110759 -1.8394627156140484 -0.21052681699141101 0.06774812883221135 -0.03273422834449444 2.39871962112977e-15 -50.42670022955336 -20.195226090623414 -1.643266765723521 -0.027757515898315852 0.09723027682890392 -0.5880397001849573 -0.8945293587497254 1.622247044240133 -0.7113696497729798 0.836143434047699 2.9560670852661133 0.29152989387512207 -0.11211802065372467 0.007609921041876078 0.006276710424572229 0.3337077498435974 -5.122217531973881e-27 1.1456317901611328 -5.12429666519165 -1.8472225666046143 -0.21027877926826477 0.07264488935470581 -0.028846239671111107 2.4068301717918284e-16 -5.009309502188253 -2.01594926423518 -0.20351844717819056 -0.003474083162579178 0.012161625539381339 -0.7481569640481969 0.17385114675810048 0.09628676858500664 -1.0061997538638174 -1.391853303052883 1.1818393763789927 -0.06183400188660484 -0.14568374699624598 0.07538810199860414 0.058894145788234244 0.07854201127473329 -0.04213183058046621 0.7135674824373759 1.4736410158291062 -2.76925806084443 0.4899607029041675 0.3173670037079824 -0.2420975836556204 -0.7480077312192361 0.17414224671692288 0.09610334620244418 -1.006401559885325 -1.3920350244160322 1.1819999733986852 -0.06303136364534079 -0.1394130605226458 0.07434353187234176 0.06005552002813562 0.07928502931749587 -0.06681612036284418 0 30.5 31.25 30.6875 33.9375 35.1875 35.375 0.84552 7 253 253 253 253 253 253 1 0.9959878921508789 -9.078812599182129 0.13407528400421143 1.0 1.0 1.7469355819890091 47.70121383666992 47.786293029785156 0.9030289053916931 47.6279296875 47.6279296875 47.65659713745117 47.584930419921875 47.5275993347168 47.570594787597656 0 2
7452.834 -0.5862539450274866 -0.8951664727977295 1.622354809437887 -0.7112842363170166 0.8380284905433655 2.9560790061950684 0.29184240102767944 -0.11374077945947647 0.009684700518846512 0.010262154042720795 0.3061601519584656 -1.42578784904457e-30 0.0 0.0 0.0 0.0 0.0 0.0 1.1608133252678914 -5.1283689552316645 -1.8097966229048046 -0.1968135301048859 0.041247794913752744 -0.03297772694880065 -7.719526300608651e-16 -50.413581001904454 -20.215178993544786 -1.6501183867509464 -0.02648628607448178 0.0972730402334178 -0.585726563130514 -0.8953463596156617 1.6223552862750452 -0.7112836998752137 0.83868008852005 2.9560670852661133 0.2918117344379425 -0.11316859722137451 0.010227534919977188 0.011847649700939655 0.2829928398132324 -9.30937570660549e-32 1.2137943506240845 -5.107792377471924 -1.8544270992279053 -0.20373617112636566 0.04871872067451477 -0.045466840267181396 -7.745627562547171e-17 -5.008006258640214 -2.0179410240591698 -0.20436701985138103 -0.0033149782144660652 0.012166974413512409 -0.7486193271962008 0.17265514208736052 0.09680576120330943 -1.0057121069302488 -1.391495920220695 1.18154789273901 -0.058791860553228804 -0.15773343909339782 0.07424245064278828 0.05393477010415546 0.07332009018862334 0.008855242166912691 -0.6412205529358819 1.5798152813187323 -4.0436455973469645 0.519927872500546 0.3525064228562103 -0.255967686542015 -0.7485025154603439 0.1729055237768781 0.09667807113802125 -1.0058261771535537 -1.3916346205017789 1.1816832095929055 -0.05984812146199338 -0.15256248026242522 0.07508476234492723 0.0558114837670968 0.0752950854223121 -0.01427773154254619 0 30.5 31.25 30.6875 33.9375 35.1875 35.375 0.837205 7 253 253 253 253 253 253 1 0.8044517636299133 -9.251195907592773 -0.17238253355026245 1.0 1.0 1.943008781143387 47.69673538208008 47.788089752197266 0.8381313681602478 47.61359786987305 47.599266052246094 47.64226531982422 47.584930419921875 47.51326370239258 47.570594787597656 0 2
7452.842 -0.5839775244342249 -0.8960660857013245 1.6224406401263636 -0.7111755174449463 0.8401493430137634 2.9560670852661133 0.28968364000320435 -0.1102934181690216 0.014461626298725605 0.01234077662229538 0.22959654033184052 -2.591298949230073e-35 0.0 0.0 0.0 0.0 0.0 0.0 1.155704541575721 -5.122341333056063 -1.8019352514217402 -0.19503417041116464 0.0067665388288546255 -0.03432374791005508 1.3140846197713023e-15 -50.39903239181353 -20.2345393758345 -1.6560408853544972 -0.02525721352850289 0.09731528262819485 -0.5834024588214319 -0.8962828081897278 1.6224654356585901 -0.7111751002124329 0.8405799865722656 2.9560790061950684 0.288674920797348 -0.11198066174983978 0.015333806164562702 0.013316075317561626 0.22619029879570007 -1.6919330571287854e-36 1.1775481700897217 -5.1268815994262695 -1.8092496395111084 -0.19454270601272583 0.02134987711906433 -0.03796662017703056 1.3185278026214376e-16 -5.006561022476825 -2.019873636660639 -0.20510052079252553 -0.0031611495990663476 0.012172258119410615 -0.7490679613587738 0.17131695184798174 0.09740794220109561 -1.0047613442462189 -1.3915073055390714 1.1817379414223916 -0.05451915932621222 -0.16882082747420996 0.07100525636736983 0.048618925127200674 0.06758337061509469 0.06250895077001531 -1.7128819346566233 0.8431423729947565 -6.084450402244996 0.5359214767122704 0.38981514437926584 -0.28464418268717506 -0.7489552763762442 0.1716548332533985 0.09726430492732749 -1.0050261970668444 -1.3914882420286876 1.1816566975494371 -0.055186388977787014 -0.16861207366500688 0.07032580217250767 0.048826792040797914 0.0676331849692301 0.060112654465755616 0 30.5 31.25 30.6875 33.9375 35.1875 35.375 0.833856 7 253 253 253 253 253 253 1 0.9768342971801758 -9.366117477416992 0.15322890877723694 1.0 1.0 1.7184707790026397 47.71017074584961 47.780921936035156 0.8560339212417603 47.64226531982422 47.61359786987305 47.65659713745117 47.599266052246094 47.498931884765625 47.570594787597656 0 2
7452.849999999999 -0.581665341054098 -0.8969658774188538 1.622573200856344 -0.7110402149013062 0.841834545135498 2.9560790061950684 0.28669023513793945 -0.10878926515579224 0.017284339293837547 0.0227230042219162 0.18075832724571228 -4.7095539438260615e-40 0.0 0.0 0.0 0.0 0.0 0.0 1.1540057724312116 -5.115121817951221 -1.7846817751901722 -0.18563174167468394 -0.017772908397222544 -0.03532148104028187 -1.1619739186708667e-15 -50.382694738537495 -20.252141874451112 -1.6609854625941545 -0.024165214075556465 0.0973509063879163 -0.5811374823199671 -0.8971820038608094 1.6225979963885706 -0.710992233162262 0.8421610593795776 2.9560790061950684 0.28832754492759705 -0.1083274632692337 0.017616305500268936 0.023292364552617073 0.154384046792984 -3.0750093501143786e-41 1.200221300125122 -5.156989097595215 -1.7883830070495605 -0.1845262497663498 -0.012129574082791805 -0.028453372418880463 -1.165902784826108e-16 -5.004938065562601 -2.0216307719348676 -0.20571290625711233 -0.003024476817289898 0.012176713962180657 -0.7494774717265569 0.16994304025026052 0.09796224962717898 -1.003780994118197 -1.3917385373910662 1.1821359526063784 -0.05018209725294833 -0.18524948347294723 0.06591342218154501 0.03876117647752905 0.05508455859292273 0.13395946564854658 -3.241442963787076 2.214127620373628 -5.884854747872884 0.5368305093376929 0.43552515184201984 -0.2897775013750559 -0.7493816000137541 0.17027103697276852 0.09782632629249893 -1.0040412447391902 -1.391660979935718 1.182012745107014 -0.05085459164239666 -0.17828793892608336 0.06642868250125843 0.03987068737466582 0.05596502513490943 0.10595104734531613 0 30.5 31.25 30.6875 33.9375 35.1875 35.375 0.841585 7 253 253 253 253 253 253 1 1.2258312702178955 -8.944737434387207 0.26815059781074524 1.0 1.0 1.8954391703509734 47.712860107421875 47.795249938964844 0.8627467155456543 47.64226531982422 47.6279296875 47.670928955078125 47.584930419921875 47.5275993347168 47.584930419921875 0 2
7452.857999999999 -0.5794609228717249 -0.8978418868831177 1.6227057615863245 -0.7108855408481141 0.8428195118904114 2.9560790061950684 0.2850901484489441 -0.1068149209022522 0.017241096124053 0.01902969926595688 0.08162019401788712 -8.407790785948902e-45 0.0 0.0 0.0 0.0 0.0 0.0 1.1511514507166012 -5.117252773502353 -1.8104445210152784 -0.1969341366742514 -0.05660854339527683 -0.037280095319259535 1.3541982522317775e-15 -50.36551534675675 -20.26802900380626 -1.6646174745773907 -0.02316500940067737 0.09738436491645444 -0.5788853804217737 -0.8980580729297181 1.6227176825152796 -0.7108748716166993 0.8429694175720215 2.9560670852661133 0.2847784459590912 -0.10647942125797272 0.016657061874866486 0.015603727661073208 0.06348279118537903 -0.0 1.1705479621887207 -5.133813381195068 -1.8243043422698975 -0.19451607763767242 -0.07020332664251328 -0.03718790039420128 1.358777067293966e-16 -5.003231491662319 -2.023216673800516 -0.20616273062792007 -0.0028992929127625742 0.012180898976442167 -0.7498727778307874 0.16842178246246636 0.09851809808304754 -1.002290851786653 -1.3924344352756273 1.1830863746588598 -0.04796110566778958 -0.20120174647327224 0.0664499264755431 0.041270816771280625 0.06164265511575165 0.22130022221299503 -5.122769510513653 2.1121747128861186 -6.418473417407587 0.5609065009683175 0.5118671851485375 -0.33883215025686897 -0.7497654900897472 0.1688170935670595 0.09836981975885423 -1.0027418939989854 -1.3922295953339516 1.182811987180689 -0.04802013795484964 -0.1979400313850575 0.06583607786002081 0.03950419210534933 0.05839304522571303 0.20347698093773198 0 30.5 31.25 30.6875 33.9375 35.1875 35.375 0.833496 7 253 253 253 253 253 253 1 0.8236053586006165 -9.155426979064941 -0.24899697303771973 1.0 1.0 1.584412393535351 47.71017074584961 47.78361129760742 0.8605108857154846 47.6279296875 47.61359786987305 47.65659713745117 47.599266052246094 47.51326370239258 47.570594787597656 0 2
7452.866 -0.5772331396685999 -0.8987065118602295 1.6228001753436487 -0.7108427447131653 0.8432108759880066 2.9560790061950684 0.2796650528907776 -0.10703320056200027 0.012651320546865463 0.0043516564182937145 0.03283660113811493 -0.0002696681476663798 0.0 0.0 0.0 0.0 0.0 0.0 1.1494333799532757 -5.122144745181423 -1.847576661148994 -0.2141804788349554 -0.07374413771351135 -0.039243627259729255 7.805723864023434e-16 -50.34865866103304 -20.283831760091402 -1.6677348011422144 -0.02195072436661768 0.0974248967426652 -0.5766580740558069 -0.8989094656756897 1.6228354612933558 -0.7108433407596131 0.8432806134223938 2.956055164337158 0.2785661220550537 -0.10412713140249252 0.012042658403515816 0.0026093688793480396 0.026161814108490944 -0.00025532522704452276 1.1619762182235718 -5.117605686187744 -1.84560227394104 -0.21329285204410553 -0.07183361053466797 -0.041513293981552124 7.832116577159027e-17 -5.001556974876831 -2.024794153288142 -0.20654881125405683 -0.00274731507703504 0.012185968723324303 -0.7502568541670924 0.16681900413364975 0.09907190210410649 -1.0004607542575965 -1.3934038796796968 1.1843815649441218 -0.04838511383698061 -0.20266288872638902 0.0690242546108423 0.049296414532833205 0.07485511272315819 0.2524069281622391 -5.209531877370298 2.114667661623654 -6.2843376782625215 0.541226454961979 0.5025810350877437 -0.340982103256302 -0.75015973659621 0.16723545218113922 0.09894172787930319 -1.0009434782730522 -1.3931345052153197 1.184052570956178 -0.04861607193669288 -0.20220374494209262 0.07054596549379527 0.04972857570731758 0.07524211348103785 0.2468320881161816 0 30.5 31.25 30.6875 33.9375 35.1875 35.375 0.830568 7 253 253 253 253 253 253 1 1.3407529592514038 -9.02135181427002 -0.019153613597154617 1.0 1.0 1.6613765521383814 47.718231201171875 47.775550842285156 0.8000850081443787 47.64226531982422 47.6279296875 47.65659713745117 47.584930419921875 47.5275993347168 47.584930419921875 0 2
7452.874 -0.5750163237201136 -0.89954628170047 1.622894589100973 -0.710820273762085 0.8433110117912292 2.956043243408203 0.2794888913631439 -0.10407494008541107 0.01006234996020794 1.7304344510193914e-05 0.009600126184523106 -0.0002182264724979177 0.0 0.0 0.0 0.0 0.0 0.0 1.1577469902212736 -5.117880099632313 -1.859663356187799 -0.21856331689876915 -0.08363223765789098 -0.03962667859036145 3.0823799091228437e-15 -50.33179867316907 -20.298713878328634 -1.670351370048227 -0.020751176743835944 0.0974678010297115 -0.574500862752096 -0.8997379106334229 1.62292987505068 -0.7107961934855958 0.8433099389076233 2.956055164337158 0.2797631323337555 -0.10322799533605576 0.009204217232763767 1.129850033976254e-06 0.006171646062284708 -0.00020813067385461181 1.1552358865737915 -5.136697769165039 -1.902620792388916 -0.22144579887390137 -0.08149418979883194 -0.04319419711828232 3.0928020519162046e-16 -4.999882130061895 -2.026279731868742 -0.20687287308734778 -0.0025971817504692163 0.012191335219133109 -0.7506229477962897 0.1652109378232526 0.09961776970990863 -0.9985297853204544 -1.3945071980466208 1.185847167312075 -0.04877769831896244 -0.20714227568505622 0.0701255070355959 0.05135064455907421 0.07892192546637933 0.27359266416110734 -4.525552004229174 2.1216309477558424 -7.155218893481797 0.5233083026645831 0.465501045450455 -0.305367410690707 -0.7505421045423687 0.1656012945639816 0.09949980804388886 -0.9989551451053555 -1.3942299811651995 1.18547754394795 -0.04869648695010983 -0.2063394208306003 0.07033678455244721 0.05142094337377893 0.07884902601759677 0.2698898997607508 0 30.5 31.25 30.6875 33.9375 35.1875 35.375 0.843553 7 253 253 253 253 253 253 1 1.3407529592514038 -9.21288776397705 -0.09576806426048279 1.0 1.0 1.8233988074411656 47.69673538208008 47.78361129760742 0.831413209438324 47.61359786987305 47.599266052246094 47.6279296875 47.54193115234375 47.498931884765625 47.5562629699707 0 2
7452.882 -0.5728371779071253 -0.9002884191325684 1.6229780356036585 -0.7108081144145508 0.8433682918548584 2.956031322479248 0.2733474671840668 -0.09814897179603577 0.008828387595713139 3.144978999447545e-10 0.0009132095729000866 -0.0001827645901357755 0.0 0.0 0.0 0.0 0.0 0.0 1.1607551670144547 -5.111805330439241 -1.8777643099550068 -0.22363477226438536 -0.0869233539175445 -0.03983310395099498 6.948363120143878e-16 -50.31684717716649 -20.311831752229786 -1.6726384666954677 -0.019679169827010488 0.09750445444039516 -0.572334114705221 -0.9005531233600159 1.6230137983905237 -0.7107842725566407 0.8433557748794556 2.9560909271240234 0.27184516191482544 -0.09872538596391678 0.008957898244261742 2.0534464753585446e-11 -0.0008105401648208499 -0.00017563054279889911 1.1439876556396484 -5.1072845458984375 -1.859306812286377 -0.23022180795669556 -0.07491061836481094 -0.028876520693302155 6.971856925175481e-17 -4.998396871842406 -2.02758919818126 -0.20715612980981174 -0.002463011200281845 0.012195919851307508 -0.7509938598776827 0.16360135315535299 0.10016431086059285 -0.9965986155411829 -1.3955782746001595 1.1873295792679819 -0.04665483029902287 -0.2029072278905368 0.06700762248978137 0.04877326861138816 0.07550107945163902 0.27265592734250155 -5.109856929635178 1.6949411527535267 -7.610789896498817 0.5269877588045611 0.42072454679494536 -0.306181055744291 -0.7509128076189101 0.16398427523252587 0.09999418087586036 -0.9970568585203116 -1.395348421102781 1.186935750716845 -0.04707603615911458 -0.20363142262797213 0.0666498167671242 0.04859268725227232 0.07509002731451801 0.27243474122852285 0 30.5 31.25 30.6875 33.9375 35.1875 35.375 0.843108 7 253 253 253 253 253 253 1 1.2066776752471924 -9.346963882446289 -0.2298433631658554 1.0 1.0 1.677032277714711 47.69673538208008 47.777339935302734 0.8537927865982056 47.64226531982422 47.6279296875 47.64226531982422 47.584930419921875 47.5275993347168 47.570594787597656 0 2
7452.889999999999 -0.570679012929098 -0.9011272949031373 1.6230738798724573 -0.710748092537262 0.8433425426483154 2.9560670852661133 0.27304232120513916 -0.09282278269529343 0.00966570433229208 0.0004492818843573332 -0.004088566172868013 -0.00015721912495791912 0.0 0.0 0.0 0.0 0.0 0.0 1.1660342961785308 -5.103728538666425 -1.883236913446126 -0.2239677124071949 -0.08997663080795747 -0.039330055546794834 -1.557979877210663e-16 -50.299582083935924 -20.326314795281586 -1.6749136372338995 -0.018548428613123 0.0975391107537552 -0.5701277891742151 -0.9013074797442933 1.623110596333639 -0.7107473176768799 0.8433426022529602 2.9560790061950684 0.2738136053085327 -0.09278932958841324 0.010150903835892677 0.002664082683622837 -0.003929543774574995 -0.00012942512694280595 1.1688135862350464 -5.1121368408203125 -1.8708807229995728 -0.22346477210521698 -0.08609946817159653 -0.04516008496284485 -1.5632477186929587e-17 -4.996681784494189 -2.029034939855711 -0.2074379094847286 -0.0023214895660408214 0.012200254685264651 -0.751355749239936 0.16194353057981506 0.10065749532747137 -0.9946667308782454 -1.3967669177197388 1.1888645767583648 -0.045393214086292946 -0.20582218025060897 0.06176220184871427 0.04324202594021621 0.06738079106576567 0.2777425198392995 -4.259879005836186 1.8511370207493105 -7.228654561195645 0.4956188057497916 0.3484201568131344 -0.2686831900310733 -0.7512693254951011 0.16235994025820263 0.10054468920253018 -0.9951234042551602 -1.3964724721733226 1.1884708349702373 -0.04580190586565502 -0.20497799698302446 0.0623661911082353 0.04478541636246931 0.06966024744207483 0.2771302039359177 0 30.5 31.25 30.6875 33.9375 35.1875 35.375 0.833533 7 253 253 253 253 253 253 1 1.3790602684020996 -9.232041358947754 -0.07661445438861847 1.0 1.0 1.7386804578117394 47.703006744384766 47.77017593383789 0.8381313681602478 47.64226531982422 47.6279296875 47.64226531982422 47.584930419921875 47.5562629699707 47.570594787597656 0 2
7452.897999999999 -0.5685089270221155 -0.9018123310855408 1.6231582800494593 -0.7107348603061219 0.8433434367179871 2.956031322479248 0.27587318420410156 -0.09438029676675797 0.011763843707740307 0.004424267914146185 -0.0016453342977911234 -0.00011035373609047383 0.0 0.0 0.0 0.0 0.0 0.0 1.1679982799455697 -5.102957264302456 -1.8858916691925047 -0.22213870832686028 -0.08946977865489956 -0.03819694401201368 3.347056315903533e-17 -50.285491908408034 -20.338166181018575 -1.6769042086188617 -0.017575536789164584 0.09757433858246706 -0.5679228941546839 -0.9020404380610962 1.6231821219073694 -0.7106868189624329 0.8433677554130554 2.9560670852661133 0.27399641275405884 -0.09421705454587936 0.010604018345475197 0.004590190481394529 -0.0009980732575058937 -0.00010706906323321164 1.1465437412261963 -5.153802871704102 -1.8954784870147705 -0.22104591131210327 -0.08645127713680267 -0.033391088247299194 3.35837338255016e-18 -4.995282088503017 -2.0302179814443235 -0.2076844415790392 -0.0021997240911688443 0.012204661004729452 -0.7517191155170593 0.16029682028204714 0.10114291734846849 -0.9927763339530944 -1.3979359834821763 1.1903731979492227 -0.04471926625381589 -0.2056568839979774 0.06226605987687807 0.04258269844452026 0.06665330508280501 0.27499410895203885 -5.945767493447583 3.2888139456661305 -8.559249896511206 0.4984748211202944 0.3281483785390677 -0.23206314353051577 -0.7516261791313086 0.16073446419510223 0.10099754440873093 -0.9932336885196505 -1.3976488422807947 1.189956131224066 -0.04477560301526913 -0.2074002829495937 0.061883192085360104 0.04217102012784 0.0659336675868206 0.2775174659716201 0 30.5 31.25 30.6875 33.9375 35.1875 35.375 0.83286 7 253 253 253 253 253 253 1 0.8427590131759644 -9.385271072387695 -0.19153614342212677 1.0 1.0 1.6379790062025392 47.685096740722656 47.76032257080078 0.8672236800193787 47.6279296875 47.6279296875 47.64226531982422 47.599266052246094 47.498931884765625 47.570594787597656 0 2
7452.906 -0.5663178602801722 -0.9025564950755616 1.6232536474811 -0.7106747788241883 0.843380868434906 2.956055164337158 0.26919418573379517 -0.09298048168420792 0.010892778635025024 0.004287207033485174 0.0023225354962050915 -9.829779446590692e-05 0.0 0.0 0.0 0.0 0.0 0.0 1.1553494482649092 -5.102175943769729 -1.9075710279362517 -0.226400247753083 -0.08610163767825249 -0.03719921306212381 -3.58100878627939e-15 -50.26999746165811 -20.350868325080096 -1.6789624364274607 -0.016599802876793378 0.0976047519435369 -0.5657551924334925 -0.9027730983546753 1.623242203389303 -0.7106147569468995 0.8433206677436829 2.9560670852661133 0.26791492104530334 -0.09502136707305908 0.011345111764967442 0.004211402032524347 0.002219126559793949 -8.393655298277736e-05 1.1613545417785645 -5.140888690948486 -1.8870455026626587 -0.22150543332099915 -0.08003024011850357 -0.037555016577243805 -3.593116893007059e-16 -4.9937428944057975 -2.031485948332148 -0.20793935291558083 -0.002077602905377432 0.012208465127486157 -0.752073092723295 0.15866302828846252 0.1016315033159979 -0.9908740029785343 -1.3991209505683642 1.1919174358873619 -0.04319882655017125 -0.20063027478195886 0.06256066385558628 0.04267812510609791 0.06709603352891272 0.2656949032332884 -5.554700430048494 2.557853674886241 -8.159177587083605 0.48366321723095107 0.30185561590796905 -0.23852471187626115 -0.7519773379930128 0.1590941445642681 0.10147998276585873 -0.9913986232028977 -1.3987920950315984 1.1914737768531807 -0.043568099726539425 -0.20151332215825396 0.061285969842479006 0.0418386321408565 0.06566869224831287 0.2668710748024358 0 30.5 31.25 30.6875 33.9375 35.1875 35.375 0.824557 7 253 253 253 253 253 253 1 1.359906554222107 -9.423578262329102 -0.2298433631658554 1.0 1.0 1.6404412678064386 47.702110290527344 47.774654388427734 0.831413209438324 47.65659713745117 47.6279296875 47.68526077270508 47.599266052246094 47.5275993347168 47.584930419921875 0 2
7452.914 -0.5641120115863245 -0.9033236068538208 1.62333852449526 -0.7105657619288941 0.8433441519737244 2.956115245819092 0.27143722772598267 -0.08902264386415482 0.013262254185974598 0.0069099715910851955 0.0006221554940566421 -6.666802073596045e-05 0.0 0.0 0.0 0.0 0.0 0.0 1.1536950487862763 -5.0958406492334705 -1.9105734110038186 -0.2247309839764455 -0.08674373798375425 -0.03547554200919699 -2.0700419772635295e-15 -50.253982374977895 -20.363936670321642 -1.6808467684226878 -0.015650985594735985 0.09763127703709859 -0.5635603109942835 -0.903514639740326 1.6233633200274866 -0.7105894249728699 0.8433678150177002 2.9560909271240234 0.27205702662467957 -0.08616373687982559 0.01349621918052435 0.007752915844321251 -0.00053344143088907 5.794462049379945e-05 1.1172798871994019 -5.140783309936523 -1.8874640464782715 -0.22767643630504608 -0.08129021525382996 -0.03770271688699722 -2.077041203092714e-16 -4.992151980752507 -2.0327904705423103 -0.20817272727063751 -0.001958850558948632 0.012211782903243002 -0.7524155114215675 0.15701769429515994 0.10210586270671711 -0.9890346392809662 -1.400255279686514 1.193430218602503 -0.04172294897249023 -0.20544330147202441 0.054627741185960914 0.03458812136634267 0.05488744527094432 0.27258781884002065 -5.384093701009059 2.093249926799859 -7.1334434822041475 0.4658299557538117 0.2772898172484033 -0.25856508293378744 -0.7523237521234438 0.1574243054950234 0.10197569526291358 -0.9895541079294682 -1.3999839206615066 1.1930867046555205 -0.042098546096125525 -0.20449643572983128 0.05692894372928816 0.036856097489821875 0.058206970040356805 0.27081338065946625 0 30.5 31.25 30.6875 33.9375 35.1875 35.375 0.83784 7 253 253 253 253 253 253 1 1.5514426231384277 -9.251194953918457 -0.13407529890537262 1.0 1.0 1.807167237628218 47.705692291259766 47.76659393310547 0.8023208975791931 47.6279296875 47.599266052246094 47.64226531982422 47.584930419921875 47.51326370239258 47.5562629699707 0 2
7452.922 -0.5619667212115687 -0.9040285509875794 1.6234472433673304 -0.7105533641627808 0.8433439135551453 2.9560790061950684 0.27163416147232056 -0.07903238385915756 0.013407755643129349 0.0087618138641119 -0.00018662265210878104 6.0128422774141654e-05 0.0 0.0 0.0 0.0 0.0 0.0 1.153782096654655 -5.085636780475845 -1.9274841894764327 -0.22760448002951209 -0.08515745476410266 -0.03394062145700104 -2.017778661371955e-15 -50.23898214897097 -20.375678429678835 -1.682821606214751 -0.01468401975524989 0.09766624475836114 -0.5613916555987757 -0.9041722577861329 1.6234343687640589 -0.7105177205852051 0.8434040546417236 2.9560909271240234 0.27126872539520264 -0.07794631272554398 0.012124543078243732 0.007890243083238602 -1.218512625200674e-05 5.8186647947877645e-05 1.1649545431137085 -5.098844528198242 -1.916595220565796 -0.23338979482650757 -0.08727368712425232 -0.023314092308282852 -2.024601174480081e-16 -4.990661881770631 -2.0339625688902436 -0.20841731076082484 -0.001837826770146562 0.012216156688300806 -0.7527569217993664 0.15539418115325074 0.10253530443811398 -0.9872626605250138 -1.4014187925838004 1.194925948560435 -0.04116823993137386 -0.20483257952043635 0.04931140456323139 0.030756506303916763 0.04904729514241519 0.27127880528878345 -8.287063425166949 3.4073742925555592 -7.606009768007642 0.46893906192520995 0.3585780275726187 -0.28536717807757267 -0.7526582750899389 0.15581005755390923 0.10243185208737601 -0.987677792010249 -1.4011402959779025 1.194555879320644 -0.0408673972821839 -0.20541244639873038 0.04936616063738542 0.030209192920848695 0.04812766449998553 0.2718182122320317 0 30.5 31.25 30.6875 33.9375 35.1875 35.375 0.834 7 253 253 253 253 253 253 1 1.3215993642807007 -9.232041358947754 0.019153613597154617 1.0 1.0 1.6587179665093679 47.693153381347656 47.77913284301758 0.8000850081443787 47.6279296875 47.61359786987305 47.64226531982422 47.584930419921875 47.5275993347168 47.584930419921875 0 2
7452.929999999999 -0.5597499052630823 -0.9046890896609803 1.6234930197345179 -0.7105553907207032 0.8434299230575562 2.956055164337158 0.2704516053199768 -0.0790938287973404 0.008514043875038624 0.002968908753246069 0.005350736901164055 5.3042316721985117e-05 0.0 0.0 0.0 0.0 0.0 0.0 1.1519369260090544 -5.092019998796858 -1.9778988569917122 -0.24376083579141838 -0.07640472731965967 -0.03326152504312066 8.619978356754667e-16 -50.22620420910781 -20.387971426391488 -1.6850509793680897 -0.013661226885878876 0.09770201150057843 -0.5592106024371546 -0.9048093122294922 1.6235163847552698 -0.7105198067477723 0.8434305191040039 2.9560670852661133 0.2690988779067993 -0.07928861677646637 0.0068724313750863075 0.001677687163464725 0.007046745624393225 5.152387166162953e-05 1.143744707107544 -5.086716175079346 -1.95631742477417 -0.24231857061386108 -0.0802808627486229 -0.02644433081150055 8.649124227140042e-17 -4.989392541217243 -2.0351896934377436 -0.20869341843354863 -0.0017098157658728159 0.012220630415413358 -0.7531001277132234 0.15376157649920655 0.10295699660114768 -0.9854155703251646 -1.402585412655741 1.1964148421523972 -0.04310205007834437 -0.20023026552852508 0.053672771294318036 0.037513005146547096 0.059926958156028866 0.2620516619935705 -9.829111822348045 3.210223892205593 -7.353209503555337 0.45811309453424925 0.43354671864549466 -0.34308446468258325 -0.7530229364909747 0.15417163464940695 0.1028869332902707 -0.9857865346565576 -1.4022679397244249 1.1960184354530652 -0.04266993946057025 -0.20202437861824546 0.052576031709656135 0.03586824692109522 0.057266769051557205 0.26509976113333145 0 30.5 31.25 30.6875 33.9375 35.1875 35.375 0.839581 7 253 253 253 253 253 253 1 1.5322890281677246 -9.059659004211426 -0.05746084079146385 1.0 1.0 1.6332257729770032 47.71464920043945 47.796146392822266 0.8761723637580872 47.6279296875 47.6279296875 47.670928955078125 47.599266052246094 47.5562629699707 47.584930419921875 0 2
7452.938 -0.557533089314596 -0.9053147596171875 1.6235273520099085 -0.710532085304596 0.8435766100883484 2.9560790061950684 0.2693081796169281 -0.08304654806852341 0.0030149694066494703 0.0004656124219764024 0.01295415498316288 4.7448829718632624e-05 0.0 0.0 0.0 0.0 0.0 0.0 1.1564838801133062 -5.102928920096941 -2.0326185894855624 -0.2607079060477163 -0.06640093587617041 -0.032743464765982756 4.634751470347534e-16 -50.214285024960574 -20.399811732782577 -1.6872177915003308 -0.012718530223939224 0.09773120520010631 -0.5570176283465784 -0.9054713410190125 1.6235387961017054 -0.7105440658381958 0.8436131477355957 2.9560790061950684 0.2691298723220825 -0.08397084474563599 0.002467022044584155 0.00039643532363697886 0.0150285754352808 4.623016866389662e-05 1.1581394672393799 -5.125969886779785 -2.0228686332702637 -0.253833532333374 -0.08653774112462997 -0.020553413778543472 4.6504224917854615e-17 -4.988208508113049 -2.0363716290521467 -0.20896177792920625 -0.0015918294657780423 0.012224281982120219 -0.7534694878196884 0.15216554491890197 0.10342712571035065 -0.9835771907294009 -1.4036019120771908 1.1978084706474443 -0.04473998344904293 -0.19753972712786125 0.05926160108054896 0.042919773404014525 0.06877339352333636 0.2541033157607336 -11.483236815490912 3.792212080385965 -8.449923223740301 0.4618873426293459 0.459132155131297 -0.343536269278303 -0.7533844608311819 0.1525428437081858 0.10331770279232866 -0.9840165011661095 -1.4033586057860319 1.1974783148124795 -0.044575534117573846 -0.19822933452429564 0.058335413460041105 0.04212689971453616 0.06745183015097178 0.2563556727351953 0 30.5 31.25 30.6875 33.9375 35.1875 35.375 0.833652 7 253 253 253 253 253 253 1 1.742978811264038 -9.27034854888916 0.1149216815829277 1.0 1.0 1.5995565861530077 47.70658874511719 47.780921936035156 0.8582697510719299 47.61359786987305 47.599266052246094 47.65659713745117 47.584930419921875 47.498931884765625 47.5562629699707 0 2
7452.946 -0.5553877989398401 -0.9059150975993653 1.6235745588885706 -0.7104603809169312 0.8436890244483948 2.9560670852661133 0.269677996635437 -0.08283014595508575 0.0013072473229840398 0.00027498346753418446 0.02560649998486042 4.292274024919607e-05 0.0 0.0 0.0 0.0 0.0 0.0 1.1683123521342849 -5.106693883882461 -2.0836712963532213 -0.27835341083044823 -0.054734021041720295 -0.03263504352975469 -1.215717982157501e-15 -50.20233361443368 -20.410668816410272 -1.689032312274842 -0.011919944896712838 0.09775853184204819 -0.554824177418844 -0.9061191242984314 1.623549763356344 -0.7104961437037964 0.8437750339508057 2.956055164337158 0.26896828413009644 -0.08222851902246475 0.0011060821125283837 0.000289664079900831 0.030664538964629173 4.192296910332516e-05 1.1501989364624023 -5.0732221603393555 -2.0954480171203613 -0.2735159695148468 -0.058097634464502335 -0.032315343618392944 -1.2198285677374945e-16 -4.98702127369072 -2.0374554163617207 -0.20918650617059956 -0.001491879893584217 0.01222770001606381 -0.753829691251447 0.1505617316687731 0.10388083467211064 -0.981769822704344 -1.4046728832928723 1.1992026121131827 -0.04511174703025276 -0.1940157490971025 0.058635368413663784 0.04270950168751908 0.0685726845974318 0.23830677078164755 -12.773257092824666 3.7820445784754018 -10.353218092174389 0.466603580198637 0.42598309089801506 -0.3260514270817457 -0.753719514609023 0.15095406166148606 0.10371677967609386 -0.9823236411920414 -1.4044711313558775 1.198897234627192 -0.045144846329937115 -0.19559823357419873 0.05898028675970133 0.04294350755442532 0.06891895820950192 0.24407434261031355 0 30.4375 31.25 30.6875 33.9375 35.1875 35.375 0.837121 7 253 253 253 253 253 253 1 1.9345149993896484 -9.423578262329102 0.05746084079146385 1.0 1.0 1.549940849197568 47.730770111083984 47.80331039428711 0.938839316368103 47.670928955078125 47.64226531982422 47.68526077270508 47.584930419921875 47.5562629699707 47.599266052246094 0 2
