UthiraS/rtde-2.8/rtde/Verfied/case3/robot_data_replay.csv
timestamp target_q_0 target_q_1 target_q_2 target_q_3 target_q_4 target_q_5 target_qd_0 target_qd_1 target_qd_2 target_qd_3 target_qd_4 target_qd_5 target_qdd_0 target_qdd_1 target_qdd_2 target_qdd_3 target_qdd_4 target_qdd_5 target_current_0 target_current_1 target_current_2 target_current_3 target_current_4 target_current_5 target_moment_0 target_moment_1 target_moment_2 target_moment_3 target_moment_4 target_moment_5 actual_q_0 actual_q_1 actual_q_2 actual_q_3 actual_q_4 actual_q_5 actual_qd_0 actual_qd_1 actual_qd_2 actual_qd_3 actual_qd_4 actual_qd_5 actual_current_0 actual_current_1 actual_current_2 actual_current_3 actual_current_4 actual_current_5 joint_control_output_0 joint_control_output_1 joint_control_output_2 joint_control_output_3 joint_control_output_4 joint_control_output_5 actual_TCP_pose_0 actual_TCP_pose_1 actual_TCP_pose_2 actual_TCP_pose_3 actual_TCP_pose_4 actual_TCP_pose_5 actual_TCP_speed_0 actual_TCP_speed_1 actual_TCP_speed_2 actual_TCP_speed_3 actual_TCP_speed_4 actual_TCP_speed_5 actual_TCP_force_0 actual_TCP_force_1 actual_TCP_force_2 actual_TCP_force_3 actual_TCP_force_4 actual_TCP_force_5 target_TCP_pose_0 target_TCP_pose_1 target_TCP_pose_2 target_TCP_pose_3 target_TCP_pose_4 target_TCP_pose_5 target_TCP_speed_0 target_TCP_speed_1 target_TCP_speed_2 target_TCP_speed_3 target_TCP_speed_4 target_TCP_speed_5 actual_digital_input_bits joint_temperatures_0 joint_temperatures_1 joint_temperatures_2 joint_temperatures_3 joint_temperatures_4 joint_temperatures_5 actual_execution_time robot_mode joint_mode_0 joint_mode_1 joint_mode_2 joint_mode_3 joint_mode_4 joint_mode_5 safety_mode actual_tool_accelerometer_0 actual_tool_accelerometer_1 actual_tool_accelerometer_2 speed_scaling target_speed_fraction actual_momentum actual_main_voltage actual_robot_voltage actual_robot_current actual_joint_voltage_0 actual_joint_voltage_1 actual_joint_voltage_2 actual_joint_voltage_3 actual_joint_voltage_4 actual_joint_voltage_5 actual_digital_output_bits runtime_state
24990.819 -0.0006094970779892961 -1.5016990761044466 1.5701340856860364 -0.0014733655727354744 1.56996855341609 3.139896273139874 6.208495358462252e-05 0.18555330646269255 -6.951140950829096e-05 -0.017180831708505886 -1.2899034788053195e-05 2.966479911035157e-06 -0.002310890874300284 -0.3482173979990899 -0.0020929010284831406 -0.4400915273509356 0.0032561776784900687 -0.004593446158374093 0.017301521336288126 -2.2105339963287363 -2.7955943942768506 -0.4558204853943062 -0.0008879860924368846 0.010345713194364751 0.13032568915210452 -31.822295756210657 -27.3230525428591 -2.2645569435854496 -0.005285480994110075 0.0823089401195273 -0.0006225744830530289 -1.5017925959876557 1.5701301733600062 -0.001541451816894579 1.5698845386505127 3.139897346496582 0.0 0.18570160865783691 -0.0 -0.019033676013350487 -0.0006804830627515912 0.00012463770690374076 -0.46370619535446167 -2.2265586853027344 -2.739659547805786 -0.4977046847343445 -0.08064484596252441 0.19998566806316376 0.017301521336288126 -2.2105339963287363 -2.7955943942768506 -0.4558204853943062 -0.0008879860924368846 0.010345713194364751 -0.6239909245129104 -0.1327101247848684 0.41126417116202046 -1.2591481426596032 -1.2579183946706036 1.1758833239633604 -0.049020090730629705 -0.00010544653492405795 -0.11202074591416387 -0.00024782141258759794 -0.16666662798398604 0.0006395799883594386 9.529119570903227 7.7459317504183325 5.752070512954939 -0.2874101354179943 -0.5474602192644782 0.3300710389970328 -0.6240016517087125 -0.13270041640403307 0.4111896278302589 -1.2592994729280897 -1.2579885924597671 1.1757458588637169 -0.0486987335448813 2.708222493215218e-07 -0.1122661154332169 -8.309116224825966e-05 -0.16830294990463188 4.609919499112908e-05 0 33.5 34.5625 33.5625 36.8125 38.875 39.5 1.034894 7 253 253 253 253 253 253 1 -0.28730422258377075 -9.442731857299805 -0.5363011360168457 1.0 1.0 1.0720984412064989 47.75942611694336 47.83465576171875 0.5158582925796509 47.71392822265625 47.71392822265625 47.742591857910156 47.68526077270508 47.61359786987305 47.68526077270508 0 2
24990.826999999997 -0.0006090834219776298 -1.5002196260907548 1.570133303153657 -0.0016346846424042383 1.5699685121066755 3.139896084132996 4.5316224758766724e-05 0.18488810706152117 -0.00012219383096946247 -0.02235075033048902 -3.3174222581014926e-06 -4.1310810168542065e-05 -0.002046464034403293 0.014390935909686098 -0.008516048689778111 -0.7318023030482395 0.00023625722952435674 -0.005673652292443801 -0.0007269239646516605 -2.0653511993510647 -2.7670441287645335 -0.4659747065297626 -0.000670465562447871 0.00941038186272122 -0.03796910368885454 -30.269649332230905 -27.019757992803793 -2.3364841536225547 -0.004891586667944057 0.08084079610961355 -0.000634495412008107 -1.5002939489534874 1.5701301733600062 -0.001699523334838915 1.569908618927002 3.139885425567627 0.0 0.18451514840126038 -0.0 -0.023645630106329918 -0.00016463483916595578 0.00011220562737435102 -0.45597171783447266 -2.0514020919799805 -2.6539793014526367 -0.48167818784713745 -0.07620595395565033 0.1994137316942215 -0.0007269239646516605 -2.0653511993510647 -2.7670441287645335 -0.4659747065297626 -0.000670465562447871 0.00941038186272122 -0.6243881155738891 -0.13269679535888565 0.4103607230138715 -1.260136386365577 -1.2588778411708832 1.1751832242257045 -0.04924961924773771 7.429910028863576e-06 -0.110421772681582 -0.00019323145303362676 -0.16086914297789742 0.00011979626004638822 9.58645197240803 7.259436598078452 5.249395159574093 -0.2863552037440597 -0.5563535830496076 0.33946290631696857 -0.6243929641777676 -0.13270033005040235 0.4102992802949884 -1.2602627433527198 -1.2589522753460656 1.1750927422626214 -0.04915418701637454 1.693128518598149e-05 -0.11084680581128951 -2.7525110514288792e-05 -0.16241522692779392 1.630864689989553e-05 0 33.5 34.5625 33.5625 36.8125 38.875 39.5 1.08389 7 253 253 253 253 253 253 1 -0.24899697303771973 -9.53849983215332 -0.5171475410461426 1.0 1.0 1.0682827008243558 47.754947662353516 47.842716217041016 0.5941867828369141 47.71392822265625 47.6995964050293 47.742591857910156 47.670928955078125 47.599266052246094 47.670928955078125 0 2
24990.835 -0.000608916865938447 -1.49873885434008 1.5701320833225427 -0.0018466666851288949 1.5699685545543918 3.1398957983334395 1.5134208744081537e-06 0.18518039274310455 -0.00016609747752732598 -0.029097678188261703 1.2918618679066081e-05 -2.0879184625104258e-05 -0.007164505255370158 0.021419862646324117 -0.0038124823646734692 -0.8838816432173192 0.0029239547494563922 0.00677417863790275 -0.00648622131583209 -2.0673247475673038 -2.7691104229553214 -0.47203378908589516 -0.00021608654211342104 0.010102001965422583 -0.06567341865933986 -30.294668548933643 -27.014503129739502 -2.3722770965439466 -0.0035556977151341863 0.08359741960035938 -0.0006225744830530289 -1.498795711701252 1.5701540152179163 -0.0019301933101196767 1.5698966979980469 3.139897346496582 0.0 0.18260544538497925 -0.0 -0.03163360804319382 -5.462188346427865e-05 0.0001020289710140787 -0.46716055274009705 -1.8777062892913818 -2.695296287536621 -0.4586225748062134 -0.0462300106883049 0.19301772117614746 -0.00648622131583209 -2.0673247475673038 -2.7691104229553214 -0.47203378908589516 -0.00021608654211342104 0.010102001965422583 -0.6247873339545291 -0.13270680824100048 0.40945747521907244 -1.261078857614004 -1.2598338535339806 1.1745683174202173 -0.04980811068548427 3.454278045602674e-05 -0.1076881951283948 -0.00015670419678857705 -0.15097169203949806 6.190946219231588e-07 9.51448033877842 7.785208379324134 5.287838225965682 -0.2869168163099836 -0.5520444476158725 0.34401875783373354 -0.6247909916656844 -0.13270004094132898 0.4094180231388801 -1.2611895440312393 -1.2598792154626026 1.1744633375063158 -0.050088591607184575 5.0695637414199115e-05 -0.10971397120266249 -3.35573267405092e-05 -0.1559167068936033 -5.358097964109508e-05 0 33.5 34.5625 33.5625 36.8125 38.875 39.5 1.026385 7 253 253 253 253 253 253 1 -0.24899697303771973 -9.500192642211914 -0.49799394607543945 1.0 1.0 1.069999267952512 47.7244987487793 47.819435119628906 0.5829969644546509 47.670928955078125 47.670928955078125 47.6995964050293 47.64226531982422 47.5562629699707 47.64226531982422 0 2
24990.842999999997 -0.0006091872664679698 -1.4972627346825504 1.5701306484382709 -0.002110834270775186 1.5699687758733252 3.1398959387137055 -5.4580687304903965e-05 0.1837162693027021 -0.00018679887112666054 -0.03526529229902227 3.631266867099157e-05 4.0202457488255496e-05 -0.006369966341239747 -0.32836999609937856 -0.002204899333446697 -0.6747622627011964 0.002644730741274691 0.006953182044266982 0.005733911006116036 -2.222657721192141 -2.802065780076713 -0.46630016307629907 2.063628224449644e-05 0.011301712741455118 0.09588444737983717 -31.925728407821776 -27.318124443252554 -2.313979674010456 -0.004976754198211413 0.08488837921368811 -0.000634495412008107 -1.49735580504451 1.5701778570758265 -0.0022202295115967274 1.5698966979980469 3.139885425567627 0.0 0.18467706441879272 -0.0 -0.035944581031799316 -1.046918640668082e-07 0.0001122426547226496 -0.446665495634079 -2.10231614112854 -2.677309036254883 -0.42357879877090454 -0.026354648172855377 0.19708144664764404 0.005733911006116036 -2.222657721192141 -2.802065780076713 -0.46630016307629907 2.063628224449644e-05 0.011301712741455118 -0.6251829111771807 -0.13269853896870082 0.40860206998069226 -1.261934033430059 -1.2606885915570534 1.1739680953623604 -0.05081277855426882 4.9028631958459825e-05 -0.10818802633243087 -0.00015757329999558658 -0.1487324337999324 -6.007008204634969e-05 9.419122828459448 7.853372610540571 5.382708897609211 -0.2819710388303824 -0.536081949380452 0.3303598610634978 -0.6251945131386807 -0.13269942840299856 0.4085497390738386 -1.262075105074057 -1.2607636337294972 1.173861483863126 -0.0505068725643393 9.167398946161953e-05 -0.10761751918696581 -7.974473328437818e-05 -0.14826426260383865 -0.00014501854530531554 0 33.5 34.5625 33.5625 36.8125 38.875 39.5 1.024141 7 253 253 253 253 253 253 1 -0.2298433631658554 -9.53849983215332 -0.727837324142456 1.0 1.0 1.061683699083685 47.75942611694336 47.83824157714844 0.5382378697395325 47.6995964050293 47.6995964050293 47.742591857910156 47.65659713745117 47.584930419921875 47.65659713745117 0 2
24990.851 -0.0006097970537446429 -1.4958107368174822 1.5701291462684264 -0.0024164983000218854 1.569969126362437 3.1398964838150496 -8.166318958624944e-05 0.18008427971135757 -0.00017831140458216747 -0.04014349003937496 4.336017639115036e-05 8.202849313225836e-05 2.098631250098843e-05 -0.4343094471791209 0.005258754799486459 -0.6534242000311649 -0.0012772054788445799 0.0037114022356732348 0.01062198932933407 -2.2774831217239058 -2.8092531984305436 -0.46622794298598497 -0.0001228205644504354 0.011971296647699312 0.16383356923774997 -32.45903532709511 -27.391733105887454 -2.303903344469809 -0.007120838392315914 0.0845537800749856 -0.0006106535540979507 -1.4959435698441048 1.570141617451803 -0.00243575990710454 1.569920539855957 3.1398491859436035 0.0 0.17691713571548462 -0.0 -0.03481825813651085 -1.9027229878482155e-12 0.00010363591718487442 -0.44670194387435913 -2.103971481323242 -2.7206263542175293 -0.4964155852794647 -0.01562599278986454 0.19405607879161835 0.01062198932933407 -2.2774831217239058 -2.8092531984305436 -0.46622794298598497 -0.0001228205644504354 0.011971296647699312 -0.6255653570605121 -0.13270673187187568 0.40778394411072894 -1.2627536202543166 -1.2615556501201772 1.1733639681543853 -0.048598448117282436 4.609426011087023e-05 -0.1036385813612997 -0.00014284086445556308 -0.14209883618528013 -5.7907279112792665e-05 9.52515542721319 7.851205830571404 6.087759441836966 -0.286136946076717 -0.5516321198714773 0.3293058709472945 -0.6255971670940176 -0.13269857204029742 0.40770433830866615 -1.2629130468090002 -1.2615993602723439 1.1732916560523154 -0.05020093253729006 0.00011066975329744503 -0.10444339664610786 -0.00010913519841295857 -0.13976254538595012 -0.00018814499039727337 0 33.5 34.5625 33.5625 36.8125 38.875 39.5 1.027261 7 253 253 253 253 253 253 1 -0.24899697303771973 -9.346963882446289 -0.7661445140838623 1.0 1.0 1.0408529958938082 47.762115478515625 47.85615158081055 0.5606174468994141 47.742591857910156 47.742591857910156 47.77125930786133 47.71392822265625 47.6279296875 47.6995964050293 0 2
24990.859 -0.0006103222869331404 -1.4943860376369509 1.57012810528982 -0.0027652278406797848 1.5699693345212793 3.1398972004593313 -5.694405903676586e-05 0.17685957941651542 -9.460013932861482e-05 -0.04588897147217493 1.3574189216675512e-05 8.712508509986307e-05 0.000598456058614989 -0.37093885931265 0.011397834687598694 -0.7778774547067928 -0.0035449906136575393 -0.0027964324959661698 0.00928449408891353 -2.260387361967457 -2.797121097012315 -0.47109265697059544 -0.0007046237320770442 0.011862031460348806 0.1329550073614862 -32.23182026921004 -27.32336118574277 -2.3320014724700466 -0.007551876895835869 0.0829871494958052 -0.000634495412008107 -1.4944684219411393 1.570141617451803 -0.002724604015686083 1.5698847770690918 3.139885425567627 0.0 0.17732535302639008 -0.0 -0.037100039422512054 -3.458104651394287e-17 0.00011228762741666287 -0.4663838744163513 -2.216982841491699 -2.7154178619384766 -0.576222836971283 -0.0023193443194031715 0.2007031887769699 0.00928449408891353 -2.260387361967457 -2.797121097012315 -0.47109265697059544 -0.0007046237320770442 0.011862031460348806 -0.6259729163538162 -0.1327002576540889 0.4069191975987085 -1.2636446456031583 -1.2624124286659357 1.1728097319958397 -0.04889529148272656 4.81964367619362e-05 -0.10351062661687452 -0.00015048924658032727 -0.14022527020346393 -6.14826628673799e-05 9.635125876342011 7.582584845448399 6.11638357087701 -0.2945107780362696 -0.5452795091665277 0.3268627692590594 -0.6259983503386645 -0.13269778632227136 0.40688382273022294 -1.2636997931622977 -1.2623839669142474 1.1727563695025696 -0.05011617142716171 9.122026264410724e-05 -0.10139160962251059 -0.00010321630098865435 -0.1308760331081072 -0.00014118650665035116 0 33.5 34.5625 33.5625 36.8125 38.875 39.5 1.042057 7 253 253 253 253 253 253 1 -0.2298433631658554 -9.423578262329102 -0.651222825050354 1.0 1.0 1.0224669804753062 47.76927947998047 47.81853485107422 0.5494276285171509 47.7282600402832 47.6995964050293 47.75692367553711 47.6995964050293 47.61359786987305 47.68526077270508 0 2
24990.867 -0.0006110148406577309 -1.4929848833406965 1.5701277472628448 -0.0031650343501805622 1.5699693733433906 3.1398975860972587 -0.00011726366256327251 0.1740500585965951 -1.6544671903195784e-05 -0.052633494793676336 2.6702715122863777e-06 1.4538697574578893e-05 -0.011186284308900455 -0.3625792942086731 0.008498841985765336 -0.8528147167588436 -0.0002945087879086494 -0.01177969310289131 0.00017068477486993056 -2.2662872232377542 -2.793199322801922 -0.4748547026660627 -0.0006164647279767083 0.01040242375199539 0.08491797720039929 -32.25543209753841 -27.330324496802618 -2.349252155204191 -0.005303573605692543 0.08118865546772602 -0.0006106535540979507 -1.4930666771582146 1.5701301733600062 -0.0030631583980103017 1.5698847770690918 3.139897346496582 0.0 0.17276550829410553 -0.0 -0.04261646792292595 -6.284934853946027e-22 0.00011978459224337712 -0.45452484488487244 -2.0696539878845215 -2.6457927227020264 -0.695801854133606 0.0027497229166328907 0.20634908974170685 0.00017068477486993056 -2.2662872232377542 -2.793199322801922 -0.4748547026660627 -0.0006164647279767083 0.01040242375199539 -0.626364577677606 -0.1327151640142997 0.40611659534192 -1.2644107596404817 -1.2631932440092724 1.1723111125782975 -0.048477350379808715 4.893744390882519e-05 -0.09961591045360413 -0.00014088053902493262 -0.130149009229572 -6.885263249614125e-05 9.543871633794511 7.8594820836309225 5.423011490346021 -0.29356542803048424 -0.5505556391028132 0.33960150626907465 -0.626400265347713 -0.13269689681852626 0.40608734108866235 -1.2644321364112587 -1.2631145950807687 1.1722571782776785 -0.05030570853049313 0.0001323780690101929 -0.09839358477197857 -1.6759775057597786e-05 -0.1214001200349392 -0.00019357026551139112 0 33.5 34.5625 33.5625 36.8125 38.875 39.5 1.063681 7 253 253 253 253 253 253 1 -0.2298433631658554 -9.576807022094727 -0.689530074596405 1.0 1.0 1.0075509568555474 47.790771484375 47.84809112548828 0.5001915693283081 47.71392822265625 47.7282600402832 47.742591857910156 47.670928955078125 47.599266052246094 47.670928955078125 0 2
24990.875 -0.0006122887286501566 -1.491603908690494 1.5701275555016005 -0.003624619837953702 1.5699693840399267 3.139897402762376 -0.00017918071646970876 0.17183039619372276 -4.529706589089236e-05 -0.060448990134730464 5.973104602732217e-07 -3.7717684834131886e-05 -0.005810720587180623 -0.25322875351699303 -0.009788728681558998 -1.0174694622717244 -0.00023686194186023354 -0.003709943210905565 -0.008056645695616786 -2.2306874318221412 -2.791396707285527 -0.48199008154204354 -0.0006881511893178774 0.0096962392433665 0.04685412213621361 -31.845306036912856 -27.296686883523712 -2.3916559428042508 -0.005582822315117598 0.08263855873873308 -0.0006464163409631851 -1.4916523483446618 1.5701301733600062 -0.0034145873836060048 1.5698848962783813 3.1398491859436035 0.0 0.17075295746326447 -0.0 -0.05173129960894585 0.000400937715312466 0.00011231446114834398 -0.497033953666687 -2.177100419998169 -2.690422534942627 -0.8134909868240356 0.025020919740200043 0.20591992139816284 -0.008056645695616786 -2.2306874318221412 -2.791396707285527 -0.48199008154204354 -0.0006881511893178774 0.0096962392433665 -0.6267660204378044 -0.1326906091039134 0.4053012946747655 -1.2651686421047899 -1.263966308118767 1.171721377159538 -0.04922590829435372 0.00014075027018173433 -0.09659034982832276 -8.830987468379874e-05 -0.1190223637273786 -0.00047950374292818923 8.985074467030016 7.360285751245681 4.879322323500223 -0.2874734949191214 -0.5653722215700698 0.3358866873459026 -0.6268052689386635 -0.13269559982316148 0.4053148537785573 -1.2651058968117657 -1.263786679465843 1.1717964844828241 -0.050829025843818355 0.0001765379380263951 -0.09548535699111386 5.199712869670831e-05 -0.11133628304088565 -0.00025912584479741033 0 33.5 34.5625 33.5625 36.8125 38.875 39.5 1.103378 7 253 253 253 253 253 253 1 -0.24899697303771973 -9.730035781860352 -0.5937620401382446 1.0 1.0 0.9940753547048538 47.743309020996094 47.833763122558594 0.5964226126670837 47.71392822265625 47.7282600402832 47.75692367553711 47.65659713745117 47.599266052246094 47.670928955078125 0 2
24990.882999999998 -0.0006138619663431655 -1.490238747977263 1.5701268469483196 -0.004149260007192623 1.5699693455762347 3.139897045592379 -0.0002036240825291074 0.16997413750290727 -0.00010552624118843221 -0.06897349802611334 -1.1024047525532461e-05 -4.572207929508044e-05 -0.0015004766533851875 -0.20632918075173812 -0.003579156362487622 -1.1093112184201863 -0.002482477505694192 0.00024205836841595453 -0.01074919745613269 -2.2186425629309414 -2.789004565298306 -0.4865175121636406 -0.0010112169501391975 0.009644005431913209 0.03736373677953502 -31.691189562011573 -27.239462491499538 -2.411622630443565 -0.0065330965422790346 0.0833072317503116 -0.0006225744830530289 -1.4902847942760964 1.5701664129840296 -0.0038884443095703602 1.5699207782745361 3.139897346496582 0.0 0.17329922318458557 -0.0 -0.06747976690530777 0.0006680858205072582 0.00010571801976766437 -0.4973148703575134 -2.1860246658325195 -2.7433981895446777 -0.8348991870880127 0.0267211701720953 0.206191748380661 -0.01074919745613269 -2.2186425629309414 -2.789004565298306 -0.4865175121636406 -0.0010112169501391975 0.009644005431913209 -0.6271589930026628 -0.1326991262913183 0.40451792944264947 -1.2658891830928447 -1.2646136375815349 1.1712807231552436 -0.052086163012445404 0.00020563318789893476 -0.09508622490916822 -2.8416613116816588e-05 -0.10582068159331925 -0.0007651804404503228 9.11182328563203 7.647116408909212 4.8562393323943205 -0.2890586761621195 -0.5676538051939481 0.3497888412227724 -0.6272153763042948 -0.13269408566004637 0.4045650926944224 -1.2657200766507783 -1.26439910537594 1.1713756435892735 -0.051556728565160935 0.00019416438234988074 -0.09264379311806135 7.716418458136767e-05 -0.10089529924670376 -0.0002818557168410582 0 33.5 34.5625 33.5625 36.8125 38.875 39.5 1.029998 7 253 253 253 253 253 253 1 -0.325611412525177 -9.672574996948242 -0.5171475410461426 1.0 1.0 0.9835765549427318 47.72270965576172 47.821224212646484 0.6299919486045837 47.68526077270508 47.68526077270508 47.7282600402832 47.65659713745117 47.584930419921875 47.6279296875 0 2
24990.891 -0.0006154673045219994 -1.4888866669915375 1.5701259631260411 -0.004745609828788133 1.5699691191983547 3.139896712858082 -0.0001931869543076015 0.1684509969673245 -0.00011581086826606952 -0.07821936078552018 -4.131949193151362e-05 -4.078070218946288e-05 0.003488704584690496 -0.16330068572659173 -0.002655980657340076 -1.2185456604761196 -0.00455769260552241 -0.0002819289944167018 -0.010672385344540819 -2.2080613328830654 -2.7860477426395835 -0.49196848209331967 -0.001665356501198376 0.009699254359552137 0.030722660752931716 -31.55733646114933 -27.205301642411584 -2.437642450677696 -0.007509874509079106 0.0830783453289368 -0.0005982557879846695 -1.4889665034464379 1.5701301733600062 -0.004532532101013231 1.569908857345581 3.139885425567627 0.0 0.17016777396202087 -0.0 -0.08917476236820221 0.0006003924063406885 9.985340875573456e-05 -0.48573893308639526 -2.2251687049865723 -2.7176976203918457 -0.7254425287246704 0.05014191195368767 0.20982013642787933 -0.010672385344540819 -2.2080613328830654 -2.7860477426395835 -0.49196848209331967 -0.001665356501198376 0.009699254359552137 -0.6275778360117343 -0.13271590199150943 0.40384215625478165 -1.266328687187409 -1.2651128028577605 1.1709792756804285 -0.05448710045643279 0.00020148350866683486 -0.08882706207716555 1.9878683893902746e-05 -0.0809941842794513 -0.0007241733518204435 9.303083635500423 7.361855273108213 5.236052741807224 -0.2839780012885441 -0.5610512954101633 0.3343062432552781 -0.627632219808917 -0.13269255408909617 0.40383747671266523 -1.2662720304640196 -1.2649494779537298 1.170996934592493 -0.052467777681653865 0.00018593529267790147 -0.0898962877472935 8.916067265233464e-05 -0.09011597861282185 -0.00025294418706954373 0 33.5 34.5625 33.5625 36.8125 38.875 39.5 1.025942 7 253 253 253 253 253 253 1 -0.2298433631658554 -9.615114212036133 -0.4596867263317108 1.0 1.0 0.9751063592126822 47.74061965942383 47.83107376098633 0.5382378697395325 47.71392822265625 47.6995964050293 47.7282600402832 47.670928955078125 47.599266052246094 47.68526077270508 0 2
24990.898999999998 -0.00061678850546798 -1.4875449851982658 1.570124867027599 -0.005420761993178758 1.5699685771944738 3.1398963353104996 -0.00014493588521990086 0.16725068408474986 -0.0001499221338912723 -0.08839373881021197 -8.708851645786122e-05 -5.133482731006665e-05 0.006491067641309481 -0.12681504154907208 -0.0031680661876531983 -1.3312166022735883 -0.006995580161883727 -0.0008775288550477724 -0.008310010327911241 -2.2003192894986583 -2.7857791427498317 -0.4978928257095918 -0.0025694459621385056 0.009495897967828104 0.020027227008519742 -31.45822205526101 -27.183284123574374 -2.4656774922300877 -0.00831315279642699 0.08288484038254468 -0.000634495412008107 -1.4876004320434113 1.5701540152179163 -0.005319074993469286 1.569872498512268 3.1398611068725586 0.0 0.16711869835853577 -0.0 -0.1066628098487854 0.0005033847410231829 9.460526780458167e-05 -0.47282877564430237 -2.1887569427490234 -2.7191214561462402 -0.4900776445865631 0.05583168938755989 0.20744943618774414 -0.008310010327911241 -2.2003192894986583 -2.7857791427498317 -0.4978928257095918 -0.0025694459621385056 0.009495897967828104 -0.6280258987673355 -0.1326993750420361 0.40312885774701895 -1.2667527535959695 -1.265564159409093 1.1706617219737083 -0.05627696151509798 0.0001920964772598892 -0.08347178639920429 5.2187722319412745e-05 -0.060456948357909344 -0.0006486466901020331 9.380085942786437 7.3323352388800895 5.639674450237809 -0.29545814300389983 -0.5618223126679412 0.3284647756453073 -0.6280575381929684 -0.13269122396551047 0.4031317663115014 -1.2667582511579254 -1.2654349293309408 1.1706629016761156 -0.05360279860099169 0.00015177209110284456 -0.08715141739128067 0.00011715609700524584 -0.07870713539078011 -0.00017074684806979255 0 33.5 34.5625 33.5625 36.8125 38.875 39.5 1.054754 7 253 253 253 253 253 253 1 -0.26815059781074524 -9.557653427124023 -0.5746083855628967 1.0 1.0 0.96849616511546 47.79435729980469 47.84182357788086 0.5292839407920837 47.742591857910156 47.7282600402832 47.75692367553711 47.68526077270508 47.584930419921875 47.670928955078125 0 2
24990.907 -0.0006177166636618381 -1.486211610600538 1.5701236677424477 -0.006181652074062072 1.5699675391106807 3.1398959481289914 -9.909701821642569e-05 0.1662690429138839 -0.0001439570828765078 -0.09937130437983754 -0.00015873665417502576 -4.380019071478139e-05 0.0052186435772810435 -0.14506572631298176 0.002622845692983256 -1.3525111499738673 -0.009351458629526486 0.0017969976287556043 -0.004757554074062064 -2.2144598118602006 -2.785357369151884 -0.500935848316737 -0.003887574739413324 0.009704352892354287 0.022904783320359057 -31.594980655659384 -27.18264807012698 -2.468884874190426 -0.008794341158580125 0.08352888122107016 -0.0005982557879846695 -1.4862584260157128 1.5701540152179163 -0.006217197780944872 1.5699206590652466 3.139897346496582 0.0 0.16324476897716522 -0.0 -0.10061907768249512 0.0004889219999313354 8.988127956399694e-05 -0.4920060634613037 -2.0299386978149414 -2.743131637573242 -0.5413728356361389 0.05386970192193985 0.21448688209056854 -0.004757554074062064 -2.2144598118602006 -2.785357369151884 -0.500935848316737 -0.003887574739413324 0.009704352892354287 -0.6284788710682297 -0.1327124467383043 0.40246659277104097 -1.267107840904274 -1.2658626445894645 1.170452935732803 -0.054335412530940985 0.00018312502433421725 -0.08233788263945811 4.879339956751917e-05 -0.06262670769386008 -0.0006260049916842567 9.532035614485848 7.164046439418028 5.9728017043088935 -0.29602489776322294 -0.5551576088544794 0.32200147785018524 -0.6284928975140126 -0.1326901994998926 0.4024479695472778 -1.2671751824243112 -1.265852209943691 1.1703761954436271 -0.05491053838612015 0.00011339618843181454 -0.08440725659076484 0.0001265305129545871 -0.06675379006044628 -6.753326449802115e-05 0 33.5 34.5625 33.5625 36.8125 38.875 39.5 1.077121 7 253 253 253 253 253 253 1 -0.24899697303771973 -9.53849983215332 -0.727837324142456 1.0 1.0 0.9636983219937008 47.76301193237305 47.86689758300781 0.5852327942848206 47.7282600402832 47.71392822265625 47.75692367553711 47.670928955078125 47.599266052246094 47.670928955078125 0 2
24990.914999999997 -0.0006183787104987459 -1.484884953869127 1.5701226159902681 -0.007035053046118733 1.5699663656164073 3.139895663931444 -7.639060089331283e-05 0.1655958417248138 -0.00012425426645838657 -0.11111841928973348 -0.0001195341734744305 -3.08675133212524e-05 0.0015732601758616425 -0.07457763024618091 0.0023591994257499164 -1.4898941693086003 0.012214833326007478 0.0015024196259094667 -0.00832576213964515 -2.190897216557896 -2.7787935274918363 -0.5081370177776914 -0.0024677748678046028 0.009899446049931801 -0.02876933815794874 -31.33491750934225 -27.13105622542954 -2.504168756248957 -0.0029494696283384795 0.08333353026364333 -0.0006106535540979507 -1.4849505809000512 1.5701664129840296 -0.007069663410522509 1.569956660270691 3.139885425567627 0.0 0.16544322669506073 -2.6899189833784476e-05 -0.10122882574796677 0.0009358359966427088 8.568606426706538e-05 -0.5005567073822021 -2.102043628692627 -2.703728675842285 -0.7079127430915833 0.04862729460000992 0.20714138448238373 -0.00832576213964515 -2.190897216557896 -2.7787935274918363 -0.5081370177776914 -0.0024677748678046028 0.009899446049931801 -0.62892014418909 -0.132695905034454 0.40180859687809306 -1.2674623247498131 -1.2661741828131796 1.1701728732895538 -0.0548604562540619 0.00027957875543200124 -0.08366097678193786 8.740920895884296e-05 -0.0641893083703432 -0.0010719166030617408 9.332581959498825 7.265207146245161 6.270125905444257 -0.2840141097631885 -0.5425331061473576 0.3112563735225732 -0.6289397161646485 -0.13268932474504636 0.4017862915532817 -1.2675195381035127 -1.266197309515715 1.170139032947871 -0.05641398785035956 0.00011335685145621382 -0.08171162372125923 0.00014051163854495068 -0.054353264999921096 -9.933206073509068e-05 0 33.5 34.5625 33.5625 36.8125 38.875 39.5 1.034005 7 253 253 253 253 253 253 1 -0.28730422258377075 -9.327810287475586 -0.727837324142456 1.0 1.0 0.9600656644574752 47.780025482177734 47.837345123291016 0.5785199999809265 47.742591857910156 47.71392822265625 47.75692367553711 47.670928955078125 47.61359786987305 47.68526077270508 0 2
24990.923 -0.0006189838572048245 -1.483563324210678 1.5701218114210933 -0.007982949121844385 1.5699657581266129 3.139895470115789 -7.795348636118915e-05 0.16500998947030787 -7.749352843419957e-05 -0.12333239764500475 -6.764517172015907e-05 -2.025200129525698e-05 -0.0012283676652089493 -0.05784202013078832 0.008815920656624067 -1.5783854496940821 -0.0007557068747443552 0.0012322586024904325 -0.010331088660789956 -2.1895808074306804 -2.7731609177336534 -0.513658804014623 -0.0018869200462462766 0.010070511543140061 -0.04764475464197536 -31.312746828927466 -27.103802446987284 -2.524984274403915 -0.005587283285111063 0.08326054377314827 -0.0006225744830530289 -1.4836323273232956 1.570141617451803 -0.00789065778765874 1.5699692964553833 3.139885425567627 0.0 0.164893239736557 -4.794012420461513e-05 -0.11232587695121765 0.0018660620553418994 7.657740206923336e-05 -0.480937659740448 -2.1245036125183105 -2.6736879348754883 -0.8346315026283264 0.054266057908535004 0.2014351785182953 -0.010331088660789956 -2.1895808074306804 -2.7731609177336534 -0.513658804014623 -0.0018869200462462766 0.010070511543140061 -0.6293651698369592 -0.13268502913380303 0.40115912077731974 -1.2678187760317927 -1.2665006160802792 1.169917152466373 -0.05630980909507569 0.000484209358496636 -0.08114961652883342 0.00019193293247138956 -0.05252290843312709 -0.002012157834028047 9.727337776856626 7.769379676082664 6.159877064308198 -0.2986720066661913 -0.5493588447113734 0.3276307211548594 -0.6293987449376433 -0.13268831752610694 0.40114599849092386 -1.2677915904106736 -1.2664694304506101 1.1699508580258304 -0.05801111589187367 0.00013160581840446662 -0.07899427273090866 0.0001587232558369322 -0.04160030937111201 -0.000168408661156836 0 33.5 34.5625 33.5625 36.8125 38.875 39.5 1.022749 7 253 253 253 253 253 253 1 -0.24899697303771973 -9.193734169006348 -0.49799394607543945 1.0 1.0 0.9574980165088334 47.76301193237305 47.84361267089844 0.6456586718559265 47.71392822265625 47.6995964050293 47.75692367553711 47.68526077270508 47.61359786987305 47.68526077270508 0 2
24990.931 -0.0006196393141593148 -1.4822457465772798 1.5701216118463621 -0.00903188831655477 1.569964984453721 3.139895337035057 -7.761426853475084e-05 0.16451381527238335 7.788771274391366e-06 -0.13615011159826917 -0.00011489794414513238 -1.6798676510446554e-05 0.003035498855592184 -0.0493092705532161 0.010115651571918072 -1.6483806238644787 -0.005026641756833428 -0.0005929130140192029 -0.00950184262500626 -2.1923613766817325 -2.6415939484769027 -0.5188458787296607 -0.00290566740327997 0.010080163245357708 -0.039621552521076624 -31.33540172768742 -27.097726543178158 -2.541922336944227 -0.007098530636089286 0.08286905788699671 -0.000634495412008107 -1.4823265758207818 1.5701301733600062 -0.008935527210571337 1.569959044456482 3.1399097442626953 0.0 0.16390986740589142 -2.200708149757702e-05 -0.14805491268634796 0.007667281664907932 7.169692980824038e-05 -0.47485464811325073 -2.0335445404052734 -2.680389165878296 -0.5655953288078308 -0.03461448848247528 0.19629350304603577 -0.00950184262500626 -2.1923613766817325 -2.6415939484769027 -0.5188458787296607 -0.00290566740327997 0.010080163245357708 -0.6298377828506374 -0.13267974061516893 0.40055403248063587 -1.2680207418464287 -1.2666685889778524 1.169807178811424 -0.061370064980276355 0.0017374089145334743 -0.0734392948334073 0.0007262496481370941 -0.01584676156593323 -0.007839061912717472 9.971444258442157 7.233086917425988 5.487391579548947 -0.29116561034839655 -0.5583766056740479 0.33823296446276063 -0.6298711818467015 -0.1326872613619728 0.40052757437355174 -1.2679872419374538 -1.2666652365122406 1.1698147658718994 -0.05971660113913423 0.0001281707054921251 -0.07623558150787928 0.00017743194070154002 -0.028371652307581964 -0.00013688520306889802 0 33.5 34.5625 33.5625 36.8125 38.875 39.5 1.021753 7 253 253 253 253 253 253 1 -0.3064578175544739 -9.404424667358398 -0.325611412525177 1.0 1.0 0.955617998684161 47.749576568603516 47.83644485473633 0.6143304705619812 47.6995964050293 47.6995964050293 47.742591857910156 47.68526077270508 47.599266052246094 47.68526077270508 0 2
24990.939 -0.0006200116762649088 -1.480931793722549 1.5701220153928723 -0.010185943559967825 1.5699639606853184 3.13989513113831 -2.4323318097184055e-05 0.1640484446639992 7.274994922473502e-05 -0.149411116988879 -0.00012867778685362046 -3.384967023697229e-05 0.006665447799134851 -0.047288642164008965 0.005957644291232352 -1.7038106535793296 0.0018108469086231037 -0.0030774947710199285 -0.004945823364687533 -2.198322688777248 -2.639342021331272 -0.5238835084193211 -0.002996251953553989 0.009730120087291728 -0.03203078174725317 -31.39232032981386 -27.113661976940964 -2.5567910710400397 -0.005889310981076134 0.08238450358044687 -0.0005982557879846695 -1.4810207721642037 1.5701664129840296 -0.010145263080932665 1.5699937343597412 3.1399216651916504 0.0 0.16267670691013336 -1.7534787857820255e-11 -0.14009255170822144 0.003768952563405037 6.740137177985162e-05 -0.4837956130504608 -2.0588855743408203 -2.551236152648926 -0.7246437072753906 -0.09473365545272827 0.18262982368469238 -0.004945823364687533 -2.198322688777248 -2.639342021331272 -0.5238835084193211 -0.002996251953553989 0.009730120087291728 -0.6303193192527082 -0.13269474999307143 0.39995317806280917 -1.2681233742018507 -1.2667613193211513 1.1697462620653136 -0.05977653850562501 0.0009022411560279551 -0.07435841821817678 0.000409699668443634 -0.022591060131543904 -0.0039422914997141 9.307490801574115 7.500097554161612 5.660115524234478 -0.2900586874688889 -0.5457590667069272 0.32520843451649367 -0.6303577213254876 -0.13268637719059428 0.3999315651493239 -1.268103526006831 -1.2667824528412637 1.1697328051622378 -0.06149541222726337 9.942950467181486e-05 -0.07339553863353618 0.000220185847859097 -0.014710268330443295 -8.46629483585819e-05 0 33.5 34.5625 33.5625 36.8125 38.875 39.5 1.035649 7 253 253 253 253 253 253 1 -0.26815059781074524 -9.653421401977539 -0.651222825050354 1.0 1.0 0.953921518268423 47.72808074951172 47.80420684814453 0.6008995771408081 47.68526077270508 47.68526077270508 47.71392822265625 47.670928955078125 47.570594787597656 47.6279296875 0 2
24990.947 -0.0006200280145582937 -1.4796214691083813 1.570122697409285 -0.011448635019387865 1.5699632085764375 3.1398947015134357 7.728015875395807e-06 0.16356366796168062 8.671537519252638e-05 -0.1631019876477744 -6.229594911364435e-05 -6.777964681917612e-05 0.002562467847030849 -0.09211016043451925 -0.00031605823025244263 -1.6593671245322683 0.011310211977702553 -0.004644163543721417 -0.002151565281336775 -2.2240376646843147 -2.643730488979586 -0.5258758106139076 -0.001504794490998941 0.009139140241191779 -0.02668313938610337 -31.659159426278023 -27.168286369170943 -2.5462344125906373 -0.0032845119456878743 0.08226434042972466 -0.0006106535540979507 -1.4797144544175644 1.570141617451803 -0.011291460399963427 1.570004940032959 3.1398730278015137 0.0 0.1620814949274063 0.0006106237415224314 -0.15479525923728943 0.0012413335498422384 6.359149847412482e-05 -0.47337740659713745 -2.0704498291015625 -2.620211601257324 -0.8575139045715332 -0.07396561652421951 0.20544591546058655 -0.002151565281336775 -2.2240376646843147 -2.643730488979586 -0.5258758106139076 -0.001504794490998941 0.009139140241191779 -0.6308084326878102 -0.13268199543496326 0.3993746880148269 -1.268195604021578 -1.2668663615496054 1.1696244696215798 -0.061651654215638736 0.00037354197299050736 -0.07146736751710871 0.00024252587124030933 -0.007899364810387206 -0.0014400117479108267 9.447084127113284 7.522482496129874 5.369959763812632 -0.28681615118655046 -0.5560190454482984 0.33352885740981364 -0.6308589596436163 -0.13268559318066597 0.3993588720603098 -1.2681377106171088 -1.266818022626841 1.1697064520760243 -0.0633483405468782 0.00010189622245715823 -0.0704264423729359 0.0002871364934319034 -0.0005487774622298353 -0.0001327466671671565 0 33.5 34.5625 33.5625 36.8125 38.875 39.5 1.080506 7 253 253 253 253 253 253 1 -0.24899697303771973 -9.53849983215332 -0.727837324142456 1.0 1.0 0.9524134773196791 47.75942611694336 47.84809112548828 0.6658024191856384 47.68526077270508 47.6995964050293 47.71392822265625 47.65659713745117 47.584930419921875 47.64226531982422 0 2
24990.954999999998 -0.0006199954236407734 -1.4783145171713707 1.5701233762547462 -0.012825286455452556 1.5699632389268032 3.1398940583832147 -3.6772600691078208e-06 0.1632691552344628 8.362459777812127e-05 -0.1775310608303646 4.601944493713982e-05 -8.41900595737289e-05 -0.0034664505562558836 -0.030558937034519396 -0.0004284476097904361 -1.825284907717245 0.014475711946460025 -0.0006659941390374499 -0.00845071055275019 -2.203894529739591 -2.6403035752533954 -0.5347998169119975 0.0006325939555064754 0.008957322685190403 -0.081607190492109 -31.44072306433034 -27.13039372106887 -2.5902097595068962 -0.0014617001994822617 0.08303779020106636 -0.000634495412008107 -1.4784200352481385 1.5702016989337366 -0.012636737232543993 1.5700047016143799 3.1398611068725586 0.0 0.16210445761680603 0.0003684330149553716 -0.1908935010433197 0.0005599850555881858 6.0189238865859807e-05 -0.479301393032074 -2.0352940559387207 -2.597250461578369 -0.5823580026626587 -0.07628686726093292 0.20395466685295105 -0.00845071055275019 -2.203894529739591 -2.6403035752533954 -0.5347998169119975 0.0006325939555064754 0.008957322685190403 -0.6313097491213371 -0.13266565540811168 0.39879287080076636 -1.2682045438929042 -1.2668603973040633 1.1695921163018448 -0.06705901392411151 0.0002503670178525116 -0.06415602944639509 0.00026537155895692125 0.028419193508381176 -0.0008049588393815703 9.424267478721886 7.965686457824925 4.378429724377333 -0.28756634364581235 -0.5617744970585358 0.3666394772012312 -0.6313758623910585 -0.13268460467940874 0.3988105756634936 -1.268086271911566 -1.2667674243947242 1.1697377703661598 -0.06536724325529633 0.00014050914214253803 -0.06741798840802064 0.0003413764626181765 0.014177651161550169 -0.00026836621642598843 0 33.5 34.5625 33.5625 36.8125 38.875 39.5 1.091162 7 253 253 253 253 253 253 1 -0.325611412525177 -9.53849983215332 -0.2106897532939911 1.0 1.0 0.9517323117214687 47.73793411254883 47.82838821411133 0.6210432648658752 47.7282600402832 47.6995964050293 47.7282600402832 47.68526077270508 47.584930419921875 47.68526077270508 0 2
24990.963 -0.0006201124630145216 -1.477010127359148 1.570123991537118 -0.01431648980716993 1.5699641051458 3.1398933846032335 -1.5230468085699106e-05 0.16294139720034317 6.97414628876907e-05 -0.19216278220119434 0.00014188893398885884 -8.405646964372802e-05 0.0009271507517895592 -0.034069679616763326 -0.0028119655591352074 -1.8636918069000752 0.009726431056833464 8.888251428196541e-05 -0.007768898238267352 -2.211866764702334 -2.642580430953759 -0.5397988727475862 0.0021273217706832114 0.008983867322953677 -0.06661576856903871 -31.52096722544345 -27.145854782157812 -2.6020995589908837 -0.003093491473424456 0.08323188093936619 -0.0005982557879846695 -1.4771607157639046 1.5701301733600062 -0.014327959423400927 1.5700165033340454 3.1398611068725586 0.0 0.16454866528511047 0.00015520605666097254 -0.1834704577922821 0.0003582969366107136 5.71325836062897e-05 -0.5337778329849243 -2.2936973571777344 -2.6096320152282715 -0.7704282999038696 -0.08624318242073059 0.2006637156009674 -0.007768898238267352 -2.211866764702334 -2.642580430953759 -0.5397988727475862 0.0021273217706832114 0.008983867322953677 -0.6318709070763306 -0.1326848535624895 0.39838011382847965 -1.267823135980674 -1.26651130753181 1.1698567985674901 -0.06646889982911278 0.00020155656146442086 -0.06714564817303707 0.00023582186082426809 0.01876555151982974 -0.0005942955877759487 9.531328766220796 7.478229296056794 6.098295542491208 -0.29225230107081546 -0.5442246012367641 0.31778679149014566 -0.6319087476233415 -0.132683280861949 0.3982863283801372 -1.267949586395064 -1.266630489185526 1.1698266193948224 -0.06741025587046597 0.00017612184481569494 -0.06433994557845917 0.00037861198846194115 0.029150804712800453 -0.0003932552952099215 0 33.5 34.5625 33.5625 36.8125 38.875 39.5 1.03979 7 253 253 253 253 253 253 1 -0.325611412525177 -9.749189376831055 -0.7852981090545654 1.0 1.0 0.9511916090959451 47.756744384765625 47.80062484741211 0.5874739289283752 47.71392822265625 47.6995964050293 47.7282600402832 47.68526077270508 47.584930419921875 47.65659713745117 0 2
24990.970999999998 -0.0006201564328911502 -1.4757084911477092 1.5701244396992518 -0.015926060060220237 1.5699654735790212 3.1398927335605595 -3.197451599661112e-06 0.16255728602558595 5.185072242201584e-05 -0.206992160029833 0.00017773798485466632 -7.729033679399023e-05 -0.0003864302347935441 -0.03947429718505202 -0.0002115274221115002 -1.8939650564742532 -0.00022447505234612377 0.00184467677066813 -0.007134640866233595 -2.22008799312151 -2.643697624421126 -0.5444544076017348 0.0024941401866150955 0.009150304204425893 -0.06883297467375289 -31.603086399937986 -27.146687952321415 -2.610831021961649 -0.005238645896536357 0.08364428757923832 -0.0006106535540979507 -1.4758551132730027 1.5701301733600062 -0.015864209537841845 1.5700165033340454 3.1399216651916504 0.0 0.16220083832740784 6.916426173120271e-06 -0.2162661999464035 0.000271704513579607 5.437140862341039e-05 -0.4835069179534912 -2.2229857444763184 -2.5697293281555176 -0.6450514793395996 -0.08566898107528687 0.1929599642753601 -0.007134640866233595 -2.22008799312151 -2.643697624421126 -0.5444544076017348 0.0024941401866150955 0.009150304204425893 -0.6324119571868879 -0.13267806881498176 0.39786397450131916 -1.267706687327289 -1.266302479826898 1.1700031332586724 -0.07079812356209668 0.0002016947960128708 -0.059052987166956526 0.0002993972405628906 0.05405746564702118 -0.0005478072618880593 9.81896042102163 8.01219378803435 5.326605118754719 -0.28830759282981194 -0.5462313009269097 0.35000167337770577 -0.6324581261508219 -0.1326818330262867 0.3977870954379031 -1.2677244271130608 -1.2664045968744841 1.1699754742178663 -0.069465734057052 0.00018393326083259413 -0.061181803598351146 0.00040495322098726364 0.04438208752602964 -0.0004354519773345877 0 33.5 34.5625 33.5625 36.8125 38.875 39.5 1.190414 7 253 253 253 253 253 253 1 -0.3447650372982025 -9.21288776397705 -0.3447650372982025 1.0 1.0 0.9504109120517692 47.78898239135742 47.85973358154297 0.6411817073822021 47.71392822265625 47.71392822265625 47.75692367553711 47.6995964050293 47.599266052246094 47.6995964050293 0 2
24990.979 -0.0006202820006429022 -1.4744099245708773 1.5701249398410453 -0.01765575847391787 1.5699666921486422 3.1398922258822566 -2.3993975106157297e-05 0.16214932717229188 7.20236588097864e-05 -0.2220290100163027 0.0001313845156071996 -5.471033441692465e-05 -0.001788289989867423 -0.03685997722699397 0.0030877430958753393 -1.9208976721170195 -0.006386385148049456 0.0023466656628556852 -0.009231043836369076 -2.2250676848819064 -2.641679689145951 -0.5491361475215217 0.0015206646748918448 0.009547660649495185 -0.07496832078899605 -31.65038692788087 -27.137781453461802 -2.619370321568953 -0.0064532535906538305 0.08375676396049023 -0.0005982557879846695 -1.4745255273631592 1.5701893011676233 -0.017733172779418993 1.5699926614761353 3.1399097442626953 0.0 0.15999813377857208 2.2408343355786314e-13 -0.20659932494163513 0.0002188326616305858 5.186475391383283e-05 -0.4655546545982361 -2.1301517486572266 -2.57852840423584 -0.811511754989624 -0.08592833578586578 0.19578850269317627 -0.009231043836369076 -2.2250676848819064 -2.641679689145951 -0.5491361475215217 0.0015206646748918448 0.009547660649495185 -0.6329936451464953 -0.1326893520002798 0.397363989484964 -1.2673292441929243 -1.265983848342676 1.1702579712257233 -0.06872272311344924 0.0001839325602191769 -0.05968019994772527 0.0002795077340069602 0.04660033024728469 -0.00048250448653525547 10.046471171172804 7.468269282764483 7.553376958547511 -0.3024560925892479 -0.5513614191078411 0.3117649464336501 -0.6330241501610667 -0.1326803054310579 0.3973133240964485 -1.2674093094050272 -1.26608867827623 1.1701856985819614 -0.07154128221641425 0.00019457945346660702 -0.05798607015237795 0.000409478785600657 0.05980678698613118 -0.00042996792812982155 0 33.5 34.5625 33.5625 36.8125 38.875 39.5 1.044169 7 253 253 253 253 253 253 1 -0.28730419278144836 -9.346963882446289 -0.727837324142456 1.0 1.0 0.9497200281867983 47.74778747558594 47.80152130126953 0.5516634583473206 47.7282600402832 47.7282600402832 47.75692367553711 47.65659713745117 47.599266052246094 47.670928955078125 0 2
24990.986999999997 -0.0006204317529530101 -1.4731140677734453 1.5701256198153448 -0.019507235885866336 1.569967569844349 3.1398918203951585 -1.0334225475871228e-05 0.16182750939418133 9.214285075008758e-05 -0.23725579463232452 9.986958907167823e-05 -5.085801222716073e-05 0.0032490893849305195 -0.06714641872093696 0.0021264837604713037 -1.8228706927028437 -0.0026638680999927127 -0.00036279837241838487 -0.004828977587440709 -2.2445685598090077 -2.64212289710914 -0.549783170591515 0.0009751886075644734 0.009544292254134081 -0.04079241425205203 -31.853465570485483 -27.154702646921965 -2.594962529393921 -0.006349236363661311 0.08320703662495191 -0.000634495412008107 -1.4731950175813218 1.5701664129840296 -0.019524888401367235 1.5699807405471802 3.139897346496582 0.0 0.16069914400577545 7.260018025742307e-21 -0.2464519888162613 0.0001831899135140702 2.513137224013917e-05 -0.49204474687576294 -2.0935020446777344 -2.5657057762145996 -0.5767161846160889 -0.09583935141563416 0.18705050647258759 -0.004828977587440709 -2.2445685598090077 -2.64212289710914 -0.549783170591515 0.0009751886075644734 0.009544292254134081 -0.6335849557078939 -0.132667282136142 0.3968957680163288 -1.2669780802718211 -1.2656166557420299 1.170470666302074 -0.07479628920573923 0.00020182027107910433 -0.0521743910513553 0.0003854603514432481 0.08575189489776404 -0.0004935058189240949 9.213307726667011 7.690249588818467 6.191724996950051 -0.2879290741739636 -0.555043649795448 0.3181183221153848 -0.6336070931932422 -0.13267877264229225 0.3968650728087289 -1.267003226127839 -1.265682075826539 1.170457974358107 -0.07365702258704067 0.00018733573960624965 -0.05480252746476933 0.0004342337584482966 0.07533528703652019 -0.00040352579522017466 0 33.5 34.5625 33.5625 36.8125 38.875 39.5 1.061737 7 253 253 253 253 253 253 1 -0.2298433631658554 -9.21288776397705 -0.7852981090545654 1.0 1.0 0.9497273900978731 47.76927947998047 47.84182357788086 0.5158582925796509 47.7282600402832 47.6995964050293 47.742591857910156 47.670928955078125 47.584930419921875 47.670928955078125 0 2
24990.995 -0.0006205183095602251 -1.471820105674908 1.5701263714412022 -0.021483265367759685 1.5699683296133782 3.139891462991219 -1.6784305953239496e-05 0.16170828814301313 9.19810653741914e-05 -0.25285542615034173 9.489823547875855e-05 -3.829136243439395e-05 -0.0028896289686215046 -0.010348536122500862 -0.0011435492387690273 -1.9498590301885859 0.0004317024198785519 0.0025522433719782356 -0.01045329237695931 -2.226884877198628 -2.6395448194175426 -0.5580062583103604 0.0011158179464876654 0.009826963559002956 -0.09226312634341062 -31.663572207953916 -27.127515068481046 -2.6310004951979233 -0.004521713428608948 0.08376153263481881 -0.0006225744830530289 -1.4718517822078248 1.5701544920550745 -0.02140529573474126 1.5700163841247559 3.1398730278015137 0.0 0.16297145187854767 0.001214962569065392 -0.23408952355384827 0.00015753391198813915 4.5675030424519036e-10 -0.4351987838745117 -2.2480974197387695 -2.590181350708008 -0.8535527586936951 -0.11510349810123444 0.21235206723213196 -0.01045329237695931 -2.226884877198628 -2.6395448194175426 -0.5580062583103604 0.0011158179464876654 0.009826963559002956 -0.6341833444338266 -0.13266514387625422 0.3964301880869965 -1.2665672368418546 -1.2652101272144647 1.1707047391053569 -0.07313498146821518 0.00018916468916368087 -0.056902520914568856 0.000379061588879617 0.06990221864676423 -0.00045009293027949414 9.880064068855244 7.86255815838674 4.85374449832179 -0.2935561925372652 -0.559489208403944 0.3604415169762449 -0.6342075339420371 -0.1326772391274909 0.3964424836676112 -1.266504663846832 -1.2651831956258976 1.170793108982139 -0.07587735755152222 0.00019840136762164673 -0.0516554547121755 0.000453076784239264 0.09105428040617494 -0.00042474841022566953 0 33.5 34.5625 33.5625 36.8125 38.875 39.5 1.007665 7 253 253 253 253 253 253 1 -0.3064578175544739 -9.787496566772461 -0.24899697303771973 1.0 1.0 0.9507731755629869 47.75226593017578 47.83107376098633 0.6143304705619812 47.68526077270508 47.68526077270508 47.7282600402832 47.65659713745117 47.584930419921875 47.670928955078125 0 2
24991.003 -0.000620753468368207 -1.4705272210767024 1.5701270113120396 -0.023580603595970473 1.569969083488242 3.1398911954538082 -3.38597998242909e-05 0.16159907015739544 6.968835635304428e-05 -0.26817898398146084 9.071731820584461e-05 -3.6457146776603865e-05 -0.0008061572210094476 -0.0001558132101397991 -0.0037740628759497215 -1.9355195547318405 -0.0016755834061577004 -0.0020385614897477935 -0.011288677478352221 -2.229117182143963 -2.6404161155692396 -0.5615433908441144 0.0009541201172060318 0.009729112580566378 -0.08847259440648342 -31.685805855449225 -27.123081300051425 -2.6297399569092126 -0.005221669609740657 0.08273030862108903 -0.0006106535540979507 -1.4705455389669915 1.5701664129840296 -0.02347608030352788 1.5699806213378906 3.139897346496582 0.0 0.16317033767700195 0.0005542770959436893 -0.28203219175338745 0.0001381819020025432 8.301211721327157e-15 -0.4817224144935608 -2.137714147567749 -2.625809669494629 -0.5551578998565674 -0.10115189105272293 0.19377076625823975 -0.011288677478352221 -2.229117182143963 -2.6404161155692396 -0.5615433908441144 0.0009541201172060318 0.009729112580566378 -0.6347963940153597 -0.13267980583291017 0.39601175107173425 -1.2660132924107879 -1.2646826357272982 1.171129207266275 -0.08041295529457569 0.0002107521227007914 -0.04704332742628784 0.0004742057487873665 0.1183065915459413 -0.000489331984053952 9.32258261069607 7.2890551787327444 4.451514184942725 -0.2901456378497573 -0.5622233256188349 0.3433624419882936 -0.6348251884904775 -0.13267554983590538 0.3960445349383051 -1.2659166251282992 -1.2645945878716627 1.1711888818038525 -0.07805726258078657 0.00021662319359167689 -0.04855182293977038 0.0004822279564863319 0.10650931540650357 -0.00045616125306220987 0 33.5 34.5625 33.5625 36.8125 38.875 39.5 1.070557 7 253 253 253 253 253 253 1 -0.3064578175544739 -9.557653427124023 -0.2106897532939911 1.0 1.0 0.9520574554926501 47.76122283935547 47.83465576171875 0.5852327942848206 47.71392822265625 47.68526077270508 47.742591857910156 47.65659713745117 47.584930419921875 47.71392822265625 0 2
24991.011 -0.0006210280009639746 -1.4692347922853424 1.5701273818095511 -0.02579974680086039 1.5699697101877141 3.1398907890537053 -3.621265869005104e-05 0.16153255732247343 2.9438459966201183e-05 -0.2832205976319737 7.027607412338839e-05 -5.559677155168783e-05 -0.0011205827620259555 0.0015913398273836865 -0.005798814170709932 -1.8912279592365466 -0.002520266219652181 -0.0003399482558119608 -0.011410483427338714 -2.234562453289636 -2.642635634187903 -0.5641606609717237 0.0005784220177369301 0.009445659010990745 -0.08801702272425926 -31.74283391082468 -27.12186762442159 -2.621600860402368 -0.005329107176430876 0.0830615750895065 -0.0006106535540979507 -1.4692742016962548 1.5701893011676233 -0.025720314388610888 1.5700163841247559 3.1399097442626953 0.0 0.1648077666759491 0.00032806055969558656 -0.2788733243942261 9.845368913374841e-05 1.5087044127582705e-19 -0.4597424864768982 -2.2090816497802734 -2.645941734313965 -0.8125739097595215 -0.11608327180147171 0.18394877016544342 -0.011410483427338714 -2.234562453289636 -2.642635634187903 -0.5641606609717237 0.0005784220177369301 0.009445659010990745 -0.6354259986887553 -0.13267120964374754 0.3956434025682505 -1.2653434056420385 -1.2639554121145364 1.1715797048562775 -0.08024876527040857 0.00020085031854070586 -0.04864986149849316 0.00046468318597293976 0.11373658941225763 -0.000445483133822463 9.518530820158093 7.741377887163228 6.046245000326115 -0.29482715606855847 -0.54324461210693 0.3228451659866959 -0.6354602332093036 -0.1326737913384535 0.39567107187672657 -1.2652387805612078 -1.2639164941102732 1.1716452159787776 -0.08019828295648039 0.00022263852379289604 -0.04551537821871056 0.0005305732024518578 0.12165766434253908 -0.0004546583242190811 0 33.5 34.5625 33.5625 36.8125 38.875 39.5 1.020109 7 253 253 253 253 253 253 1 -0.28730422258377075 -9.53849983215332 -0.8044517636299133 1.0 1.0 0.9535943962896467 47.77913284301758 47.86779022216797 0.6837049722671509 47.742591857910156 47.742591857910156 47.78559112548828 47.71392822265625 47.6279296875 47.742591857910156 0 2
24991.019 -0.0006213982097591497 -1.467942803288624 1.5701273746230653 -0.028137420079591635 1.5699701861949629 3.139890436169635 -5.254544848704406e-05 0.1614559291087004 -1.7865119854622062e-05 -0.297774772550013 5.427003864556219e-05 -3.253350759074079e-05 -0.001537785785900553 0.005022508517818491 -0.004366386650578313 -1.827931394566218 -0.0011728427841584115 0.004261636264280001 -0.012544035954116201 -2.2389636716167067 -2.7698494941643403 -0.5660062200659642 0.0003476449602185318 0.009950568687580092 -0.08772459561054984 -31.788612789988925 -27.106103905258756 -2.6081793248042864 -0.004906639104099689 0.08396833929082569 -0.0006225744830530289 -1.4679702681354065 1.5701778570758265 -0.0280413192561646 1.5699806213378906 3.1398730278015137 0.0 0.1581244170665741 8.898574321847263e-08 -0.29053160548210144 8.874351624399424e-05 2.7419955067856995e-24 -0.49561983346939087 -1.9988369941711426 -2.802647590637207 -0.6858178377151489 -0.11943736672401428 0.20776182413101196 -0.012544035954116201 -2.2389636716167067 -2.7698494941643403 -0.5660062200659642 0.0003476449602185318 0.009950568687580092 -0.636081901107659 -0.13266845363839141 0.3952896919747547 -1.2645526403384386 -1.2632383118167674 1.1720802680983617 -0.08038778945753117 0.00020507139735740994 -0.04191446340160108 0.0004940171936104213 0.1324061686211493 -0.0004493896604039488 10.154984011091448 7.467579349262793 5.412989420714182 -0.29184974127811997 -0.5625494594869097 0.35125496835775655 -0.6361121402381799 -0.13267194129531115 0.3953215396501974 -1.2644735973933054 -1.2631510947094966 1.1721605328185838 -0.0822581291387484 0.00023674931247333978 -0.04255991450961569 0.0005363042251131502 0.13633578303718522 -0.00047409842968399173 0 33.5 34.5625 33.5625 36.8125 38.875 39.5 1.013906 7 253 253 253 253 253 253 1 -0.24899697303771973 -9.423578262329102 -0.26815059781074524 1.0 1.0 0.955101853611765 47.77644348144531 47.86600112915039 0.6299919486045837 47.7282600402832 47.7282600402832 47.75692367553711 47.68526077270508 47.599266052246094 47.68526077270508 0 2
24991.027 -0.000621817650145573 -1.4666508578322244 1.5701271886468842 -0.030589371089540407 1.5699706286941484 3.1398903785279533 -4.908531070838729e-05 0.16146628142998626 -2.04279828704236e-05 -0.3117677664828697 5.8151445817040476e-05 9.95764671254986e-06 0.001505120517426764 -0.026668624044004496 0.0016609582334886164 -1.6289098311730588 0.0011177359002071145 0.005557673501504157 -0.008920327545134936 -2.2576708044080056 -2.7683071883667023 -0.5631617174031214 0.00041393061391836744 0.010697059367774176 -0.05406906630617388 -31.987927412932454 -27.089879151448248 -2.5579809597591248 -0.004926606319361211 0.08416718623589978 -0.000634495412008107 -1.4666986551931878 1.5701301733600062 -0.03048010290179448 1.5699806213378906 3.139897346496582 0.0 0.16041579842567444 2.8830248667457807e-15 -0.3265780806541443 8.077816164586693e-05 4.9834412313054074e-29 -0.4746935963630676 -2.3003427982330322 -2.759068489074707 -0.47552022337913513 -0.12817765772342682 0.1812450885772705 -0.008920327545134936 -2.2576708044080056 -2.7683071883667023 -0.5631617174031214 0.00041393061391836744 0.010697059367774176 -0.6367538853227596 -0.132660131461135 0.3950013462304874 -1.263688046084933 -1.2623284069610823 1.1726888536361681 -0.08620179246530038 0.0002244374553843745 -0.03614038268203385 0.0005670818634798733 0.16616125872141344 -0.0004850106946049196 8.832378604055952 7.338917372964593 5.390095735888574 -0.2841523806152833 -0.5509646396673775 0.3198379629620851 -0.6367802456939116 -0.13267001510690296 0.3949947659755561 -1.2636248072016123 -1.2623017366126164 1.1727324180932361 -0.08423335845862781 0.00024149895768240022 -0.03979244103350999 0.0005229202979865407 0.1503209881016236 -0.0004942106597360776 0 33.5 34.5625 33.5625 36.8125 38.875 39.5 1.04303 7 253 253 253 253 253 253 1 -0.2298433631658554 -9.385271072387695 -0.6320692300796509 1.0 1.0 0.9571398743360156 47.77286148071289 47.80778884887695 0.5829969644546509 47.7282600402832 47.6995964050293 47.7282600402832 47.65659713745117 47.599266052246094 47.670928955078125 0 2
24991.035 -0.000621973225505279 -1.465358382083692 1.5701271435619648 -0.033152864162314444 1.5699709480257726 3.139890471011054 5.557737042366352e-06 0.1616169142786747 5.296989257537058e-06 -0.32558089273469004 2.1048178694078393e-05 3.6053532898098403e-06 0.009478658112208169 0.019380750086117615 0.003969240531187523 -1.7046202551700418 -0.007546719058604267 -0.004068614663710335 -0.004426006934305089 -2.2442037250688043 -2.6371721842783264 -0.569355547658213 -0.0005963442476777527 0.010311054195305628 -0.04788088816701924 -31.84664207369549 -27.049752090715632 -2.5811107380740386 -0.007745004429062925 0.08194496811711423 -0.000634495412008107 -1.4654284876636048 1.5701540152179163 -0.03296549737963872 1.570028305053711 3.1398730278015137 0.0 0.16114792227745056 -0.00034095245064236224 -0.324410617351532 5.5676002375548705e-05 9.057159177501763e-34 -0.45482879877090454 -2.233628749847412 -2.7424588203430176 -0.7664563655853271 -0.1288866251707077 0.19691361486911774 -0.004426006934305089 -2.2442037250688043 -2.6371721842783264 -0.569355547658213 -0.0005963442476777527 0.010311054195305628 -0.6374163450636556 -0.1326475781033788 0.3946805360387789 -1.262818579308509 -1.261434037903897 1.1732226401819723 -0.08598247712788647 0.00021806684621798668 -0.03689158551521531 0.0005615507990033135 0.16360267280449534 -0.0004568765446075001 9.663844531969092 7.709825681900896 6.0777161421025 -0.28648314585476764 -0.5481434979599722 0.3310474934459048 -0.6374640902081865 -0.1326682279540691 0.39468970243037815 -1.2626947285625494 -1.2613714222408254 1.173359127776741 -0.08619165724568549 0.00020648115100790616 -0.037159935472845254 0.0005548014041761265 0.16395777508193865 -0.0004183606637612595 0 33.5 34.5625 33.5625 36.8125 38.875 39.5 1.132298 7 253 253 253 253 253 253 1 -0.26815059781074524 -9.634267807006836 -0.7469909191131592 1.0 1.0 0.959920447211946 47.78361129760742 47.86152267456055 0.6613254547119141 47.7282600402832 47.71392822265625 47.742591857910156 47.670928955078125 47.599266052246094 47.670928955078125 0 2
24991.042999999998 -0.0006216164246062306 -1.4640653573217994 1.5701273395008348 -0.035821116541367104 1.5699708699133534 3.1398902705917724 6.17235922115996e-05 0.16166898606425997 3.577463861797016e-05 -0.3386290600759357 -2.1986973797132062e-05 -4.483940439075533e-05 0.0041362969450191535 0.01368673009513599 0.0034556401950602837 -1.6313575236039657 -0.0026240865892201985 -0.006621141482021641 -0.0018933906287993767 -2.2524337892524495 -2.6352754880639457 -0.5706874429733635 -0.0011201519263777198 0.009421547409849702 -0.060720130385629234 -31.934992756513342 -27.0484011914863 -2.5664724946731035 -0.0058656400639254935 0.0814089274127842 -0.0006106535540979507 -1.4641217228821297 1.5701664129840296 -0.03558285654101567 1.5700044631958008 3.1399097442626953 0.0 0.16194963455200195 -4.1864650484058075e-06 -0.3271344006061554 5.136325125931762e-05 1.6460936752651087e-38 -0.4784778952598572 -2.1702492237091064 -2.6465420722961426 -0.837319552898407 -0.13811443746089935 0.20390549302101135 -0.0018933906287993767 -2.2524337892524495 -2.6352754880639457 -0.5706874429733635 -0.0011201519263777198 0.009421547409849702 -0.6381049982931795 -0.13266748233782685 0.39436951664605013 -1.261873904516566 -1.260501550861113 1.1739239369187553 -0.08637540504330755 0.00021637639985333976 -0.03709975314098565 0.000562106593456404 0.16518799178876575 -0.00045524228192357955 9.959026064803117 7.361480792339668 6.379688393821965 -0.29906120055070196 -0.5634386287963883 0.3339305954992087 -0.6381625262663639 -0.13266678571849705 0.39440496692817784 -1.2616877961300437 -1.2603657791592022 1.1740371772771596 -0.08800070703213027 0.00017012156295485555 -0.034614464022321836 0.0006268135582924576 0.17692337724907875 -0.00033111469098656395 0 33.5 34.5625 33.5625 36.8125 38.875 39.5 1.018969 7 253 253 253 253 253 253 1 -0.325611412525177 -9.423578262329102 -0.2106897532939911 1.0 1.0 0.962103116820787 47.76927947998047 47.84719467163086 0.6232790946960449 47.6995964050293 47.6995964050293 47.742591857910156 47.65659713745117 47.584930419921875 47.71392822265625 0 2
24991.051 -0.0006210129272998799 -1.4627720024614543 1.5701277583177602 -0.03859094608578317 1.5699706801882334 3.1398896925330835 8.913564038928047e-05 0.16167939319231764 6.436341748042994e-05 -0.3509874054671176 -2.342061829102713e-05 -8.170638839690485e-05 0.00586762315021674 0.012785545688773214 0.004257837968735247 -1.5413643329473259 0.00010067276485781275 -0.0012182890600342916 0.001039694632975169 -2.2591931441784396 -2.6323926784312337 -0.5713033583199151 -0.001086611050716651 0.008929440532855491 -0.05007169053965482 -32.007113962433 -27.035539452350037 -2.5473956482248807 -0.005396546669377683 0.08247781848612329 -0.0006225744830530289 -1.4628155690482636 1.5701664129840296 -0.03841014326129155 1.5699806213378906 3.139885425567627 0.0 0.16205231845378876 -1.3563618544293332e-13 -0.3444691598415375 -3.6867819289909676e-05 2.9847657290118604e-43 -0.4681892693042755 -2.137554168701172 -2.6308817863464355 -0.6909443140029907 -0.14103013277053833 0.19538725912570953 0.001039694632975169 -2.2591931441784396 -2.6323926784312337 -0.5713033583199151 -0.001086611050716651 0.008929440532855491 -0.6388307916580608 -0.13266232635812375 0.3941083824027928 -1.260737028178938 -1.2594088742043084 1.174665889089607 -0.0888371799874381 0.0002079865753790615 -0.033696535479471566 0.0005934520047390996 0.18241597707928173 -0.0003876909941590645 9.225790700897557 7.824126380539926 5.110567521245858 -0.29120758774938404 -0.55937803812245 0.34711864679994364 -0.6388749786888762 -0.1326654579709585 0.3941401284484412 -1.260606328367512 -1.2592865598554295 1.1747644986110488 -0.08969017032096269 0.0001600636559183011 -0.03217297351421746 0.0006888895657704291 0.18924265378898641 -0.0003141745909601713 0 33.5 34.5625 33.5625 36.8125 38.875 39.5 1.026793 7 253 253 253 253 253 253 1 -0.325611412525177 -9.289502143859863 -0.3447650372982025 1.0 1.0 0.9640225766077126 47.762115478515625 47.83107376098633 0.6456586718559265 47.742591857910156 47.71392822265625 47.75692367553711 47.670928955078125 47.599266052246094 47.670928955078125 0 2
24991.058999999997 -0.0006199647864812974 -1.461478332273046 1.5701284626890566 -0.04145639654934463 1.5699705014615963 3.1398891364177857 0.0001579208768617775 0.16170277476887754 0.00010215767391810138 -0.3625819785418058 -2.0455427609328083e-05 -5.942170845400544e-05 0.0076008297975714845 0.014682050631931176 0.003938998604957611 -1.4546295827276567 0.001063698782854949 0.0024413442856641146 0.006673680658196514 -2.2643938894839093 -2.629114080218368 -0.5718982039574788 -0.0010259908375014318 0.009394554244083619 -0.04055538089688014 -32.06282613445957 -27.02413037022741 -2.529635015928989 -0.005328143026491333 0.08317208164015978 -0.0006225744830530289 -1.461545781498291 1.5701664129840296 -0.041291312580444384 1.5699925422668457 3.1398730278015137 0.0 0.15953002870082855 0.00013609614688903093 -0.3725443184375763 -3.415877654333599e-05 0.0 -0.3763677477836609 -2.132275104522705 -2.6628074645996094 -0.518538236618042 -0.1571899652481079 0.19993844628334045 0.006673680658196514 -2.2643938894839093 -2.629114080218368 -0.5718982039574788 -0.0010259908375014318 0.009394554244083619 -0.6395533855878719 -0.13265757081084403 0.39388112980020434 -1.2595530687060466 -1.2582270720609705 1.1754413012127933 -0.09225063403071426 0.0002232369274675302 -0.026499942147416057 0.0006523730921362816 0.21287724570392746 -0.00042370751092185035 9.48248818430412 7.533656044199774 4.924756187049066 -0.28772221128344855 -0.5563330090610734 0.34364570093235625 -0.6396004279549397 -0.13266436318828928 0.39389401673805263 -1.2594549493834748 -1.2581379870199632 1.1755383097329546 -0.09125039612828985 0.00012189384376624872 -0.029892000581566876 0.0006906234418383749 0.2007760384939176 -0.00026340238558198337 0 33.5 34.5625 33.5625 36.8125 38.875 39.5 1.021465 7 253 253 253 253 253 253 1 -0.24899697303771973 -9.53849983215332 -0.5363011360168457 1.0 1.0 0.9658715021107809 47.754947662353516 47.842716217041016 0.5270481109619141 47.68526077270508 47.68526077270508 47.71392822265625 47.670928955078125 47.570594787597656 47.64226531982422 0 2
24991.067 -0.0006185480174547564 -1.4601842950161545 1.57012935837052 -0.044412178720317996 1.5699704272511976 3.139888642832858 0.00018240613606622844 0.16172466266831106 0.00011456826232965587 -0.37357508668017486 -2.2440091877930003e-08 -6.860209685776857e-05 0.0008839666352411415 -0.029129784297851624 0.0004036110991118409 -1.2485880307633312 0.003208968624030473 -0.002863319073521005 0.008808302396835587 -2.2888015657311405 -2.63092454829522 -0.5686256383364164 -0.0005136339890882573 0.009105991675477649 -0.03588109944796182 -32.32313738038939 -27.050713890408066 -2.481818266557627 -0.004100727363091605 0.0821109373386657 -0.0005982557879846695 -1.460262970333435 1.5701540152179163 -0.04425259054217534 1.5700044631958008 3.139885425567627 0.0 0.16055472195148468 8.4554216300603e-05 -0.38738763332366943 -3.1748731998959556e-05 0.0 -0.4249507188796997 -2.2468600273132324 -2.645474672317505 -0.5931622982025146 -0.15419986844062805 0.19677743315696716 0.008808302396835587 -2.2888015657311405 -2.63092454829522 -0.5686256383364164 -0.0005136339890882573 0.009105991675477649 -0.6402887830419008 -0.13266919952137712 0.3936689515946239 -1.258317623056213 -1.2569931793356708 1.176290078021476 -0.09453642543883943 0.00022955264002377833 -0.024133323370478493 0.0006772108865079003 0.22674737986327742 -0.00044346917131830334 9.577550338657154 7.848388671735867 5.383815139049333 -0.2873850806494202 -0.5442998477680584 0.34329445446245316 -0.6403380367649305 -0.1326634382238307 0.3936656459181581 -1.258237578176965 -1.2569237202723895 1.1763557772114883 -0.09272032710239896 0.00011642642298359414 -0.02770907867418784 0.0007236561101883227 0.21173477280062508 -0.0002714503744090848 0 33.5 34.5625 33.5625 36.8125 38.875 39.5 1.042573 7 253 253 253 253 253 253 1 -0.28730422258377075 -9.576807022094727 -0.5554547905921936 1.0 1.0 0.9677095337437513 47.74688720703125 47.80062484741211 0.6613254547119141 47.7282600402832 47.6995964050293 47.7282600402832 47.64226531982422 47.570594787597656 47.670928955078125 0 2
24991.074999999997 -0.0006169437824219415 -1.4588897223925459 1.5701303474932935 -0.047453581647950216 1.5699705420946994 3.13988793380795 0.00021578306231364485 0.16188654873680045 0.00013133131324861123 -0.3840150776726949 2.2264239238274454e-05 -0.00010234031736337661 0.005778212881119279 0.022728870576568805 0.002919671273482469 -1.259953281014331 0.0025204301234760256 -0.004837837203108822 0.010622471721987218 -2.272917148763703 -2.624707200171372 -0.5720842269848728 -0.00018385509791445573 0.008450869122787282 -0.040429449589543184 -32.15617371786959 -26.995615531987262 -2.4894271944142363 -0.004621450828866256 0.08145194020931867 -0.0006106535540979507 -1.4589557957700272 1.5701664129840296 -0.04731650770220952 1.5699806213378906 3.139897346496582 0.0 0.1628965437412262 6.145314546301961e-05 -0.38713550567626953 -4.3500185711309314e-05 0.0 -0.39153385162353516 -2.272409439086914 -2.628905773162842 -0.7688463926315308 -0.151027649641037 0.18933719396591187 0.010622471721987218 -2.272917148763703 -2.624707200171372 -0.5720842269848728 -0.00018385509791445573 0.008450869122787282 -0.6410438287925081 -0.13266486652886236 0.3934471345882009 -1.2570446083063957 -1.2557182860512393 1.1771649201950416 -0.09487131007155339 0.00022826478871844182 -0.025693158033357043 0.000678072151650629 0.2241765435793432 -0.00043081445819409254 9.756956701418869 7.643222125401292 5.578495098766352 -0.29534234732520753 -0.5555200856363987 0.34472342853153115 -0.6410870967223532 -0.13266254278744652 0.39345407329122667 -1.2569575991774151 -1.2556471636552995 1.1772140042235035 -0.09412725081201816 0.00010614895303742108 -0.025722920165202588 0.0007799949540817334 0.2219960106684309 -0.000270212409585077 0 33.5 34.5625 33.5625 36.8125 38.875 39.5 1.085581 7 253 253 253 253 253 253 1 -0.3064578175544739 -9.634267807006836 -0.40222588181495667 1.0 1.0 0.9701669681503637 47.74509811401367 47.81495666503906 0.6814691424369812 47.68526077270508 47.6995964050293 47.7282600402832 47.6995964050293 47.570594787597656 47.64226531982422 0 2
24991.083 -0.0006150953587304997 -1.4575940577656556 1.570131511149743 -0.050571184026226845 1.569970873302805 3.139887004245793 0.00023069277149741555 0.16206346981336345 0.00015347941495840798 -0.3933381412073633 5.8447066236884234e-05 -0.0001181697818618564 -0.0018943114042529487 0.0389600208906965 0.0023995919861796696 -1.1579236326959008 0.0063241449311357565 0.0005727465280713759 0.008764004425250506 -2.2715729280165387 -2.620915056648705 -0.5717689663686614 0.0007091741393477258 0.008312828608441557 -0.06906256159257008 -32.14432614373921 -26.969278218889443 -2.468738566237489 -0.002609503185521103 0.0824965401975394 -0.0006106535540979507 -1.4576496195844193 1.5701540152179163 -0.0505100053599854 1.5700044631958008 3.139885425567627 0.0 0.1619541049003601 5.4012616601539776e-05 -0.3856339454650879 -4.173413253738545e-05 0.0 -0.3998785614967346 -2.221292734146118 -2.6276183128356934 -0.8648169040679932 -0.15888196229934692 0.1921040415763855 0.008764004425250506 -2.2715729280165387 -2.620915056648705 -0.5717689663686614 0.0007091741393477258 0.008312828608441557 -0.6418194852415533 -0.13265742519624527 0.39326686343852163 -1.2556546227187975 -1.2543158654592357 1.1780706309337112 -0.09425460851979961 0.00022743619135750967 -0.02540749653667471 0.0006764503920674185 0.22362486306504553 -0.00043001463463061167 10.373631668547441 7.499380755487489 6.454291252235591 -0.29108467225329965 -0.5396922651539796 0.3268251070399852 -0.6418462301391595 -0.1326617130130097 0.3932570386268843 -1.2556223278391476 -1.2543156729611766 1.1781079092886186 -0.09536295758876405 0.00010934619915553895 -0.023969580349562175 0.0008169124780656117 0.23111990086740875 -0.0003011747182262784 0 33.5 34.5625 33.5625 36.8125 38.875 39.5 1.025149 7 253 253 253 253 253 253 1 -0.2298433631658554 -9.461885452270508 -0.5171475410461426 1.0 1.0 0.9725894048952781 47.775550842285156 47.86421203613281 0.6165663003921509 47.7282600402832 47.7282600402832 47.75692367553711 47.68526077270508 47.61359786987305 47.68526077270508 0 2
24991.091 -0.0006134529732282346 -1.4562962555667252 1.5701327996441072 -0.053759870951555655 1.5699715870282027 3.139886174216471 0.00018572346529990426 0.1623447477440134 0.00016270160257087727 -0.4018391998489093 0.00010129487491185642 -9.147458278842865e-05 -0.006675000233385386 0.04868341500016693 -0.00013009105586103957 -1.0553713744245463 0.0020453231036832178 0.0043817204161023 0.004192763989458939 -2.273296355971472 -2.619095013471773 -0.5713463393148923 0.0014351194660305422 0.008855171939841242 -0.08413500186850674 -32.16661212306082 -26.95578016448127 -2.4487826908340495 -0.0028762540196840803 0.08320969168246004 -0.0006106535540979507 -1.4563445460847397 1.5701893011676233 -0.05370564878497319 1.5700044631958008 3.1399097442626953 0.0 0.15835508704185486 7.846558958135574e-09 -0.38845229148864746 -3.930404272978194e-05 0.0 -0.4256092309951782 -2.0037293434143066 -2.654283046722412 -0.8724334239959717 -0.16309604048728943 0.1886904239654541 0.004192763989458939 -2.273296355971472 -2.619095013471773 -0.5713463393148923 0.0014351194660305422 0.008855171939841242 -0.6425845993873531 -0.13265634062314138 0.39305932047955916 -1.2543138315942834 -1.2529452095191693 1.178997378161124 -0.09367044230800645 0.00022868726548159614 -0.022506009874718215 0.0006853114388278496 0.23009621836908167 -0.00043500672871724127 10.33017201605371 7.853824622653841 7.139627785051573 -0.3016174731140181 -0.5394021170468728 0.32448285194691934 -0.6426149075460407 -0.13266063876076192 0.39307291442059 -1.2542367512316244 -1.25293306942798 1.1790341323601297 -0.09650145277658932 0.00015050681041395416 -0.02243635377207441 0.0008099958575111918 0.23933039407075987 -0.00040030252324517386 0 33.5 34.5625 33.5625 36.8125 38.875 39.5 1.040186 7 253 253 253 253 253 253 1 -0.28730422258377075 -9.232041358947754 -0.5937620401382446 1.0 1.0 0.9755186532160182 47.74151611328125 47.82928466796875 0.6165663003921509 47.6995964050293 47.6995964050293 47.7282600402832 47.64226531982422 47.570594787597656 47.65659713745117 0 2
24991.099 -0.000612241520978607 -1.45499579520913 1.5701340400615478 -0.057012971381460886 1.5699723293056038 3.1398856330569878 0.00013293545882673175 0.16267912509096946 0.0001483947767392648 -0.40949689455615423 8.47960752129063e-05 -5.550728166032803e-05 -0.004459338216391897 0.060430678493664236 -0.0022052112198966993 -0.9513443999085713 -0.0018128370928405218 0.0024382805041689437 0.001443318118559149 -2.2742065526852735 -2.6181374442849212 -0.5705413476133577 0.0010048487193626313 0.00939621414121477 -0.07574688018476655 -32.18097769237159 -26.937004145983238 -2.427380718876525 -0.003977944881044244 0.08265412651143406 -0.0005982557879846695 -1.455061250632145 1.5701540152179163 -0.05691464365039067 1.5699443817138672 3.1398730278015137 0.0 0.16080334782600403 2.5421856909133467e-16 -0.3947378396987915 -4.952136441715993e-05 0.0 -0.42025166749954224 -2.1653428077697754 -2.657886505126953 -0.804034948348999 -0.15016022324562073 0.17211362719535828 0.001443318118559149 -2.2742065526852735 -2.6181374442849212 -0.5705413476133577 0.0010048487193626313 0.00939621414121477 -0.6433570528023914 -0.132673832902353 0.39291032277939253 -1.25281580034858 -1.2515804447507464 1.1799857729761376 -0.09497781492403001 0.00022890760305432917 -0.022807589335077975 0.0006937067317336322 0.23393352195086034 -0.00043175734047519454 9.770310085253888 8.025128272761398 6.220902960791241 -0.2831875678102375 -0.5493531972443622 0.34284632756018674 -0.6433922477352813 -0.13265926031041997 0.39290015942751083 -1.2528060783559352 -1.2515044599064866 1.1799893431365291 -0.09752376897300899 0.00018341586468751512 -0.021089299620513643 0.0007886165306519994 0.2466680660186147 -0.00044741907193458406 0 33.5 34.5625 33.5625 36.8125 38.875 39.5 1.034546 7 253 253 253 253 253 253 1 -0.2298433631658554 -9.270349502563477 -0.363918662071228 1.0 1.0 0.9785710125983862 47.75047302246094 47.845401763916016 0.6165663003921509 47.7282600402832 47.7282600402832 47.742591857910156 47.670928955078125 47.599266052246094 47.670928955078125 0 2
24991.107 -0.0006111836064048859 -1.4536917296786607 1.5701351442300093 -0.060323709181741236 1.5699730444020292 3.139885118940235 0.00013963992186370996 0.16317162125658355 0.0001316361839715796 -0.4163016456086761 9.731883044983819e-05 -7.755003600203612e-05 0.0032730882294905207 0.034578882070715466 -0.0020232568799239932 -0.7176329073779741 0.0031214685644374396 -0.005154600094174451 0.006755225558916113 -2.2906018283893506 -2.6182943561730907 -0.5652690662407261 0.0012331323859962687 0.008804404643649082 -0.02734793654588179 -32.362534560054875 -26.92844055913553 -2.37156842764453 -0.00392712522212047 0.0809141188864949 -0.0006464163409631851 -1.453742266898491 1.5701778570758265 -0.060146645908691454 1.570028305053711 3.139897346496582 0.0 0.1629929095506668 8.236357871893265e-24 -0.394351989030838 -4.693905430031009e-05 0.0 -0.4024706184864044 -2.1075875759124756 -2.6697490215301514 -0.8953530192375183 -0.16726888716220856 0.17625154554843903 0.006755225558916113 -2.2906018283893506 -2.6182943561730907 -0.5652690662407261 0.0012331323859962687 0.008804404643649082 -0.6441363097751189 -0.13262387699012546 0.39270779978064974 -1.2515110664641875 -1.2500865429654409 1.1808284225669965 -0.09524031304132802 0.00023394433445916572 -0.02431199411137414 0.0007036569017869365 0.23135807235403738 -0.000433212672938476 9.172358804118131 7.823937809172769 4.84664362827349 -0.27596049843900766 -0.553550054934573 0.3502837326527323 -0.6441773769816762 -0.1326577616997522 0.3927368780215429 -1.2513355157881132 -1.2500357923008516 1.1809697318944312 -0.0984407227586301 0.00018583413639921263 -0.02001161988597903 0.0008250635231116217 0.2529970153842667 -0.00045953788675620036 0 33.5 34.5625 33.5625 36.8125 38.875 39.5 1.06583 7 253 253 253 253 253 253 1 -0.24899697303771973 -9.404424667358398 -0.363918662071228 1.0 1.0 0.9821735268752824 47.76569747924805 47.824806213378906 0.5762841701507568 47.68526077270508 47.68526077270508 47.7282600402832 47.65659713745117 47.570594787597656 47.65659713745117 0 2
24991.114999999998 -0.0006100128489396894 -1.4523830671924616 1.5701361194108494 -0.0636854162839029 1.5699739308557275 3.1398843169524078 0.00014695073340818918 0.1638309135192317 0.00011622481166019937 -0.4224371730104552 0.0001179923192345775 -0.00011254792923057496 -0.00034169215915212593 0.0828710377148989 -0.0018626663288445755 -0.7211962560887131 0.0022494139353845836 -0.00388735615803881 0.004014898964691272 -2.2754569142840557 -2.6148950330326524 -0.5676097294223967 0.0016688572591994195 0.00822075034967761 -0.05961780369149005 -32.210383951121045 -26.88334721314445 -2.3785275920179867 -0.003372965119041408 0.08099744903256859 -0.0006225744830530289 -1.4524702218225976 1.5701778570758265 -0.06340642393145757 1.5700163841247559 3.1398611068725586 0.0 0.16630545258522034 2.6684751496717247e-31 -0.4110092222690582 -5.574069291469641e-05 0.0 -0.4329903721809387 -2.4278502464294434 -2.618828058242798 -0.771725594997406 -0.1711842119693756 0.17086592316627502 0.004014898964691272 -2.2754569142840557 -2.6148950330326524 -0.5676097294223967 0.0016688572591994195 0.00822075034967761 -0.6449023284970749 -0.13263852052096645 0.3925553080823907 -1.2500093672047472 -1.248674804505789 1.1817992370068533 -0.09824828989805318 0.00023914887180741403 -0.023046267210284035 0.0007302281945255647 0.2447027474536054 -0.0004438268373076629 9.813251791394958 8.022752085366545 5.3879705489363 -0.2818733912149862 -0.5491268474199784 0.3547029289688687 -0.6449694391092462 -0.13265626480447482 0.39258110128783297 -1.2498303788950502 -1.24853287201715 1.181971251390247 -0.09928927274209462 0.00018966998667306126 -0.019174857936578752 0.0008733585078267072 0.25848857140743586 -0.00047775084875378284 0 33.5 34.5625 33.5625 36.8125 38.875 39.5 1.021333 7 253 253 253 253 253 253 1 -0.363918662071228 -9.576807022094727 -0.40222588181495667 1.0 1.0 0.986706993140314 47.78361129760742 47.85078048706055 0.6188021302223206 47.71392822265625 47.6995964050293 47.75692367553711 47.6995964050293 47.584930419921875 47.670928955078125 0 2
24991.123 -0.0006088731414539694 -1.4510696737923787 1.570137014768599 -0.06708919197674135 1.5699749129365759 3.1398832881112284 0.00013950014714984708 0.16444465223808324 0.00011216568095883121 -0.42740900121579734 0.0001223881015479328 -0.00013780522341771574 -0.0009745694391542309 0.09048453115845234 0.0005999068441342486 -0.6084673372630245 -0.0007220491683224194 -0.0027690403971103394 0.0035961492194900536 -2.2772805196736066 -2.612311518556328 -0.5658817919817831 0.0016812795552129296 0.00780493278745012 -0.05873981412563402 -32.23838350961386 -26.853741335876748 -2.354900312721021 -0.003896126373298439 0.08110071344154288 -0.000634495412008107 -1.4511283722570916 1.5701664129840296 -0.066844181423523 1.5699687004089355 3.139885425567627 0.0 0.16574729979038239 8.645519669123143e-39 -0.41665762662887573 -5.313174187904224e-05 0.0 -0.4277375340461731 -2.302258253097534 -2.638498306274414 -0.7826887369155884 -0.1800166368484497 0.17661699652671814 0.0035961492194900536 -2.2772805196736066 -2.612311518556328 -0.5658817919817831 0.0016812795552129296 0.00780493278745012 -0.645715720552703 -0.13263970804016167 0.39240106258651564 -1.2484669190191995 -1.2471443898790564 1.1828719213421526 -0.09873872055080532 0.00024356860640659903 -0.021535553734828412 0.0007460065018340642 0.2509092747132029 -0.00045239466809061273 9.916885673092544 7.787342523220409 5.67882319969481 -0.28494598020080886 -0.5478131083639118 0.3432261302011666 -0.645767111194514 -0.13265470014712916 0.39243092102267624 -1.248297390040726 -1.2470022504330192 1.1829893665135682 -0.09994983679432003 0.00019857201410625373 -0.01855056730144761 0.000908664434959594 0.2628506709306226 -0.0004937091851095444 0 33.5 34.5625 33.5625 36.8125 38.875 39.5 1.019245 7 253 253 253 253 253 253 1 -0.28730422258377075 -9.346963882446289 -0.3447650372982025 1.0 1.0 0.9907180084605998 47.75315856933594 47.84988021850586 0.6747510433197021 47.7282600402832 47.6995964050293 47.7282600402832 47.65659713745117 47.570594787597656 47.670928955078125 0 2
24991.130999999998 -0.000607812216266268 -1.4497509787841478 1.5701379221638312 -0.07052876806871922 1.56997580994595 3.1398821109703636 0.00012584148136674184 0.16509593290233504 0.00010746028304698385 -0.43145284253648136 0.00010290064818612372 -0.00014993802194201286 -0.0027159891603863212 0.09279202324245783 -0.0035564529751841408 -0.48643805207845836 -0.003442469051817554 -0.00025424685583530775 0.0025719608790452588 -2.281758672621097 -2.6120864685253213 -0.5638175734769847 0.0012959271512885768 0.007653980769800289 -0.05968709296157199 -32.2951912606463 -26.84851110018786 -2.3303637093094745 -0.004215751206199557 0.08154041451296784 -0.000634495412008107 -1.449822412138321 1.5701664129840296 -0.07033033788714604 1.5700044631958008 3.1398611068725586 0.0 0.16398057341575623 0.0 -0.4237404763698578 -0.00010590325109660625 0.0 -0.44100362062454224 -2.145695686340332 -2.6520678997039795 -0.688412606716156 -0.16366881132125854 0.16457748413085938 0.0025719608790452588 -2.281758672621097 -2.6120864685253213 -0.5638175734769847 0.0012959271512885768 0.007653980769800289 -0.6465224133048767 -0.13262914274697726 0.3922730868581259 -1.2468658296171446 -1.2455321355899516 1.1838890575592758 -0.09915262710115558 0.00023561026360192995 -0.01893927245234037 0.0007598045067277418 0.25975891749414315 -0.0004073230652570518 9.233778255070327 7.451778502861843 5.538991003638925 -0.2851186284345285 -0.5556136388158225 0.3333093061157131 -0.6465695455023104 -0.13265308138958348 0.3922846515297116 -1.2467416157661653 -1.245449047664784 1.1840207761099482 -0.10047858960790654 0.0002054664187692009 -0.018138104948744096 0.0009277842071284898 0.2662479449285795 -0.0004916635126034044 0 33.5 34.5625 33.5625 36.8125 38.875 39.5 1.025965 7 253 253 253 253 253 253 1 -0.28730422258377075 -9.27034854888916 -0.3447650372982025 1.0 1.0 0.9947564189752955 47.793460845947266 47.871376037597656 0.6725152134895325 47.7282600402832 47.7282600402832 47.77125930786133 47.670928955078125 47.61359786987305 47.670928955078125 0 2
24991.139 -0.0006069585490555696 -1.448426920677151 1.5701385178801468 -0.0739961936202036 1.5699764620001377 3.1398809611677816 9.229276947621563e-05 0.16574532750721774 5.21982210413233e-05 -0.4344833340064994 6.710817575075677e-05 -0.00013675694105950666 -0.0050645846992490575 0.09660301176214747 -0.006237250318030797 -0.36483005741519414 -0.004576018895541265 0.0027840426710668 -9.702075929755622e-05 -2.2856712501732974 -2.6141534956491057 -0.5614486033677808 0.0006776792783766592 0.00794627425886965 -0.06354230416609696 -32.34595194350652 -26.836550552048518 -2.3053384801261596 -0.004087499709500288 0.08208845409889733 -0.0006106535540979507 -1.4485274714282532 1.5701540152179163 -0.07374079645190434 1.5699806213378906 3.1399097442626953 0.0 0.16685830056667328 -0.0 -0.42084744572639465 -9.689904982224107e-05 1.7464754975549113e-08 -0.4000867009162903 -2.0944950580596924 -2.674515724182129 -0.763257622718811 -0.18106427788734436 0.17020359635353088 -9.702075929755622e-05 -2.2856712501732974 -2.6141534956491057 -0.5614486033677808 0.0006776792783766592 0.00794627425886965 -0.6473131221570865 -0.13264925942139463 0.39214413287447425 -1.245319211687365 -1.243983779744846 1.1849939660021875 -0.09918838839537371 0.00023378016454320532 -0.021397246524611484 0.0007472945640772659 0.2539881703464421 -0.0004121785022982213 9.509910075294448 7.672353182294551 5.59342560050269 -0.2859045143937337 -0.5424916923900188 0.33912494740726407 -0.6473756342995381 -0.13265136947793368 0.3921408284734713 -1.2451688037675208 -1.2438788206933138 1.1850618253650913 -0.1008670908933274 0.0002204013565395081 -0.017901028860371693 0.0009190403433403403 0.26868437002795614 -0.000493276518949654 0 33.5 34.5625 33.5625 36.8125 38.875 39.5 1.011697 7 253 253 253 253 253 253 1 -0.3064578175544739 -9.653421401977539 -0.6129156351089478 1.0 1.0 0.9985571428816419 47.77375411987305 47.85883712768555 0.6680382490158081 47.7282600402832 47.71392822265625 47.75692367553711 47.68526077270508 47.584930419921875 47.670928955078125 0 2
24991.146999999997 -0.0006064515935628734 -1.447097117383934 1.5701388203391486 -0.07748376028599324 1.5699768372694116 3.1398800231120507 4.35811661318398e-05 0.1664725528957268 3.50348665411907e-05 -0.43658409481322646 3.509712847856185e-05 -0.00010315134136328814 -0.006498521518462547 0.05960296944770849 -0.00011035169689420669 -0.13562722588830733 -0.0036481138400597402 0.004670181370364434 -0.0012403091082170863 -2.3052726008073994 -2.61380731086707 -0.5552820855466253 0.00014958092504362377 0.008559494828775611 -0.04190960611555347 -32.56501836792512 -26.82245867836768 -2.2514600529754474 -0.003774389149729894 0.0824304494211282 -0.0006464163409631851 -1.4472569313696404 1.5701778570758265 -0.07714147985491948 1.5700163841247559 3.139897346496582 0.0 0.16645517945289612 -0.0 -0.4255959391593933 -8.921467087930068e-05 3.174133048414185e-13 -0.41657695174217224 -2.181342363357544 -2.6584434509277344 -0.751846432685852 -0.1762593388557434 0.16469603776931763 -0.0012403091082170863 -2.3052726008073994 -2.61380731086707 -0.5552820855466253 0.00014958092504362377 0.008559494828775611 -0.6480960980357133 -0.13261602070085776 0.39200738604974594 -1.2437982143655235 -1.2423921556017843 1.1859549451724707 -0.09957524157323439 0.00024118015652136558 -0.020158984837667104 0.0007676904142681532 0.2591397306415024 -0.000424735731639141 9.383586005280753 7.521454781379904 4.40913389719596 -0.28118445633426414 -0.5638314536376117 0.36138275099366385 -0.648184327618948 -0.1326494908941083 0.39199761626585045 -1.2435850833258548 -1.2422973335679997 1.1861085770844244 -0.1011297459356485 0.000244828166680372 -0.017927821827597716 0.0008883080371834034 0.27007515431387336 -0.0005135788634207428 0 33.5 34.5625 33.5625 36.8125 38.875 39.5 1.056205 7 253 253 253 253 253 253 1 -0.363918662071228 -9.251194953918457 0.0 1.0 1.0 1.0025760503251202 47.780921936035156 47.827491760253906 0.6478998064994812 47.71392822265625 47.6995964050293 47.7282600402832 47.65659713745117 47.584930419921875 47.64226531982422 0 2
24991.155 -0.0006063980434092286 -1.4457609709741952 1.570139158027157 -0.08098337750032059 1.569976985847309 3.1398791859562127 -1.6562530458165632e-05 0.1673474041870782 4.9049971891586325e-05 -0.4378270807056877 9.398254883935654e-06 -0.00011391650727478526 -0.007926129226660715 0.10989665824157058 0.002681279761151955 -0.10168716473171746 -0.002938234268556883 -0.0044213480975052715 -0.007765100750334005 -2.288784779215647 -2.6070714488997173 -0.5551827522860319 -0.0002277530511195123 0.008104309234972296 -0.06563279826068133 -32.401512789495214 -26.760264481561485 -2.2482390981494462 -0.003150451330855798 0.08025225003359143 -0.0006225744830530289 -1.4458783578923722 1.570141617451803 -0.08085449159655766 1.5699806213378906 3.1398730278015137 0.0 0.1675218641757965 -0.0 -0.4255492687225342 -8.265942597063258e-05 5.76883038383872e-18 -0.4547746181488037 -2.2921416759490967 -2.694827079772949 -0.7671016454696655 -0.16697096824645996 0.1593981236219406 -0.007765100750334005 -2.288784779215647 -2.6070714488997173 -0.5551827522860319 -0.0002277530511195123 0.008104309234972296 -0.6489507441723392 -0.13263597027637947 0.3919008722744615 -1.2420122454164495 -1.2407095427099302 1.1871310147941865 -0.099587346340726 0.00024002358559056808 -0.02085844354815916 0.0007619545579877873 0.25802638223384755 -0.0004304253560635701 9.368869629065218 7.73815433483581 5.824388939234859 -0.2810214933546443 -0.5532357259316001 0.3392989483351382 -0.6489945192432651 -0.13264736553599815 0.3918527646203065 -1.2419970528058109 -1.2407111308493448 1.1871564244766717 -0.10129534417129352 0.00027922690682230164 -0.018246292508815553 0.0009005462915373122 0.27042929966901724 -0.0005484812163807978 0 33.5 34.5625 33.5625 36.8125 38.875 39.5 1.061665 7 253 253 253 253 253 253 1 -0.3064578175544739 -9.327810287475586 -0.38307225704193115 1.0 1.0 1.007468183931612 47.76569747924805 47.8122673034668 0.5673302412033081 47.6995964050293 47.71392822265625 47.7282600402832 47.65659713745117 47.584930419921875 47.65659713745117 0 2
24991.163 -0.0006067179089974672 -1.4444185836346692 1.5701397265152746 -0.08448605595634007 1.5699769244559922 3.139878140596636 -4.485669384978196e-05 0.16812482302027046 8.97392995570728e-05 -0.437836304232081 -2.077377472719542e-05 -0.00013444109374446153 0.00020027419371211955 0.10608957578268907 0.0068123372225281625 0.014669524988353277 -0.004596333115114426 5.109641376677132e-06 -0.006149017347862274 -2.2953005322377256 -2.6023503395307945 -0.552185346626567 -0.0009305365822228986 0.007854322887596337 -0.029451766105272278 -32.48181655061675 -26.735478338995634 -2.224019229091938 -0.004520818330726445 0.0810390344184444 -0.0006106535540979507 -1.4445838344148179 1.5701540152179163 -0.08436234415087895 1.5700044631958008 3.139885425567627 -7.0134587986103725e-06 0.1677909642457962 -0.0 -0.42797988653182983 -9.137893357547e-05 1.048456475120756e-22 -0.40844976902008057 -2.1779510974884033 -2.669796943664551 -0.6903818249702454 -0.18790271878242493 0.15456856787204742 -0.006149017347862274 -2.2953005322377256 -2.6023503395307945 -0.552185346626567 -0.0009305365822228986 0.007854322887596337 -0.6497469984692764 -0.13263698029670545 0.39177763669944077 -1.2404111758716228 -1.2390804316159398 1.1881959658380836 -0.09978402292706137 0.00024258504379363684 -0.020529935930752287 0.000764161010189988 0.2601879156628159 -0.000430835906484494 10.17632981689148 8.01483566118564 6.848413013539013 -0.2805762637569709 -0.5413441504767632 0.3326716971643842 -0.649804828362899 -0.13264503494245514 0.3917043592195032 -1.2404111096209034 -1.2391270728476362 1.1882007727870199 -0.10125054479973568 0.00029175768366081293 -0.018773769482609032 0.0009200711800001634 0.2696204396157385 -0.0005452116675638761 0 33.5 34.5625 33.5625 36.8125 38.875 39.5 1.026746 7 253 253 253 253 253 253 1 -0.17238251864910126 -9.155426979064941 -0.5363011956214905 1.0 1.0 1.0114822807843231 47.782711029052734 47.852569580078125 0.6859408020973206 47.7282600402832 47.6995964050293 47.742591857910156 47.670928955078125 47.599266052246094 47.670928955078125 0 2
24991.171 -0.0006069990986183882 -1.4430699416638904 1.5701407204761362 -0.08798507006363998 1.5699766061723341 3.139877131094094 -3.457326930391721e-05 0.16888865194529534 0.00014075556932636289 -0.4370052610643908 -4.440841620514523e-05 -0.0001221416861347795 -0.0014775437282473964 0.11153564727825471 0.003948231468964286 0.11416188300159003 0.0002583937296130032 0.0007509767535829272 -0.005830544367266531 -2.298178562132871 -2.598418596145798 -0.5496342340999664 -0.0011597360807136907 0.008072814290799256 -0.033574693865709875 -32.52316627929642 -26.72527139395475 -2.2050380585331717 -0.0030367252431585923 0.08111668960390728 -0.0005868116961877945 -1.44324146330867 1.570141617451803 -0.08786828935656743 1.5699563026428223 3.139885425567627 -2.272271319670935e-13 0.16770485043525696 -0.0 -0.4225493371486664 -8.648257062304765e-05 1.9055179758716477e-27 -0.4702298045158386 -2.069451332092285 -2.581035852432251 -0.7537966966629028 -0.18221759796142578 0.15375958383083344 -0.005830544367266531 -2.298178562132871 -2.598418596145798 -0.5496342340999664 -0.0011597360807136907 0.008072814290799256 -0.6505553751686839 -0.1326606165447185 0.3916377571214291 -1.2387799967865363 -1.237537046298995 1.1893010612401034 -0.09877161048360009 0.00023347332630365873 -0.02160153657755126 0.0007481731594001944 0.2548435040594866 -0.00042143840085982943 9.868913263065084 7.19029789820613 7.0550066356839505 -0.2881956417235735 -0.5434024075128507 0.31043525724846577 -0.6506141961431297 -0.13264278853270423 0.39155086881026746 -1.238832306456453 -1.2375504751831847 1.1892387810520524 -0.10107505885913294 0.00027901576556029823 -0.019474753630460726 0.0009054573788520355 0.26797460526629485 -0.0005102757350516284 0 33.5 34.5625 33.5625 36.8125 38.875 39.5 1.149362 7 253 253 253 253 253 253 1 -0.24899697303771973 -9.174580574035645 -0.5554547905921936 1.0 1.0 1.015223196153311 47.751365661621094 47.83824157714844 0.6008995771408081 47.670928955078125 47.670928955078125 47.6995964050293 47.6279296875 47.570594787597656 47.6279296875 0 2
24991.179 -0.000607461383289376 -1.441714600037443 1.5701418649991088 -0.09147417523407597 1.569976402098205 3.139876146299912 -7.401003136230687e-05 0.1697385056565233 0.00013568863646691473 -0.43542755876153105 -1.0380120424105821e-05 -0.0001226198311625097 -0.0043156409846291455 0.12496469624416473 -0.004423202023251529 0.20479737299813894 0.00447704479769051 0.0010727182026659648 -0.009873067506455746 -2.2980334130094344 -2.5987042965730778 -0.5472799521933863 -0.0003717865455785045 0.008062450449115683 -0.045878407963154524 -32.53349583922251 -26.725184782814075 -2.1890991893024556 -0.0015144502508965929 0.0810987212506907 -0.0005982557879846695 -1.441874013548233 1.570141617451803 -0.09130247056994634 1.5699563026428223 3.1398730278015137 -7.361870293217867e-21 0.16978177428245544 -0.0 -0.41916388273239136 -8.127594628604129e-05 3.4631844449166086e-32 -0.453805148601532 -2.2539031505584717 -2.6131434440612793 -0.7191071510314941 -0.1716577112674713 0.16793210804462433 -0.009873067506455746 -2.2980334130094344 -2.5987042965730778 -0.5472799521933863 -0.0003717865455785045 0.008062450449115683 -0.6513598036688965 -0.13265068377743744 0.3914592451136733 -1.2372585113546741 -1.2360176621819883 1.1902809325310004 -0.0985541442039379 0.00023393490849825835 -0.023666718366893026 0.0007440707074031045 0.24938111747722339 -0.00042187476873236724 9.558196150684457 7.789255700576193 5.5717065442912075 -0.2777413578817349 -0.5496726312769405 0.3511885398018011 -0.651421916959301 -0.13264040712319342 0.39139085240925153 -1.2372656254209033 -1.235985618988244 1.1902669241042712 -0.10083095693877006 0.0003110071225218414 -0.020356144097521057 0.000904430610815527 0.2655520631712146 -0.0005812748833339469 0 33.5625 34.5625 33.5625 36.75 38.875 39.5 1.026974 7 253 253 253 253 253 253 1 -0.28730422258377075 -9.117119789123535 -0.19153612852096558 1.0 1.0 1.0193274710134173 47.78361129760742 47.86241912841797 0.6434228420257568 47.7282600402832 47.742591857910156 47.77125930786133 47.68526077270508 47.6279296875 47.68526077270508 0 2
24991.186999999998 -0.0006080965010610839 -1.4403516731937582 1.5701425806127591 -0.0949474867669835 1.5699764232405575 3.1398753133996724 -7.675097656538109e-05 0.17070714453481783 5.144435143281418e-05 -0.4331190915798445 7.64723120103561e-06 -8.735901785259478e-05 0.0015729508114653934 0.08942376962840781 -0.01313024385739204 0.39550300459598176 0.0012327644131131354 0.0059630488344134995 -0.005649227477909218 -2.3188046184782296 -2.606779649049595 -0.5415232474238101 -0.00025468513881589464 0.00878885991912862 -0.0018391732374361076 -32.76848662114494 -26.758659062672397 -2.147110277505882 -0.003117702077713266 0.08212101539802563 -0.0006106535540979507 -1.4405554395965119 1.5701664129840296 -0.09469004095111089 1.5699925422668457 3.1398611068725586 -2.385152532186817e-28 0.17144480347633362 -0.0 -0.41716328263282776 -7.666060264455155e-05 -0.00016755989054217935 -0.385242223739624 -2.231647491455078 -2.6290078163146973 -0.7825167179107666 -0.17111673951148987 0.15655648708343506 -0.005649227477909218 -2.3188046184782296 -2.606779649049595 -0.5415232474238101 -0.00025468513881589464 0.00878885991912862 -0.6521400692404349 -0.13263247443669465 0.3912880327442029 -1.235770771379574 -1.234487002886729 1.1912209779674006 -0.09844368556950771 0.00024088305387242456 -0.025177234816035704 0.0009105346861430038 0.2457172765154446 -0.00041743678584416554 9.953357944230804 7.3698227573804145 6.087710617517114 -0.28164062181634586 -0.540915116615652 0.33479639421690816 -0.6522274761350215 -0.13263787920580064 0.39122282970497346 -1.2357157622275208 -1.2344369201772212 1.1912822637065519 -0.10052222148158431 0.00031417007582348536 -0.021423302829701493 0.0008656273239237152 0.2623592183789858 -0.0006000160007108922 0 33.5625 34.5625 33.5625 36.75 38.875 39.5 1.050841 7 253 253 253 253 253 253 1 -0.28730422258377075 -9.53849983215332 -0.3447650372982025 1.0 1.0 1.0237281458289322 47.77196502685547 47.81584930419922 0.5852327942848206 47.71392822265625 47.71392822265625 47.742591857910156 47.65659713745117 47.599266052246094 47.65659713745117 0 2
