UthiraS/rtde-2.8/rtde/Verfied/case3/robot_data_record.csv
timestamp target_q_0 target_q_1 target_q_2 target_q_3 target_q_4 target_q_5 target_qd_0 target_qd_1 target_qd_2 target_qd_3 target_qd_4 target_qd_5 target_qdd_0 target_qdd_1 target_qdd_2 target_qdd_3 target_qdd_4 target_qdd_5 target_current_0 target_current_1 target_current_2 target_current_3 target_current_4 target_current_5 target_moment_0 target_moment_1 target_moment_2 target_moment_3 target_moment_4 target_moment_5 actual_q_0 actual_q_1 actual_q_2 actual_q_3 actual_q_4 actual_q_5 actual_qd_0 actual_qd_1 actual_qd_2 actual_qd_3 actual_qd_4 actual_qd_5 actual_current_0 actual_current_1 actual_current_2 actual_current_3 actual_current_4 actual_current_5 joint_control_output_0 joint_control_output_1 joint_control_output_2 joint_control_output_3 joint_control_output_4 joint_control_output_5 actual_TCP_pose_0 actual_TCP_pose_1 actual_TCP_pose_2 actual_TCP_pose_3 actual_TCP_pose_4 actual_TCP_pose_5 actual_TCP_speed_0 actual_TCP_speed_1 actual_TCP_speed_2 actual_TCP_speed_3 actual_TCP_speed_4 actual_TCP_speed_5 actual_TCP_force_0 actual_TCP_force_1 actual_TCP_force_2 actual_TCP_force_3 actual_TCP_force_4 actual_TCP_force_5 target_TCP_pose_0 target_TCP_pose_1 target_TCP_pose_2 target_TCP_pose_3 target_TCP_pose_4 target_TCP_pose_5 target_TCP_speed_0 target_TCP_speed_1 target_TCP_speed_2 target_TCP_speed_3 target_TCP_speed_4 target_TCP_speed_5 actual_digital_input_bits joint_temperatures_0 joint_temperatures_1 joint_temperatures_2 joint_temperatures_3 joint_temperatures_4 joint_temperatures_5 actual_execution_time robot_mode joint_mode_0 joint_mode_1 joint_mode_2 joint_mode_3 joint_mode_4 joint_mode_5 safety_mode actual_tool_accelerometer_0 actual_tool_accelerometer_1 actual_tool_accelerometer_2 speed_scaling target_speed_fraction actual_momentum actual_main_voltage actual_robot_voltage actual_robot_current actual_joint_voltage_0 actual_joint_voltage_1 actual_joint_voltage_2 actual_joint_voltage_3 actual_joint_voltage_4 actual_joint_voltage_5 actual_digital_output_bits runtime_state
24575.592999999997 -3.511110414677887e-05 -1.5698172611049195 1.5700939337359827 -9.850864746141497e-06 1.570040225982666 3.139897346496582 0.0 0.0 -0.0 0.0 -0.0 -0.0 0.0 0.0 0.0 0.0 0.0 0.0 -1.807938275141258e-19 -2.709778674208245 -2.718279096380965 -0.2947250026248689 -2.787410969591158e-06 0.0102155454269879 -1.801845873963035e-18 -27.278249992946932 -27.230973468797046 -2.379694855951733 -2.2271085832650443e-05 0.08167167346239507 -3.511110414677887e-05 -1.5698291820338746 1.5700462500201624 2.0700642089366283e-06 1.5700163841247559 3.1398611068725586 0.0 0.0 -0.0 0.0 -0.0 -0.0 0.029363218694925308 -2.738611936569214 -2.717136859893799 -0.2844274044036865 -0.001559325261041522 0.008630067110061646 -1.807938275141258e-19 -2.709778674208245 -2.718279096380965 -0.2947250026248689 -2.787410969591158e-06 0.0102155454269879 -0.6053616414855656 -0.1330502553412215 0.45283629901147865 -1.2100347300356538 -1.209423732049655 1.2084300995994588 0.0 0.0 0.0 0.0 0.0 0.0 8.637897617296785 6.520969685373024 4.94572639518869 -0.2893992920343693 -0.5165619986511072 0.32793721880540916 -0.6053602912620897 -0.13304646702261108 0.452802770013134 -1.2101078614318161 -1.2094241370887902 1.208416675500387 0.0 0.0 0.0 0.0 0.0 0.0 0 33.125 34.125 33.0625 36.1875 38.375 39.0 0.914462 7 253 253 253 253 253 253 1 -0.2298433631658554 -9.366117477416992 -0.05746084079146385 1.0 1.0 0.24056162723269997 47.7639045715332 47.826595306396484 0.6277561187744141 47.71392822265625 47.68526077270508 47.7282600402832 47.670928955078125 47.584930419921875 47.68526077270508 0 2
24575.601 -2.3190175191700746e-05 -1.5698291820338746 1.5700700918780726 2.591192211909288e-05 1.5699687004089355 3.1399097442626953 0.0 0.0 -0.0 0.0 -0.0 -0.0 0.0 0.0 0.0 0.0 0.0 0.0 -4.238675878399593e-19 -2.7097209212748297 -2.718278522879902 -0.294724262599699 -2.7930567867953035e-06 0.010215393735891087 -4.224392363154224e-18 -27.277668617438106 -27.230967723620893 -2.3796888807746206 -2.2316195248133377e-05 0.08167046071601608 -4.7032033101856996e-05 -1.569865183239319 1.5701053778277796 1.3990993164014753e-05 1.570028305053711 3.139885425567627 0.0 0.0 -0.0 0.0 -0.0 -0.0 0.009421933442354202 -2.7253775596618652 -2.7083702087402344 -0.2957478165626526 0.012359029613435268 0.0013018781319260597 -4.238675878399593e-19 -2.7097209212748297 -2.718278522879902 -0.294724262599699 -2.7930567867953035e-06 0.010215393735891087 -0.6053432116765072 -0.13304138620175257 0.45281979928892013 -1.2100897816557534 -1.2094204649770104 1.2084139547345614 0.0 0.0 0.0 0.0 0.0 0.0 8.90441207491165 6.660955214932752 5.4945898823289046 -0.2903551170227409 -0.5341644706518314 0.3351688904151538 -0.6053536280328728 -0.13306932219301698 0.45281683996553534 -1.2100774438014459 -1.2094796757277246 1.2084873405338183 0.0 0.0 0.0 0.0 0.0 0.0 0 33.125 34.125 33.0625 36.1875 38.375 39.0 0.881761 7 253 253 253 253 253 253 1 -0.19153612852096558 -9.481039047241211 -0.05746084079146385 1.0 1.0 0.08367276196069415 47.76301193237305 47.845401763916016 0.6299919486045837 47.71392822265625 47.6995964050293 47.7282600402832 47.670928955078125 47.584930419921875 47.68526077270508 0 2
24575.609 -4.7032033101856996e-05 -1.569865183239319 1.5700700918780726 4.975378002924913e-05 1.5700044631958008 3.1398730278015137 0.0 0.0 -0.0 0.0 -0.0 -0.0 0.0 0.0 0.0 0.0 0.0 0.0 2.0702642759888218e-19 -2.7095526000825485 -2.7182829133005075 -0.29472968507047803 -2.663169431685981e-06 0.010215842546459943 2.0632878870889952e-18 -27.275974195821366 -27.231011705648783 -2.3797326633709543 -2.1278410556254966e-05 0.0816740488856824 -4.7032033101856996e-05 -1.5698531431010743 1.5700700918780726 2.591192211909288e-05 1.5700044631958008 3.1398730278015137 0.0 0.0 -0.0 0.0 -0.0 -0.0 -0.006200279109179974 -2.7193450927734375 -2.726349353790283 -0.30228590965270996 -0.0027795745991170406 0.008612620644271374 2.0702642759888218e-19 -2.7095526000825485 -2.7182829133005075 -0.29472968507047803 -2.663169431685981e-06 0.010215842546459943 -0.6053498489259723 -0.13304601024637994 0.4528313264012231 -1.2100609868933498 -1.2094355438855815 1.208427738516005 0.0 0.0 0.0 0.0 0.0 0.0 8.655960532445558 6.04196526544072 5.293167908298979 -0.29449161612524327 -0.5240219394259137 0.3186694914521886 -0.6053431424725494 -0.1330460217481286 0.4528335504878412 -1.2100696815193883 -1.209444244090857 1.2084221995751234 0.0 0.0 0.0 0.0 0.0 0.0 0 33.125 34.125 33.0625 36.1875 38.375 39.0 0.976466 7 253 253 253 253 253 253 1 -0.19153612852096558 -9.442731857299805 -0.05746084079146385 1.0 1.0 0.02424257068498542 47.78361129760742 47.85973358154297 0.6971306204795837 47.71392822265625 47.7282600402832 47.7282600402832 47.68526077270508 47.599266052246094 47.65659713745117 0 2
24575.617 -2.3190175191700746e-05 -1.5698531431010743 1.5700576941119593 2.0700642089366283e-06 1.5700044631958008 3.139897346496582 0.0 0.0 -0.0 0.0 -0.0 -0.0 0.0 0.0 0.0 0.0 0.0 0.0 -5.286068443663545e-20 -2.7096263661845823 -2.7182990034769485 -0.29474964783730445 -2.1606855937697108e-06 0.010215546038363041 -5.268255418707355e-19 -27.276716769446082 -27.23117289261754 -2.379893848520176 -1.7263623786080817e-05 0.08167167835024283 -3.511110414677887e-05 -1.5698291820338746 1.5700939337359827 3.7832851074171e-05 1.5700044631958008 3.1398611068725586 0.0 0.0 -0.0 0.0 -0.0 -0.0 0.028890222311019897 -2.733977794647217 -2.7274374961853027 -0.293537974357605 0.004995105788111687 0.003381558693945408 -5.286068443663545e-20 -2.7096263661845823 -2.7182990034769485 -0.29474964783730445 -2.1606855937697108e-06 0.010215546038363041 -0.6053504027420734 -0.13305282623819725 0.4527998611042162 -1.2100905590785407 -1.2094939428345777 1.2083995274467927 0.0 0.0 0.0 0.0 0.0 0.0 8.547586445399018 6.013677434752628 5.315382019454332 -0.3018164004809374 -0.5259783263774946 0.32095082944166026 -0.6053515570448396 -0.13306127419331829 0.4528438973643513 -1.2100409277891955 -1.2094149098264495 1.2084802805849137 0.0 0.0 0.0 0.0 0.0 0.0 0 33.125 34.125 33.0625 36.1875 38.375 39.0 0.883909 7 253 253 253 253 253 253 1 -0.26815059781074524 -9.385271072387695 -0.019153613597154617 1.0 1.0 0.09262242992382176 47.80331039428711 47.868690490722656 0.6322330832481384 47.742591857910156 47.75692367553711 47.78559112548828 47.7282600402832 47.64226531982422 47.7282600402832 0 2
24575.625 -7.087389101201325e-05 -1.5698412221721192 1.5701053778277796 -3.416955981450087e-05 1.5700044631958008 3.1398611068725586 0.0 0.0 -0.0 0.0 -0.0 -0.0 0.0 0.0 0.0 0.0 0.0 0.0 3.2797730216515265e-19 -2.7096757263401052 -2.7182911432544614 -0.2947399386958979 -2.4051348562100543e-06 0.010215988474454887 3.268720822969659e-18 -27.277213658241784 -27.23109415106731 -2.379815454106213 -1.9216744644443336e-05 0.08167521555697149 -1.0792409078419496e-05 -1.5698412221721192 1.5700576941119593 -2.177179370121962e-05 1.5700163841247559 3.139885425567627 0.0 0.0 -0.0 0.0 -0.0 -0.0 -0.04286327213048935 -2.69425892829895 -2.7137985229492188 -0.292446494102478 -0.01793157309293747 0.006208846345543861 3.2797730216515265e-19 -2.7096757263401052 -2.7182911432544614 -0.2947399386958979 -2.4051348562100543e-06 0.010215988474454887 -0.6053565806370127 -0.1330658190111399 0.45284173835619457 -1.2100231532950678 -1.2094121311044936 1.208477439763151 0.0 0.0 0.0 0.0 0.0 0.0 8.627902308464565 6.433948748500373 5.50355850234663 -0.28786780033619136 -0.5283439010174192 0.33012760421832216 -0.6053598218733426 -0.13303114908645697 0.4528155277096235 -1.210054016250941 -1.2094141025424718 1.2084074349489895 0.0 0.0 0.0 0.0 0.0 0.0 0 33.125 34.125 33.0625 36.1875 38.375 39.0 0.892393 7 253 253 253 253 253 253 1 -0.2106897532939911 -9.385271072387695 0.0 1.0 1.0 0.06673702192838064 47.78450393676758 47.86779022216797 0.6478998064994812 47.7282600402832 47.71392822265625 47.77125930786133 47.68526077270508 47.61359786987305 47.68526077270508 0 2
24575.632999999998 -2.3190175191700746e-05 -1.5698412221721192 1.5700824896441858 2.591192211909288e-05 1.5700044631958008 3.1398611068725586 0.0 0.0 -0.0 0.0 -0.0 -0.0 0.0 0.0 0.0 0.0 0.0 0.0 -2.360502419340763e-19 -2.7096633443395173 -2.7182787008480362 -0.2947244836691419 -2.7941124670341253e-06 0.010215988020212632 -2.3525479842151137e-18 -27.27708901363126 -27.230969506456788 -2.3796906657531984 -2.232463000908794e-05 0.08167521192537636 -1.0792409078419496e-05 -1.5698412221721192 1.5700700918780726 3.7832851074171e-05 1.5700163841247559 3.1398611068725586 0.0 0.0 -0.0 0.0 -0.0 -0.0 0.0634169727563858 -2.690138339996338 -2.7419188022613525 -0.2927398979663849 -0.007549125235527754 0.0013779143337160349 -2.360502419340763e-19 -2.7096633443395173 -2.7182787008480362 -0.2947244836691419 -2.7941124670341253e-06 0.010215988020212632 -0.6053468838584718 -0.13306500405916855 0.4528215684594074 -1.210058273828565 -1.2094766806048938 1.2084255924282314 0.0 0.0 0.0 0.0 0.0 0.0 8.533157549216556 6.291642304510801 5.600717697642468 -0.29776353869024486 -0.5335300462544074 0.3275926623033569 -0.6053484680020718 -0.13306003240176914 0.4528166064723621 -1.2100588444724867 -1.2094766545535547 1.2084250212434846 0.0 0.0 0.0 0.0 0.0 0.0 0 33.125 34.125 33.0625 36.1875 38.375 39.0 0.889597 7 253 253 253 253 253 253 1 -0.28730422258377075 -9.500192642211914 -0.038307227194309235 1.0 1.0 0.03808763358394939 47.79793930053711 47.86421203613281 0.6456586718559265 47.7282600402832 47.71392822265625 47.77125930786133 47.68526077270508 47.599266052246094 47.670928955078125 0 2
24575.641 -3.511110414677887e-05 -1.5698531431010743 1.5700824896441858 2.591192211909288e-05 1.570040225982666 3.139885425567627 0.0 0.0 -0.0 0.0 -0.0 -0.0 0.0 0.0 0.0 0.0 0.0 0.0 -1.4886094212695895e-19 -2.7096104391843245 -2.718282998776502 -0.29472980745146876 -2.666644360372038e-06 0.010215691195793226 -1.483593096366933e-18 -27.276556438752362 -27.23101256192382 -2.3797336515104455 -2.130617482778643e-05 0.0816728388609883 -4.7032033101856996e-05 -1.5698291820338746 1.5700576941119593 2.591192211909288e-05 1.5700044631958008 3.1398611068725586 0.0 0.0 -0.0 0.0 -0.0 -0.0 0.027901554480195045 -2.701465606689453 -2.70906400680542 -0.2934756875038147 -0.006041583605110645 0.018645143136382103 -1.4886094212695895e-19 -2.7096104391843245 -2.718282998776502 -0.29472980745146876 -2.666644360372038e-06 0.010215691195793226 -0.6053584741624517 -0.13304558834336827 0.45282431495101066 -1.2100607093949411 -1.2094497043661343 1.2084134733983163 0.0 0.0 0.0 0.0 0.0 0.0 8.653796866405093 6.424858362618001 5.1657931239668935 -0.2904608575451276 -0.5204971309911861 0.33038869623826694 -0.6053465989155705 -0.13304606413322534 0.45282381684296474 -1.2100905689687453 -1.2094212841918455 1.208413427310851 0.0 0.0 0.0 0.0 0.0 0.0 0 33.125 34.125 33.0625 36.1875 38.375 39.0 0.913477 7 253 253 253 253 253 253 1 -0.28730422258377075 -9.327810287475586 0.09576806426048279 1.0 1.0 0.035226118067255 47.780921936035156 47.86421203613281 0.6478998064994812 47.7282600402832 47.71392822265625 47.77125930786133 47.68526077270508 47.584930419921875 47.71392822265625 0 2
24575.648999999998 -7.087389101201325e-05 -1.5698531431010743 1.5700700918780726 2.591192211909288e-05 1.5700044631958008 3.139897346496582 0.0 0.0 -0.0 0.0 -0.0 -0.0 0.0 0.0 0.0 0.0 0.0 0.0 -6.348024623691823e-19 -2.7096142815228252 -2.7182868598599272 -0.29473458936122904 -2.5396733680890367e-06 0.01021554560458782 -6.3266330124689535e-18 -27.276595118025757 -27.231051241197214 -2.3797722620319717 -2.0291691531910514e-05 0.0816716748822784 -2.3190175191700746e-05 -1.5698291820338746 1.5700576941119593 2.0700642089366283e-06 1.5700163841247559 3.1398611068725586 0.0 0.0 -0.0 0.0 -0.0 -0.0 -0.027618609368801117 -2.721129894256592 -2.7235777378082275 -0.28636056184768677 0.004004578106105328 0.01677369698882103 -6.348024623691823e-19 -2.7096142815228252 -2.7182868598599272 -0.29473458936122904 -2.5396733680890367e-06 0.01021554560458782 -0.6053585146111666 -0.13305747682426342 0.45282937652894334 -1.2100375266828718 -1.2094409379152746 1.2084334745865233 0.0 0.0 0.0 0.0 0.0 0.0 8.626540792278824 6.238999362268222 5.596981184836367 -0.2968667423881394 -0.5317886886007455 0.3250100602984308 -0.6053530212786338 -0.13303242529295783 0.45283133200737946 -1.210090172939083 -1.209406467750563 1.2084280895427981 0.0 0.0 0.0 0.0 0.0 0.0 0 33.125 34.125 33.0625 36.1875 38.375 39.0 0.880105 7 253 253 253 253 253 253 1 -0.19153612852096558 -9.366117477416992 -0.019153613597154617 1.0 1.0 0.04800725527200777 47.78898239135742 47.870479583740234 0.6478998064994812 47.71392822265625 47.71392822265625 47.75692367553711 47.68526077270508 47.61359786987305 47.68526077270508 0 2
24575.657 -3.511110414677887e-05 -1.5698172611049195 1.5700338522540491 3.7832851074171e-05 1.5700163841247559 3.1398611068725586 0.0 0.0 -0.0 0.0 -0.0 -0.0 0.0 0.0 0.0 0.0 0.0 0.0 -2.0514710960088449e-19 -2.7097826448025093 -2.7182830863458527 -0.29472990734475774 -2.6598094201400334e-06 0.010215988214637777 -2.044558036478957e-18 -27.278289963319416 -27.23101343916953 -2.3797344580777327 -2.1251564459158105e-05 0.0816752134797747 -3.511110414677887e-05 -1.5698772233775635 1.5700700918780726 2.0700642089366283e-06 1.5699925422668457 3.1398491859436035 0.0 0.0 -0.0 0.0 -0.0 -0.0 0.032355666160583496 -2.6983211040496826 -2.74068284034729 -0.290788859128952 -0.011623846367001534 0.009049950167536736 -2.0514710960088449e-19 -2.7097826448025093 -2.7182830863458527 -0.29472990734475774 -2.6598094201400334e-06 0.010215988214637777 -0.6053444803435734 -0.13305491855476587 0.4528509713661887 -1.2099968526576497 -1.209429079861962 1.2084503834901446 0.0 0.0 0.0 0.0 0.0 0.0 8.77637849807224 6.374726079886663 5.563513982226078 -0.29244689559519615 -0.5280044735041536 0.32863130014968067 -0.6053619551430538 -0.1330502660415325 0.4528289813709601 -1.2100607061014446 -1.2094497339004358 1.2084134524833554 0.0 0.0 0.0 0.0 0.0 0.0 0 33.125 34.125 33.0625 36.1875 38.375 39.0 0.879506 7 253 253 253 253 253 253 1 -0.26815059781074524 -9.346963882446289 0.0 1.0 1.0 0.0865499387975672 47.76927947998047 47.84450912475586 0.6389458775520325 47.71392822265625 47.6995964050293 47.742591857910156 47.68526077270508 47.599266052246094 47.670928955078125 0 2
24575.664999999997 -3.511110414677887e-05 -1.569865183239319 1.5700824896441858 -9.850864746141497e-06 1.5700044631958008 3.139897346496582 0.0 0.0 5.45109969607438e-07 0.0 -0.0 -0.0 0.0 0.0 0.0 0.0 0.0 0.0 8.925228620981727e-15 -2.7095683273886935 -2.7182981902415144 -0.2947493011004283 -2.1694122861322848e-06 0.010215546028525728 -1.6271494644948984e-18 -27.276132516274572 -27.23117002610199 -2.3798910488664595 -1.7333349030478668e-05 0.08167167827159486 -2.3190175191700746e-05 -1.5698772233775635 1.5701053778277796 3.7832851074171e-05 1.5700163841247559 3.1398730278015137 0.0 0.0 7.3133459288499125e-09 0.0 -0.0 -0.0 -0.011420373804867268 -2.72774076461792 -2.732436180114746 -0.29020991921424866 0.0030265788082033396 0.014654679223895073 -1.632651182182233e-19 -2.7095683273886584 -2.7182987173325945 -0.29474930110043324 -2.1694122859728838e-06 0.010215546028525702 -0.6053333312436966 -0.1330579311867872 0.45282202484245615 -1.2100724194583123 -1.2094613659101847 1.2084256277361145 9.84694644647422e-10 -3.207986977092511e-12 -4.423771389859634e-09 -1.034681815395644e-11 -7.313337994143709e-09 3.0002989416160574e-12 8.752955321796767 6.640427072551783 5.155811541740227 -0.28432034518503463 -0.5180381837535941 0.33913873453253424 -0.605347914926973 -0.13305406362260036 0.452838721699608 -1.2100471963838844 -1.209406728011396 1.2084711201630038 7.338641801890403e-08 -2.399701624393451e-10 -3.297359800478929e-07 -7.777150027117358e-10 -5.451093689507959e-07 2.2362214009840528e-10 0 33.125 34.125 33.0625 36.1875 38.375 39.0 0.874682 7 253 253 253 253 253 253 1 -0.24899697303771973 -9.404424667358398 -0.05746084079146385 1.0 1.0 0.0922298479967333 47.754947662353516 47.83107376098633 0.6590895652770996 47.68526077270508 47.71392822265625 47.77125930786133 47.68526077270508 47.584930419921875 47.64226531982422 0 2
24575.673 -4.7032033101856996e-05 -1.5698412221721192 1.5700576941119593 2.0700642089366283e-06 1.5700163841247559 3.1398730278015137 0.0 0.0 1.766086903727971e-14 0.0 -0.0 -0.0 0.0 0.0 0.0 0.0 0.0 0.0 2.229659790222562e-20 -2.7096796678503106 -2.718295103993386 -0.2947448174936048 -2.2846413640662967e-06 0.010215843015006432 2.222146269368579e-19 -27.277253335836768 -27.231133828662294 -2.379854846929024 -1.8254015812891447e-05 0.08167405263163764 -3.511110414677887e-05 -1.5698772233775635 1.5700824896441858 1.3990993164014753e-05 1.5700044631958008 3.1398730278015137 0.0 0.0 2.369431203738464e-16 0.0 -0.0 -0.0 -0.005650795064866543 -2.6635284423828125 -2.7151360511779785 -0.2924637496471405 -0.0058029815554618835 0.0004497763584367931 2.229659790222562e-20 -2.7096796678503106 -2.718295103993403 -0.2947448174936048 -2.2846413640662967e-06 0.010215843015006432 -0.6053412081336426 -0.13305322729484623 0.45284094006220343 -1.2100379798056613 -1.209426937715678 1.2084476787012801 3.1898373131825343e-17 -1.043092329263995e-19 -1.4332606468108464e-16 -3.380483470682447e-19 -2.369428592864277e-16 9.720587542242142e-20 8.587786922148764 6.7260591803752705 4.843746201181385 -0.29018756948071 -0.5136924030952355 0.34058740345200306 -0.6053581915077793 -0.13304345991134922 0.45283666944166034 -1.2100487179050052 -1.2094088645773122 1.2084303971963561 2.3776623954537434e-15 -7.802781495887912e-18 -1.0682999706870715e-14 -2.5407698908056764e-17 -1.7660849275112356e-14 7.244483740558343e-18 0 33.125 34.125 33.0625 36.1875 38.375 39.0 0.928802 7 253 253 253 253 253 253 1 -0.24899697303771973 -9.404424667358398 -0.09576806426048279 1.0 1.0 0.06926064726202784 47.780921936035156 47.85973358154297 0.6702793836593628 47.742591857910156 47.7282600402832 47.78559112548828 47.65659713745117 47.61359786987305 47.68526077270508 0 2
24575.681 -3.511110414677887e-05 -1.5698291820338746 1.5700700918780726 2.591192211909288e-05 1.5700163841247559 3.1398491859436035 0.0 0.0 0.00010345486953156069 0.0 -0.0 -0.0 0.0 0.0 0.0 0.0 0.0 0.0 3.2146534820975233e-10 -2.709721317861437 -2.7181788850286375 -0.29472475530294284 -2.7894692067847943e-06 0.010216133691291216 -1.567306255899137e-18 -27.277672597100477 -27.230971703283263 -2.3796928604369834 -2.2287485060887336e-05 0.08167637653436047 -2.3190175191700746e-05 -1.5698412221721192 1.5700939337359827 1.3990993164014753e-05 1.5700044631958008 3.1398491859436035 0.0 0.0 9.401119314134121e-05 0.0 -0.0 -0.0 -0.0011938046663999557 -2.7060298919677734 -2.725238800048828 -0.280953049659729 0.0023529238533228636 0.0012621957575902343 -1.5726056317325842e-19 -2.709721316608263 -2.7182789201419766 -0.29472475548053934 -2.7894634689180352e-06 0.010216133690253143 -0.6053485323679534 -0.1330596163618298 0.4528122142517513 -1.2100497192025148 -1.2094819364632257 1.208416463562155 1.2658918436741112e-05 -4.12365058706571e-08 -5.6866441406794865e-05 -1.3300721665939144e-07 -9.401109114251182e-05 3.8563366202722265e-08 8.632152524838753 6.622961678362237 5.377485185594438 -0.29537353747795286 -0.5253444424899297 0.3344287349144918 -0.6053552202849564 -0.13304986130340168 0.4528168085530547 -1.2100610790306252 -1.2094644878004954 1.208398834948522 1.393006404145056e-05 -4.554323504867996e-08 -6.257882675395948e-05 -1.4760198182619285e-07 -0.00010345475553439678 4.2435426269075056e-08 0 33.125 34.125 33.0625 36.1875 38.375 39.0 0.893857 7 253 253 253 253 253 253 1 -0.1149216815829277 -9.385271072387695 0.0 1.0 1.0 0.06322428763997122 47.77913284301758 47.86063003540039 0.6120893359184265 47.7282600402832 47.7282600402832 47.75692367553711 47.65659713745117 47.61359786987305 47.6995964050293 0 2
24575.689 -3.511110414677887e-05 -1.5698531431010743 1.5700576941119593 -2.177179370121962e-05 1.5700163841247559 3.139885425567627 0.0 0.0 7.158521475503221e-05 0.0 -0.0 -0.0 0.0 0.0 0.0 0.0 0.0 0.0 1.5391620190729933e-10 -2.7096344116308817 -2.7182378686436164 -0.2947596776416625 -1.9107317088269913e-06 0.010215691974697443 -3.617277362306641e-19 -27.276797753671946 -27.231253876843404 -2.379974832746034 -1.5266499692171266e-05 0.0816728450842304 -4.7032033101856996e-05 -1.5698412221721192 1.5700824896441858 2.591192211909288e-05 1.5700163841247559 3.1398491859436035 0.0 0.0 6.6309206886217e-05 0.0 -0.0 -0.0 -0.0022826511412858963 -2.7285139560699463 -2.6975929737091064 -0.2895081341266632 -0.0023300540633499622 -0.0003324440913274884 -3.629508100341746e-20 -2.70963441103087 -2.71830708757018 -0.29475967772669087 -1.9107289617119643e-06 0.01021569197420035 -0.6053516416823629 -0.13304265080818353 0.4528165993706613 -1.2100669900471401 -1.2094559640215103 1.2083899068838369 8.928462725185983e-06 -2.9297930830482e-08 -4.0109779832852724e-05 -9.53953262345548e-08 -6.63091326875102e-05 2.7200018873505577e-08 8.58593403673077 6.867160363410673 5.1092576070603135 -0.2847189393384085 -0.5201372038891373 0.33795675084052684 -0.6053563554173702 -0.13305109787726493 0.45284895634523553 -1.2100258772990677 -1.2093854363270011 1.2084651789161758 9.636556092798117e-06 -3.1511864343300826e-08 -4.33019980075467e-05 -1.021318791616327e-07 -7.158513587523073e-05 2.9365423463172847e-08 0 33.125 34.125 33.0625 36.1875 38.375 39.0 0.873445 7 253 253 253 253 253 253 1 -0.26815059781074524 -9.327810287475586 0.038307227194309235 1.0 1.0 0.07731201653673986 47.77823257446289 47.85883712768555 0.6322330832481384 47.71392822265625 47.742591857910156 47.77125930786133 47.65659713745117 47.599266052246094 47.68526077270508 0 2
24575.697 -3.511110414677887e-05 -1.5698531431010743 1.5700824896441858 2.591192211909288e-05 1.570028305053711 3.1398372650146484 0.0 0.0 5.43042624485679e-05 0.0 -0.0 -0.0 0.0 0.0 0.0 0.0 0.0 0.0 8.857250909277321e-11 -2.70961034020512 -2.7182303898289737 -0.2947296835700107 -2.6677028504973903e-06 0.010216279494017308 -7.065024885251152e-18 -27.276555438892764 -27.23101156206422 -2.379732651650846 -2.1314619411870282e-05 0.0816775422101572 -8.279481996709137e-05 -1.5698531431010743 1.5700824896441858 2.591192211909288e-05 1.5699806213378906 3.1398730278015137 0.0 0.0 5.1213577535236254e-05 0.0 -0.0 -0.0 0.020278513431549072 -2.6955363750457764 -2.743476390838623 -0.3045872151851654 -0.01538604311645031 0.00579180708155036 -7.088913147037055e-19 -2.709610339859837 -2.7182828989674572 -0.29472968361894364 -2.667701270056902e-06 0.010216279493731264 -0.6053529341562685 -0.13302943342121668 0.4528238358177369 -1.210075735747191 -1.2094358523983417 1.2084131358957866 6.895481738395786e-06 -2.2874687162467736e-08 -3.097866509856794e-05 -7.55093585882886e-08 -5.121351756061323e-05 2.1008645382048373e-08 8.693346361397175 6.903362249578621 5.071916720507885 -0.2904038749679636 -0.5208176864089186 0.33901813567421835 -0.60534659636842 -0.13304691861655002 0.4528238101466288 -1.2100494469508134 -1.2094528447988704 1.2083867612719361 7.311619013362355e-06 -2.3906507240556065e-08 -3.284819579661362e-05 -7.747684196154269e-08 -5.430420261066064e-05 2.2276494777790296e-08 0 33.125 34.125 33.0625 36.1875 38.375 39.0 0.877981 7 253 253 253 253 253 253 1 -0.325611412525177 -9.481039047241211 -0.019153613597154617 1.0 1.0 0.08146292021301305 47.77375411987305 47.85525894165039 0.6501356363296509 47.7282600402832 47.7282600402832 47.77125930786133 47.65659713745117 47.61359786987305 47.71392822265625 0 2
24575.704999999998 -3.511110414677887e-05 -1.569865183239319 1.5701053778277796 -9.850864746141497e-06 1.570040225982666 3.1398611068725586 0.0 0.0 4.374515265226364e-05 0.0 -0.0 -0.0 0.0 0.0 0.0 0.0 0.0 0.0 5.74765161968395e-11 -2.7095609827357277 -2.718249037486402 -0.29474015997856995 -2.4064216148035914e-06 0.010215988570973205 -1.5948042210022374e-18 -27.276058578357535 -27.23109608818495 -2.379817241062845 -1.9227017502951942e-05 0.08167521632713587 -2.3190175191700746e-05 -1.5698412221721192 1.5700576941119593 -9.850864746141497e-06 1.5699806213378906 3.1398491859436035 0.0 0.0 4.171726686763577e-05 0.0 -0.0 -0.0 0.013472561724483967 -2.7540159225463867 -2.740849494934082 -0.2989230453968048 0.0011090748012065887 0.021020129323005676 -1.6001965729539051e-19 -2.709560982511665 -2.7182913366234716 -0.29474016001032255 -2.4064205895914937e-06 0.010215988570787541 -0.6053566190228065 -0.13306465619436866 0.4528392100827483 -1.209994151347097 -1.209455230255758 1.2084623776773422 5.616242008859356e-06 -1.8297156757495095e-08 -2.5234699397820457e-05 -5.902166930653767e-08 -4.1717221605872325e-05 1.711241167607182e-08 8.534307658965437 6.829875364327563 5.4636671682929805 -0.2926624125071069 -0.5293982879560774 0.3366378497704811 -0.6053448377888896 -0.1330452103055689 0.4528248552716692 -1.210054325371101 -1.209414425620278 1.2084072781132367 5.889876921341493e-06 -1.9258449899715806e-08 -2.6461225276476597e-05 -6.24117396680178e-08 -4.374510444948262e-05 1.7945708573401124e-08 0 33.125 34.125 33.0625 36.1875 38.375 39.0 0.889477 7 253 253 253 253 253 253 1 -0.24899697303771973 -9.327810287475586 0.0 1.0 1.0 0.021674912437749015 47.77375411987305 47.85883712768555 0.6344689130783081 47.71392822265625 47.71392822265625 47.75692367553711 47.65659713745117 47.61359786987305 47.6995964050293 0 2
24575.713 -7.087389101201325e-05 -1.5698412221721192 1.5700700918780726 4.975378002924913e-05 1.5700163841247559 3.1398730278015137 0.0 0.0 3.662404924398288e-05 0.0 -0.0 -0.0 0.0 0.0 0.0 0.0 0.0 0.0 4.028691796018326e-11 -2.7096596364384804 -2.718239561298824 -0.2947198516661412 -2.9127683763046294e-06 0.01021584229010654 4.479166473362394e-19 -27.277051686104674 -27.2309321789302 -2.3796532658018896 -2.3272671024333145e-05 0.08167404683513746 -5.895296205693512e-05 -1.5698172611049195 1.5700824896441858 3.7832851074171e-05 1.5699925422668457 3.1398491859436035 0.0 0.0 3.5191915230825543e-05 0.0 -0.0 -0.0 -0.017272774130105972 -2.714388132095337 -2.732900381088257 -0.29316508769989014 -0.006318748462945223 0.006932709366083145 4.494311430816357e-20 -2.709659636281429 -2.7182749747001123 -0.2947198516883986 -2.912767657237859e-06 0.010215842289976462 -0.6053585745171342 -0.13304050577363688 0.4527995671698239 -1.2100877457102288 -1.2094911398052783 1.2083817477180603 4.739151963964387e-06 -1.5605755110800137e-08 -2.128706913008105e-05 -5.1048525813818774e-08 -3.519187524565376e-05 1.4434540693591771e-08 8.496999157029151 6.352778545213732 5.18026978345311 -0.2853577119719695 -0.5204355940242777 0.32877241129021806 -0.6053532721934797 -0.13302905481736202 0.4528190382764745 -1.2101042466670344 -1.209435554261912 1.208384520351004 4.931298776278502e-06 -1.6299318261415876e-08 -2.21534666860043e-05 -5.356214403013412e-08 -3.6624006995775575e-05 1.502317517339506e-08 0 33.125 34.125 33.0625 36.1875 38.375 39.0 0.911185 7 253 253 253 253 253 253 1 -0.26815059781074524 -9.346963882446289 -0.019153613597154617 1.0 1.0 0.08922354437941873 47.77196502685547 47.8516731262207 0.6456586718559265 47.71392822265625 47.71392822265625 47.75692367553711 47.65659713745117 47.599266052246094 47.670928955078125 0 2
24575.720999999998 -3.511110414677887e-05 -1.5698052209666749 1.5700700918780726 2.0700642089366283e-06 1.5699687004089355 3.1398491859436035 0.0 0.0 3.149702024529688e-05 0.0 -0.0 -0.0 0.0 0.0 0.0 0.0 0.0 0.0 2.979747086544773e-11 -2.7098358023370626 -2.7182480114517795 -0.29472421227754103 -2.79450284695847e-06 0.010216133533394381 -2.4843451527550252e-18 -27.278825077630323 -27.23096716685125 -2.379688474591885 -2.2327744843721167e-05 0.08167637527953032 -4.7032033101856996e-05 -1.5698531431010743 1.5700939337359827 2.591192211909288e-05 1.5700044631958008 3.1398611068725586 0.0 0.0 3.043200194952078e-05 0.0 -0.0 -0.0 -0.05416174978017807 -2.733041763305664 -2.7298028469085693 -0.2914566993713379 -0.0023420907091349363 0.014979359693825245 -2.4927452204602986e-19 -2.709835802220904 -2.718278467301452 -0.2947242122940023 -2.794502314403506e-06 0.010216133533298182 -0.6053466386087337 -0.1330456052170537 0.4528169019182198 -1.210069778094879 -1.209458733519519 1.2084077112786427 4.097627069905742e-06 -1.3446287863039262e-08 -1.8408017128283428e-05 -4.378064729682131e-08 -3.043196789673149e-05 1.2483703892457188e-08 8.524649000985988 6.422045476221515 5.098099638168725 -0.28859995554021406 -0.5205285652714509 0.32829682306872227 -0.6053653802353913 -0.13305998293404234 0.45280738367139134 -1.2100385581093602 -1.2094996308459098 1.2084338823300282 4.241329469666203e-06 -1.3865552165986495e-08 -1.9052234681607016e-05 -4.493802500103125e-08 -3.149698553860568e-05 1.2918491212424466e-08 0 33.125 34.125 33.0625 36.1875 38.375 39.0 0.879013 7 253 253 253 253 253 253 1 -0.26815059781074524 -9.442731857299805 0.0 1.0 1.0 0.16289469014749391 47.75405502319336 47.84450912475586 0.5628532767295837 47.6995964050293 47.68526077270508 47.71392822265625 47.6279296875 47.584930419921875 47.670928955078125 0 2
24575.729 -2.3190175191700746e-05 -1.5698531431010743 1.5700214544879358 2.591192211909288e-05 1.5700163841247559 3.1398730278015137 0.0 0.0 2.7629779651761055e-05 0.0 -0.0 -0.0 0.0 0.0 0.0 0.0 0.0 0.0 2.2929355068703183e-11 -2.7096306136107273 -2.7182765551062746 -0.2947549223853294 -2.030400175990978e-06 0.010215843298060965 3.364335457155276e-18 -27.27675952567375 -27.231215648845208 -2.379936436847719 -1.6222655350409148e-05 0.08167405489402202 -3.511110414677887e-05 -1.5698531431010743 1.5700576941119593 2.591192211909288e-05 1.570040225982666 3.139885425567627 0.0 0.0 2.6806790629052557e-05 0.0 -0.0 -0.0 0.03336169943213463 -2.685947895050049 -2.719730854034424 -0.29819685220718384 0.006637616083025932 0.014725949615240097 3.375710948033432e-19 -2.7096306135213415 -2.7183032715344253 -0.2947549223979968 -2.030399766738526e-06 0.010215843297986926 -0.6053499372424229 -0.13304605321767407 0.4528388154952507 -1.210072294984909 -1.2094030346469362 1.2084251294953379 3.60891000246044e-06 -1.1800686276264582e-08 -1.621529384134496e-05 -3.8245717507540524e-08 -2.6806761090629987e-05 1.099658304029052e-08 8.714348141093643 6.593535487370008 5.204842006856979 -0.29176711982846537 -0.521423395365872 0.3325046390454886 -0.6053532259712701 -0.13305788818137151 0.45286074262731146 -1.210019517165458 -1.2094085457818562 1.2084594557824078 3.7191006620765186e-06 -1.2117832145006598e-08 -1.6713250302187052e-05 -3.909051807450231e-08 -2.7629749674444768e-05 1.133418656973553e-08 0 33.125 34.125 33.0625 36.1875 38.375 39.0 0.874286 7 253 253 253 253 253 253 1 -0.24899697303771973 -9.442731857299805 -0.05746084079146385 1.0 1.0 0.09819061557183062 47.811370849609375 47.89466094970703 0.6926589012145996 47.7282600402832 47.742591857910156 47.78559112548828 47.71392822265625 47.6279296875 47.68526077270508 0 2
24575.736999999997 -5.895296205693512e-05 -1.569865183239319 1.5700939337359827 2.0700642089366283e-06 1.5700044631958008 3.139897346496582 0.0 0.0 2.4607925297459587e-05 0.0 -0.0 -0.0 0.0 0.0 0.0 0.0 0.0 0.0 1.81880611827446e-11 -2.7095605339215925 -2.7182670913378324 -0.29473959237465813 -2.4137599918253492e-06 0.010215545750250889 -8.53878942157973e-18 -27.276054061868297 -27.231091571695714 -2.3798126578895547 -1.92856558691144e-05 0.08167167604636208 -3.511110414677887e-05 -1.5698291820338746 1.5700700918780726 2.0700642089366283e-06 1.5700163841247559 3.1398491859436035 0.0 0.0 2.3953047275426798e-05 0.0 -0.0 -0.0 0.0032299081794917583 -2.689908742904663 -2.7289419174194336 -0.2979812026023865 -0.0009855323005467653 0.012367899529635906 -8.567660775941583e-19 -2.7095605338506905 -2.7182908857736963 -0.294739592384706 -2.4137596670980114e-06 0.010215545750192154 -0.6053584312871744 -0.1330498502730399 0.45282187445714356 -1.210043521056824 -1.2094469218102217 1.208410072330987 3.2251254139784345e-06 -1.05445458526337e-08 -1.448903816272707e-05 -3.417448849569052e-08 -2.3953020881507704e-05 9.825132216381125e-09 8.611720658209885 6.82328652526372 5.410635973789768 -0.2950234450208634 -0.5285697645021898 0.33798612080336576 -0.6053479408651351 -0.133039641594018 0.4528292661989432 -1.210075684701611 -1.2094063674644375 1.2084425492864443 3.3131189816525756e-06 -1.0912275584697245e-08 -1.4885209617624655e-05 -3.569512337746224e-08 -2.4607897337944137e-05 1.0094984911691318e-08 0 33.125 34.125 33.0625 36.1875 38.375 39.0 0.884966 7 253 253 253 253 253 253 1 -0.26815059781074524 -9.557653427124023 -0.05746084079146385 1.0 1.0 0.031764435377323874 47.789878845214844 47.845401763916016 0.6658024191856384 47.7282600402832 47.6995964050293 47.77125930786133 47.670928955078125 47.599266052246094 47.7282600402832 0 2
24575.745 -5.895296205693512e-05 -1.5698412221721192 1.5700939337359827 4.975378002924913e-05 1.5700163841247559 3.1398611068725586 0.0 0.0 2.2181928216014057e-05 0.0 -0.0 -0.0 0.0 0.0 0.0 0.0 0.0 0.0 1.477843303512887e-11 -2.7096516754797415 -2.718245526324406 -0.2947099441708834 -3.1620684585804504e-06 0.010215987620296123 2.178669656372792e-19 -27.276971547341983 -27.23085204016751 -2.379573269707813 -2.5264553000390946e-05 0.0816752087277255 -4.7032033101856996e-05 -1.5698412221721192 1.5700576941119593 2.591192211909288e-05 1.5700044631958008 3.139897346496582 0.0 0.0 2.1648418623954058e-05 0.0 -0.0 -0.0 -0.022013606503605843 -2.7265191078186035 -2.699273109436035 -0.29971569776535034 -0.003176444908604026 0.008737107738852501 2.1860361741051052e-20 -2.7096516754221303 -2.718266975003602 -0.29470994417904817 -3.162068194800992e-06 0.01021598762024841 -0.6053549793901315 -0.13304685208945924 0.452831613431197 -1.2100785371879441 -1.209423687039399 1.2084458497488246 2.9146110742513796e-06 -9.564657159642768e-09 -1.3094985267866275e-05 -3.114436220957986e-08 -2.1648394399796635e-05 8.880175511124918e-09 8.673348168245543 6.579140386065126 5.53824915801502 -0.29202895898836545 -0.5333575708410392 0.33186878855265267 -0.6053484757006715 -0.13303586619033264 0.45280461390816834 -1.2101074002299257 -1.2094675272272082 1.2083732684846045 2.987038301914096e-06 -9.836767475581315e-09 -1.3417522368686403e-05 -3.2176321343397125e-08 -2.2181903012874305e-05 9.099021002643602e-09 0 33.125 34.125 33.0625 36.1875 38.375 39.0 0.882613 7 253 253 253 253 253 253 1 -0.24899697303771973 -9.385271072387695 -0.1149216815829277 1.0 1.0 0.027756778581388957 47.79793930053711 47.86689758300781 0.6344689130783081 47.75692367553711 47.7282600402832 47.78559112548828 47.6995964050293 47.61359786987305 47.68526077270508 0 2
24575.753 -4.7032033101856996e-05 -1.5698531431010743 1.5700824896441858 1.3990993164014753e-05 1.5700044631958008 3.1398611068725586 0.0 0.0 2.0191393559798598e-05 0.0 -0.0 -0.0 0.0 0.0 0.0 0.0 0.0 0.0 1.2245271387165325e-11 -2.7096141154649875 -2.7182671689612095 -0.2947343907777204 -2.5447680637583093e-06 0.010215988313059098 -2.339049223798861e-18 -27.27659344590787 -27.231049569079328 -2.3797706586659477 -2.0332395804278903e-05 0.08167521426632152 -5.895296205693512e-05 -1.569865183239319 1.5700576941119593 1.3990993164014753e-05 1.570028305053711 3.139885425567627 0.0 0.0 1.974834049178753e-05 0.0 -0.0 -0.0 -0.02091921679675579 -2.6980388164520264 -2.720946788787842 -0.2862218916416168 0.0058426749892532825 0.0005023432895541191 -2.3469580169164712e-19 -2.709614115417251 -2.718286692944003 -0.29473439078448527 -2.544767845123584e-06 0.010215988313019559 -0.605351217331104 -0.13303414879407863 0.4528486429311359 -1.2100602760762922 -1.2093765869834814 1.2084276824884033 2.6584599651279367e-06 -8.75678568348434e-09 -1.1945736196258655e-05 -2.864603341539167e-08 -1.9748318053730506e-05 8.101422484248145e-09 8.606129767276572 6.260916738543342 5.271173187956419 -0.28559891896931344 -0.5254535852848556 0.3236968059381238 -0.6053497849871067 -0.13304559462621263 0.4528263573060049 -1.210052564711509 -1.2094415277724366 1.208418730663721 2.7185523637393045e-06 -8.921257471271994e-09 -1.2213637882066402e-05 -2.9048114591316665e-08 -2.019137096604116e-05 8.282839189965353e-09 0 33.125 34.125 33.0625 36.1875 38.375 39.0 0.871657 7 253 253 253 253 253 253 1 -0.2298433631658554 -9.346963882446289 -0.05746084079146385 1.0 1.0 0.007910013072963655 47.786293029785156 47.86779022216797 0.6658024191856384 47.742591857910156 47.6995964050293 47.75692367553711 47.68526077270508 47.61359786987305 47.68526077270508 0 2
24575.761 -3.511110414677887e-05 -1.5698412221721192 1.5701053778277796 3.7832851074171e-05 1.5700163841247559 3.139885425567627 0.0 0.0 1.8528673535911366e-05 0.0 -0.0 -0.0 0.0 0.0 0.0 0.0 0.0 0.0 1.0311416038997134e-11 -2.709651827337407 -2.718249211456073 -0.2947101426259731 -3.156993408798454e-06 0.010215690543223856 -1.9263051232889887e-18 -27.276973076207213 -27.23085356903274 -2.37957487207164 -2.5224004586571646e-05 0.081672833643533 -5.895296205693512e-05 -1.5698412221721192 1.5700700918780726 3.7832851074171e-05 1.5699925422668457 3.1398611068725586 0.0 0.0 1.815491123124957e-05 0.0 -0.0 -0.0 -0.04645569249987602 -2.7243640422821045 -2.7068190574645996 -0.3053293228149414 0.006814149208366871 0.017016295343637466 -1.9328183460747593e-19 -2.7096518272972108 -2.7182671276196078 -0.2947101426316699 -3.1569932247555826e-06 0.010215690543190563 -0.6053532883210332 -0.13304091678429883 0.4528215771915376 -1.2100697490933463 -1.2094587298753523 1.2084077143002898 2.4444486624374823e-06 -8.050541158844452e-09 -1.0981726219511229e-05 -2.633487278692966e-08 -1.815489060361249e-05 7.447139715969829e-09 8.715647672320957 6.258032750679429 5.2255640550358065 -0.28778044046121287 -0.5235413272272245 0.32622979565384574 -0.6053453686712058 -0.13305114605744922 0.4528002300169991 -1.2101136918873687 -1.2094732235543684 1.2084089391717916 2.495169186997078e-06 -8.15732901673692e-09 -1.120772348611626e-05 -2.6435281673010993e-08 -1.8528653119137392e-05 7.600456913059076e-09 0 33.125 34.125 33.0625 36.1875 38.375 39.0 0.872125 7 253 253 253 253 253 253 1 -0.28730422258377075 -9.366117477416992 -0.09576806426048279 1.0 1.0 0.042583470877823985 47.76301193237305 47.82838821411133 0.6098535060882568 47.6995964050293 47.71392822265625 47.742591857910156 47.68526077270508 47.584930419921875 47.65659713745117 0 2
24575.769 -3.511110414677887e-05 -1.5698531431010743 1.5700824896441858 1.3990993164014753e-05 1.5699806213378906 3.139897346496582 0.0 0.0 1.711897857603617e-05 0.0 -0.0 -0.0 0.0 0.0 0.0 0.0 0.0 0.0 8.802283590656917e-12 -2.709613917837272 -2.7182699412851576 -0.2947341444045621 -2.546388799430267e-06 0.010215545527943867 -9.572679987667921e-19 -27.276591456604415 -27.231047579775872 -2.3797686693624995 -2.034534578208211e-05 0.08167167426929492 -3.511110414677887e-05 -1.5698531431010743 1.5700700918780726 -2.177179370121962e-05 1.570028305053711 3.1398730278015137 0.0 0.0 1.679942215560004e-05 0.0 -0.0 -0.0 0.016888432204723358 -2.7404446601867676 -2.7367167472839355 -0.28911179304122925 -0.0073697250336408615 0.012767154723405838 -9.605047132759719e-20 -2.709613917802958 -2.7182864943656457 -0.29473414440942486 -2.546388642172092e-06 0.010215545527915452 -0.6053546878816599 -0.13304813778874822 0.4528414497080779 -1.2100315340723937 -1.2093916620660266 1.2084414140186872 2.261606679835121e-06 -7.395286453415304e-09 -1.0161966362997015e-05 -2.396802970351341e-08 -1.679940364430425e-05 6.891397158253608e-09 8.754692892716902 6.847953893137784 5.184163464529183 -0.2886981038705664 -0.5245999216075581 0.3436716286591884 -0.6053481960273204 -0.13305914098157598 0.45282637438475243 -1.2100623179404066 -1.2094506923793509 1.2084717592132237 2.3048848186897698e-06 -7.536281239179248e-09 -1.0355154561215314e-05 -2.4423946443150102e-08 -1.711895971262092e-05 7.0224844175234835e-09 0 33.125 34.125 33.0625 36.1875 38.375 39.0 0.860689 7 253 253 253 253 253 253 1 -0.19153612852096558 -9.308656692504883 0.038307227194309235 1.0 1.0 0.06161051809776314 47.756744384765625 47.85883712768555 0.6837049722671509 47.71392822265625 47.68526077270508 47.71392822265625 47.65659713745117 47.584930419921875 47.64226531982422 0 2
24575.777 -5.895296205693512e-05 -1.5698412221721192 1.5700824896441858 2.591192211909288e-05 1.5699925422668457 3.1398491859436035 0.0 0.0 1.5908617569948547e-05 0.0 -0.0 -0.0 0.0 0.0 0.0 0.0 0.0 0.0 7.601533666761576e-12 -2.709663245280829 -2.718263218514857 -0.29472436012685727 -2.7951005145340726e-06 0.010216133608078269 -5.711645733731704e-18 -27.277088016149055 -27.23096850897458 -2.3796896682709923 -2.233252330763015e-05 0.08167637587718911 -2.3190175191700746e-05 -1.5698772233775635 1.5701177755938929 2.591192211909288e-05 1.570028305053711 3.1398491859436035 0.0 0.0 1.5632303984602913e-05 0.0 -0.0 -0.0 -0.013842466287314892 -2.7554244995117188 -2.709531307220459 -0.2960577607154846 0.01654502935707569 0.011212458834052086 -5.730957949998706e-19 -2.7096632452511957 -2.71827860127631 -0.2947243601310567 -2.7951003787645243e-06 0.010216133608053726 -0.6053332687420082 -0.1330545666418015 0.45281704864685546 -1.2100608673124167 -1.2094642254173222 1.2083990567832827 2.1048662143551626e-06 -6.8571936886097365e-09 -9.455826812541321e-06 -2.2116362090571966e-08 -1.5632287024139044e-05 6.413150089756561e-09 8.754510094580553 6.709299389656765 5.281981555466717 -0.29062990371316555 -0.5272611583023256 0.338101461421525 -0.6053532243217256 -0.13304050116488098 0.452816608102802 -1.2100613267882354 -1.2094647138078918 1.2083987065351034 2.1420778963767303e-06 -7.054567941443933e-09 -9.622964395070257e-06 -2.3076478567374043e-08 -1.590859949455366e-05 6.525710658800335e-09 0 33.125 34.125 33.0625 36.1875 38.375 39.0 0.877969 7 253 253 253 253 253 253 1 -0.26815059781074524 -9.327810287475586 0.019153613597154617 1.0 1.0 0.09471433005517015 47.790771484375 47.87226867675781 0.6680382490158081 47.75692367553711 47.71392822265625 47.81425476074219 47.6995964050293 47.61359786987305 47.6995964050293 0 2
24575.785 -2.3190175191700746e-05 -1.5698052209666749 1.5700939337359827 -9.850864746141497e-06 1.5700044631958008 3.1398611068725586 0.0 0.0 1.4858077520329971e-05 0.0 -0.0 -0.0 0.0 0.0 0.0 0.0 0.0 0.0 6.630689232011623e-12 -2.7098321098511082 -2.7182603899749265 -0.29471962911780303 -2.9162914495860097e-06 0.010215987874638765 -3.7749264065306724e-18 -27.278787907771243 -27.23092999699217 -2.3796514687321486 -2.3300824764863705e-05 0.08167521076136508 -2.3190175191700746e-05 -1.5698172611049195 1.5700824896441858 2.591192211909288e-05 1.5700044631958008 3.1398730278015137 0.0 0.0 1.4616779481002595e-05 0.0 -0.0 -0.0 -0.030722837895154953 -2.6804099082946777 -2.6821000576019287 -0.29735124111175537 -0.006823576986789703 0.008932996541261673 -3.787690187506161e-19 -2.70983210982526 -2.7182747568923817 -0.2947196291214662 -2.916291331196982e-06 0.010215987874617354 -0.6053554240114265 -0.1330604472693184 0.4528021011640901 -1.2100852644152655 -1.2094886559225997 1.2084224560425296 1.968345371851413e-06 -6.411331850936303e-09 -8.841497301371685e-06 -2.068000426333433e-08 -1.46167636222907e-05 5.995311617566651e-09 8.807072716667626 6.464233087188612 5.0616174487418295 -0.2860981652203512 -0.5197252714785546 0.3316934303024919 -0.6053621944766496 -0.13306001988746666 0.4527954845479343 -1.210067444591301 -1.209485237642461 1.2084194376009534 2.000937588360306e-06 -6.5171811734127115e-09 -8.987479889667e-06 -2.1021475748311035e-08 -1.4858061399806826e-05 6.094035003471962e-09 0 33.125 34.125 33.0625 36.1875 38.375 39.0 0.873781 7 253 253 253 253 253 253 1 -0.17238251864910126 -9.346963882446289 -0.05746084079146385 1.0 1.0 0.21158704884719026 47.76927947998047 47.845401763916016 0.6478998064994812 47.71392822265625 47.7282600402832 47.77125930786133 47.670928955078125 47.599266052246094 47.670928955078125 0 2
24575.792999999998 -5.895296205693512e-05 -1.5698412221721192 1.5700824896441858 2.591192211909288e-05 1.5699925422668457 3.1398730278015137 0.0 0.0 1.3937712537881453e-05 0.0 -0.0 -0.0 0.0 0.0 0.0 0.0 0.0 0.0 5.8347090688772295e-12 -2.7096632455115506 -2.7182651245377945 -0.294724360424072 -2.7950226173843786e-06 0.01021584235312131 1.7178390653133747e-18 -27.277088018540972 -27.2309685113665 -2.37968967066291 -2.2331901170725547e-05 0.08167404733981994 -3.511110414677887e-05 -1.5698172611049195 1.5700700918780726 2.0700642089366283e-06 1.5699925422668457 3.139897346496582 0.0 0.0 1.3725168173550628e-05 0.0 -0.0 -0.0 0.008819586597383022 -2.707472801208496 -2.7227258682250977 -0.28744739294052124 -0.004275045823305845 0.009669465944170952 1.7236474226744256e-19 -2.7096632454888048 -2.7182786015150784 -0.2947243604272955 -2.7950225131747863e-06 0.010215842353102472 -0.6053618893940886 -0.13305659548213575 0.45281467625753413 -1.2100764680533043 -1.2094504389932765 1.2084574589015502 1.848105304529454e-06 -6.042060387575044e-09 -8.302240272516392e-06 -1.95821578976267e-08 -1.3725153049744597e-05 5.629602629696369e-09 8.767200367790531 6.712774417022431 5.011670890971382 -0.288166658246062 -0.5190073319637041 0.33841299938896047 -0.605353224753631 -0.1330413322919843 0.4528166135790274 -1.2100788872743329 -1.2094534296716561 1.20841625770178 1.8766976252669133e-06 -6.180583441171022e-09 -8.43078355108384e-06 -2.0217553363417867e-08 -1.3937696701831786e-05 5.717245943453919e-09 0 33.125 34.125 33.0625 36.1875 38.375 39.0 0.874381 7 253 253 253 253 253 253 1 -0.28730422258377075 -9.308655738830566 -0.019153613597154617 1.0 1.0 0.06633743130725288 47.77196502685547 47.86331558227539 0.5807611346244812 47.71392822265625 47.7282600402832 47.77125930786133 47.670928955078125 47.61359786987305 47.670928955078125 0 2
24575.801 -4.7032033101856996e-05 -1.5698772233775635 1.5700939337359827 2.591192211909288e-05 1.5699806213378906 3.1398491859436035 0.0 0.0 1.3124737961334176e-05 0.0 -0.0 -0.0 0.0 0.0 0.0 0.0 0.0 0.0 5.173939299809159e-12 -2.7094986546111874 -2.7182740495704802 -0.29473444102378976 -2.5390464650045647e-06 0.010216133877814441 4.278885367547992e-18 -27.275431148295763 -27.23105004478566 -2.379771064335692 -2.028668191140483e-05 0.08167637803374991 -2.3190175191700746e-05 -1.5698291820338746 1.5700824896441858 -9.850864746141497e-06 1.5700163841247559 3.1398491859436035 0.0 0.0 1.2936079656356014e-05 0.0 -0.0 -0.0 -0.012096885591745377 -2.7378721237182617 -2.7336883544921875 -0.28336265683174133 0.01153416559100151 0.009954370558261871 4.2933531345370707e-19 -2.709498654591018 -2.718286740430465 -0.29473444102664814 -2.5390463725641682e-06 0.01021613387779774 -0.6053567813267547 -0.1330570666402551 0.4528169081025011 -1.2100382413702322 -1.2094560466221156 1.2084186158336296 1.7418251325599062e-06 -5.6740132366014675e-09 -7.824947276253572e-06 -1.8302059980102955e-08 -1.2936065621156154e-05 5.306159651583258e-09 8.645211408928901 6.428509857622497 5.27673906269508 -0.29334889491182387 -0.5226872208291439 0.33005952529297605 -0.6053396441956478 -0.1330502572395911 0.4528314878545651 -1.2100319691947097 -1.2094641772731507 1.2084279072738107 1.7670366278286868e-06 -5.79911501854714e-09 -7.93906665891978e-06 -1.8881611018199467e-08 -1.3124723275043032e-05 5.3844215489710295e-09 0 33.125 34.125 33.0625 36.1875 38.375 39.0 0.86657 7 253 253 253 253 253 253 1 -0.2106897532939911 -9.404424667358398 0.05746084079146385 1.0 1.0 0.06718697909883325 47.777339935302734 47.85883712768555 0.6948947906494141 47.71392822265625 47.68526077270508 47.77125930786133 47.65659713745117 47.599266052246094 47.670928955078125 0 2
24575.808999999997 -4.7032033101856996e-05 -1.5698531431010743 1.5700700918780726 2.0700642089366283e-06 1.5700044631958008 3.1398491859436035 0.0 0.0 1.240135225089034e-05 0.0 -0.0 -0.0 0.0 0.0 0.0 0.0 0.0 0.0 4.619294383538125e-12 -2.7096222273119652 -2.718282852976014 -0.2947444957263942 -2.2904683265481858e-06 0.010216134232461453 9.14892363166313e-19 -27.276675104901955 -27.231131228073412 -2.37985224890817 -1.830057189886141e-05 0.08167638086911107 -3.511110414677887e-05 -1.5698172611049195 1.5700939337359827 -2.177179370121962e-05 1.5699925422668457 3.139885425567627 0.0 0.0 1.223280924023129e-05 0.0 -0.0 -0.0 -0.0036851507611572742 -2.7272753715515137 -2.7574586868286133 -0.2956921458244324 -0.0013825458008795977 0.025570539757609367 9.179857971785365e-20 -2.709622227293958 -2.7182948443946633 -0.2947444957289461 -2.2904682440715657e-06 0.010216134232446536 -0.6053618897524874 -0.13305617938404474 0.45280531766876775 -1.210067700804794 -1.2094560628954258 1.2084486690179252 1.6472724131523942e-06 -5.3852610788096126e-09 -7.399524755974933e-06 -1.7452959340445525e-08 -1.2232795760860266e-05 5.01748715910742e-09 8.580250071228708 6.678526504438026 5.6061944505839625 -0.28972628382006727 -0.5304850450960696 0.3363798435289682 -0.605353059374875 -0.13304516805064534 0.4528363869059129 -1.2100258684184109 -1.2094292619326656 1.2084214241386038 1.669583326019675e-06 -5.479184951371236e-09 -7.501535010602521e-06 -1.784106184668606e-08 -1.2401338374030191e-05 5.087237100699856e-09 0 33.125 34.125 33.0625 36.1875 38.375 39.0 1.017434 7 253 253 253 253 253 253 1 -0.26815059781074524 -9.366117477416992 -0.07661445438861847 1.0 1.0 0.09472625198179854 47.76838302612305 47.845401763916016 0.6322330832481384 47.71392822265625 47.71392822265625 47.77125930786133 47.68526077270508 47.599266052246094 47.670928955078125 0 2
24575.817 -5.895296205693512e-05 -1.5698531431010743 1.5700700918780726 1.3990993164014753e-05 1.5699806213378906 3.139897346496582 0.0 0.0 1.1753561921068467e-05 0.0 -0.0 -0.0 0.0 0.0 0.0 0.0 0.0 0.0 4.149344265579995e-12 -2.709618056704898 -2.718279288400982 -0.2947392960363554 -2.416646934599462e-06 0.010215545681506826 4.5298742992731195e-18 -27.276633121099625 -27.231089244271082 -2.3798102651058275 -1.930872420460157e-05 0.08167167549712663 -3.511110414677887e-05 -1.5698772233775635 1.5700576941119593 3.7832851074171e-05 1.5700044631958008 3.1398611068725586 0.0 0.0 1.1602051017689519e-05 0.0 -0.0 -0.0 0.002779998816549778 -2.717418670654297 -2.746863842010498 -0.29773443937301636 -0.0016354734543710947 0.011852160096168518 4.545190710025497e-19 -2.709618056688723 -2.7182906534430473 -0.29473929603864774 -2.4166468604692876e-06 0.01021554568149343 -0.6053413350691695 -0.13305281184613826 0.45285087003396496 -1.210028483863121 -1.2094318957703607 1.2084393672926523 1.5618062836437356e-06 -5.107395552940817e-09 -7.018041555918805e-06 -1.6552724396231515e-08 -1.1602038233399574e-05 4.759739485538527e-09 8.797638835942722 6.637043764936188 5.236995314491882 -0.2877530848509966 -0.5250368863283444 0.335236307735828 -0.6053530374105445 -0.13304470282046693 0.45283387372011774 -1.2100644554046982 -1.2094240015595437 1.2084600586774494 1.5824013836570127e-06 -5.211875646790171e-09 -7.109669870298171e-06 -1.7049239006724842e-08 -1.1753548566664854e-05 4.821502934564236e-09 0 33.125 34.125 33.0625 36.1875 38.375 39.0 0.875629 7 253 253 253 253 253 253 1 -0.28730422258377075 -9.366117477416992 -0.07661445438861847 1.0 1.0 0.09632322319327438 47.74778747558594 47.82391357421875 0.5897097587585449 47.71392822265625 47.71392822265625 47.75692367553711 47.64226531982422 47.584930419921875 47.65659713745117 0 2
24575.824999999997 -5.895296205693512e-05 -1.5698772233775635 1.5701053778277796 3.7832851074171e-05 1.570028305053711 3.1398491859436035 0.0 0.0 1.1170080142619554e-05 0.0 -0.0 -0.0 0.0 0.0 0.0 0.0 0.0 0.0 3.747510819605107e-12 -2.709491256697495 -2.7182685055977553 -0.29472522553823566 -2.7797945705439527e-06 0.010216133739221592 -1.0984106538673278e-18 -27.275356676535626 -27.230975573025525 -2.379696655835402 -2.221023116572594e-05 0.08167637692575874 -3.511110414677887e-05 -1.5698531431010743 1.5700576941119593 2.591192211909288e-05 1.570028305053711 3.1398730278015137 0.0 0.0 1.103314571082592e-05 0.0 -0.0 -0.0 -0.024336591362953186 -2.719660758972168 -2.707003593444824 -0.30384084582328796 -0.001631308812648058 0.0035610105842351913 -1.1021245999148193e-19 -2.709491256682886 -2.7182793064314907 -0.29472522554030606 -2.7797945036760794e-06 0.010216133739209491 -0.6053499353578718 -0.133048154391695 0.4528388170056966 -1.2100575133731206 -1.2094176690084362 1.208424790170491 1.4853560903126108e-06 -4.856929429166883e-09 -6.67389471298774e-06 -1.5741182147274985e-08 -1.1033133553394439e-05 4.525976446924281e-09 8.710602581163558 6.540353226716022 5.404206195253939 -0.2903808815820173 -0.5266099507733127 0.330814641328764 -0.6053380905369129 -0.13303291820761176 0.45282201500002156 -1.2100774222270685 -1.2094375343871426 1.2083729621330896 1.503978836290209e-06 -4.953523637654114e-09 -6.7566722443277075e-06 -1.6202743802456426e-08 -1.117006745118915e-05 4.582523506438084e-09 0 33.125 34.125 33.0625 36.1875 38.375 39.0 0.877993 7 253 253 253 253 253 253 1 -0.325611412525177 -9.423578262329102 0.019153613597154617 1.0 1.0 0.10528817103001095 47.764801025390625 47.845401763916016 0.6120893359184265 47.71392822265625 47.7282600402832 47.77125930786133 47.68526077270508 47.599266052246094 47.670928955078125 0 2
24575.833 -5.895296205693512e-05 -1.5698531431010743 1.5700824896441858 1.3990993164014753e-05 1.5699806213378906 3.139897346496582 0.0 0.0 1.0641784683684818e-05 0.0 -0.0 -0.0 0.0 0.0 0.0 0.0 0.0 0.0 3.401485062732898e-12 -2.709613917816218 -2.7182762043708264 -0.2947341444075457 -2.5463887029416916e-06 0.010215545527926431 -9.572679987667921e-19 -27.276591456604415 -27.231047579775872 -2.3797686693624995 -2.034534578208211e-05 0.08167167426929492 -2.3190175191700746e-05 -1.5698412221721192 1.5700824896441858 1.3990993164014753e-05 1.5699925422668457 3.1398611068725586 0.0 0.0 1.0517434930079617e-05 0.0 -0.0 -0.0 0.01785486936569214 -2.7098522186279297 -2.6521549224853516 -0.28586360812187195 -0.0033198120072484016 0.0038422318175435066 -9.605047132759719e-20 -2.709613917802958 -2.7182864943656457 -0.29473414440942486 -2.546388642172092e-06 0.010215545527915452 -0.6053500717537413 -0.13306256026565624 0.4528191437802153 -1.2100444148192107 -1.2094766380136965 1.2084394275250607 1.416134569506499e-06 -4.613208102373672e-09 -6.361908568269687e-06 -1.4880087143910424e-08 -1.05174235190336e-05 4.314248986417837e-09 8.798661271187822 6.307587726738666 5.359910665965385 -0.2906313009070809 -0.5242912726646879 0.3295144625826955 -0.6053513682324028 -0.13304470831805745 0.45282637438475243 -1.2100735928570152 -1.2094331261167055 1.2084542079567198 1.4328007908398156e-06 -4.718989340944271e-09 -6.437143706750632e-06 -1.5436540152566172e-08 -1.0641772592483121e-05 4.365433766032584e-09 0 33.125 34.125 33.0625 36.1875 38.375 39.0 0.878197 7 253 253 253 253 253 253 1 -0.2298433631658554 -9.481039047241211 0.019153613597154617 1.0 1.0 0.11757022347472335 47.775550842285156 47.842716217041016 0.6501356363296509 47.71392822265625 47.6995964050293 47.742591857910156 47.64226531982422 47.570594787597656 47.64226531982422 0 2
24575.841 -2.3190175191700746e-05 -1.5698531431010743 1.5701053778277796 -9.850864746141497e-06 1.5700044631958008 3.1398491859436035 0.0 0.0 1.0161217687709723e-05 0.0 -0.0 -0.0 0.0 0.0 0.0 0.0 0.0 0.0 3.1011835506209484e-12 -2.7096144195607716 -2.7182771732318542 -0.29473478692049104 -2.534829435053507e-06 0.010216133951368936 -5.840184637838769e-18 -27.27659650747644 -27.2310526306479 -2.379773857196387 -2.0252988634218506e-05 0.08167637862185996 -4.7032033101856996e-05 -1.5698772233775635 1.5700939337359827 1.3990993164014753e-05 1.5700044631958008 3.1398730278015137 0.0 0.0 1.0047775504062884e-05 0.0 -0.0 -0.0 0.011520462110638618 -2.7135610580444336 -2.7338051795959473 -0.29673314094543457 0.007037941366434097 0.010679865255951881 -5.859931469841859e-19 -2.709614419548682 -2.7182869985591465 -0.2947347869222043 -2.534829379682171e-06 0.010216133951358923 -0.6053412535128533 -0.1330460161123048 0.45283401757992314 -1.210052051527797 -1.2094265776467978 1.2084335022606252 1.3527472747296246e-06 -4.439541050781785e-09 -6.077848774411883e-06 -1.445500772852176e-08 -1.0047764260824593e-05 4.122098216565067e-09 8.618894730508101 6.845121697847959 5.092942393991995 -0.28508949414491686 -0.5206063369791117 0.34185494847116465 -0.6053467417495548 -0.1330596107356424 0.45281757560351676 -1.2100318194765443 -1.209464015500205 1.208427942103196 1.3681871997786866e-06 -4.457086931341947e-09 -6.146453413250219e-06 -1.4376056149801849e-08 -1.0161206663154322e-05 4.168297340759214e-09 0 33.125 34.125 33.0625 36.1875 38.375 39.0 0.912793 7 253 253 253 253 253 253 1 -0.3064578175544739 -9.404424667358398 -0.019153613597154617 1.0 1.0 0.08122178741434852 47.80062484741211 47.85973358154297 0.6277561187744141 47.7282600402832 47.7282600402832 47.742591857910156 47.6995964050293 47.61359786987305 47.68526077270508 0 2
24575.849 -4.7032033101856996e-05 -1.5698531431010743 1.5701177755938929 1.3990993164014753e-05 1.5699925422668457 3.139897346496582 0.0 0.0 1.7885960490460207e-09 0.0 -0.0 -0.0 0.0 0.0 0.0 0.0 0.0 0.0 -8.453984570951187e-21 -2.709602234620511 -2.718274752457087 -0.29471960525878493 -2.9146640846388458e-06 0.010215545122791174 -1.8189784388102334e-18 -27.276473846714524 -27.23092996988598 -2.379651276057963 -2.3287823256237062e-05 0.08167167103039026 -3.511110414677887e-05 -1.5698531431010743 1.5700824896441858 1.3990993164014753e-05 1.5699806213378906 3.139897346496582 0.0 0.0 2.3996299738926474e-11 0.0 -0.0 -0.0 -0.044993650168180466 -2.72782826423645 -2.723611354827881 -0.29369524121284485 0.008576658554375172 0.009101769886910915 -1.825128768615854e-19 -2.709602234620511 -2.718274754186559 -0.29471960525878493 -2.9146640846388458e-06 0.010215545122791174 -0.6053481960273204 -0.13305914098157598 0.45282637438475243 -1.2100623179404066 -1.2094506923793509 1.2084717592132237 3.2308415322397946e-12 -1.0563881643344338e-14 -1.4515199700154665e-11 -3.4235940950223583e-14 -2.399627329738591e-11 9.84367380602521e-15 8.691035744466808 6.451115853938413 5.243333417867459 -0.28545531039718025 -0.5254003743758459 0.3289271738682142 -0.6053450326762827 -0.13304940689035322 0.4528050258696381 -1.2100996120903313 -1.2094591126426486 1.2084375434975934 2.4085323417018703e-10 -7.903151259290059e-13 -1.081901185851558e-09 -2.57314299958518e-12 -1.7885940476435336e-09 7.337112917035996e-13 0 33.125 34.125 33.0625 36.1875 38.375 39.0 0.870061 7 253 253 253 253 253 253 1 -0.17238251864910126 -9.404424667358398 -0.038307227194309235 1.0 1.0 0.09789979540319127 47.788089752197266 47.871376037597656 0.6859408020973206 47.77125930786133 47.77125930786133 47.78559112548828 47.7282600402832 47.6279296875 47.6995964050293 0 2
24575.857 -7.087389101201325e-05 -1.5698291820338746 1.5700576941119593 2.591192211909288e-05 1.5700044631958008 3.139885425567627 0.0 0.0 5.794823707407586e-17 0.0 -0.0 -0.0 0.0 0.0 0.0 0.0 0.0 0.0 4.233689373726197e-19 -2.709725357337544 -2.718282980584037 -0.29472978429221036 -2.6606374625525456e-06 0.01021569109451786 4.219422662034005e-18 -27.27771327349392 -27.231012379676706 -2.3797334645158994 -2.1258180420651877e-05 0.08167283805130773 -2.3190175191700746e-05 -1.5698291820338746 1.5700824896441858 2.591192211909288e-05 1.5699925422668457 3.139897346496582 0.0 0.0 7.774495318493622e-19 0.0 -0.0 -0.0 -0.03426864743232727 -2.7425920963287354 -2.7074670791625977 -0.29264336824417114 0.014409887604415417 0.011261364445090294 4.233689373726197e-19 -2.709725357337544 -2.718282980584037 -0.29472978429221036 -2.6606374625525456e-06 0.01021569109451786 -0.6053519620961686 -0.1330638287250808 0.4528093290919378 -1.2100887501961737 -1.209477134869728 1.2084547878595973 1.0468839253463829e-19 -3.410111109587177e-22 -4.7027022052969395e-19 -1.0999412759814562e-21 -7.774486883434586e-19 3.1889656268577994e-22 8.787629950702625 6.80645523410733 5.17262896952564 -0.28239081696803653 -0.5210627873954811 0.3379646064466519 -0.605361646505113 -0.13303200318440486 0.4528243205470418 -1.2100898957809052 -1.2094206282377866 1.2084138244236682 7.802218852064424e-18 -2.578860679770011e-20 -3.505241148791823e-17 -8.474877323033656e-20 -5.79481702269821e-17 2.37693803386379e-20 0 33.125 34.125 33.0625 36.1875 38.375 39.0 0.885265 7 253 253 253 253 253 253 1 -0.3064578175544739 -9.404424667358398 -0.13407529890537262 1.0 1.0 0.09595334751471186 47.76569747924805 47.830177307128906 0.6859408020973206 47.6995964050293 47.71392822265625 47.7282600402832 47.670928955078125 47.599266052246094 47.670928955078125 0 2
24575.864999999998 -9.47157489221695e-05 -1.5698412221721192 1.5701177755938929 2.591192211909288e-05 1.5700163841247559 3.1398491859436035 0.0 0.0 1.877448919735068e-24 0.0 -0.0 -0.0 0.0 0.0 0.0 0.0 0.0 0.0 4.255575879757729e-19 -2.709651659726908 -2.71826695923181 -0.29470994403011186 -3.162112269168271e-06 0.010216133246999258 4.241235414787028e-18 -27.276971389344503 -27.23085188217003 -2.3795732685052586 -2.5264905149402124e-05 0.08167637299061561 -3.511110414677887e-05 -1.5698892635158082 1.5700939337359827 2.591192211909288e-05 1.5700163841247559 3.1398611068725586 0.0 0.0 2.5188374926025572e-26 0.0 -0.0 -0.0 0.020220676437020302 -2.7352380752563477 -2.7332985401153564 -0.2918970584869385 -0.00465833256021142 0.012852397747337818 4.255575879757729e-19 -2.709651659726908 -2.71826695923181 -0.29470994403011186 -3.162112269168271e-06 0.010216133246999258 -0.6053345679622572 -0.1330502893159988 0.4528387673988151 -1.2100431999978887 -1.209432153380532 1.2084247945469848 3.391029802985713e-27 -1.1088952719636737e-29 -1.5236321609648828e-26 -3.593628869974744e-29 -2.5188347170997422e-26 1.0333948633358686e-29 8.600459613591601 6.620988157058551 5.250755457828128 -0.28222780855482316 -0.5244231559434175 0.3312379516721992 -0.6053532333714616 -0.13301380105906263 0.45279525533441534 -1.2101155459449087 -1.2094468016866964 1.2083381522584073 2.528364914352334e-25 -8.41638549119378e-28 -1.1356412603345378e-24 -2.7905037969002897e-27 -1.877446687979233e-24 7.701290431427434e-28 0 33.125 34.125 33.0625 36.1875 38.375 39.0 0.870697 7 253 253 253 253 253 253 1 -0.3447650372982025 -9.385271072387695 0.038307227194309235 1.0 1.0 0.12585191523046796 47.78898239135742 47.86689758300781 0.6546126008033752 47.7282600402832 47.71392822265625 47.75692367553711 47.670928955078125 47.599266052246094 47.68526077270508 0 2
24575.873 -3.511110414677887e-05 -1.5698412221721192 1.5701053778277796 2.591192211909288e-05 1.5699806213378906 3.1398730278015137 0.0 0.0 6.082697198591273e-32 0.0 -0.0 -0.0 0.0 0.0 0.0 0.0 0.0 0.0 7.679109299957672e-20 -2.709655503567739 -2.7182708218248957 -0.29471472601156795 -3.0355015826164994e-06 0.01021584202096782 7.653232191656997e-19 -27.277010083741253 -27.23089057656678 -2.3796118796056778 -2.4253300653944865e-05 0.08167404468445581 -5.895296205693512e-05 -1.5698291820338746 1.5701053778277796 -9.850864746141497e-06 1.570028305053711 3.139885425567627 0.0 0.0 8.160714328595224e-34 0.0 -0.0 -0.0 0.027708273380994797 -2.7306230068206787 -2.707435369491577 -0.29613521695137024 0.007996425032615662 0.014766959473490715 7.679109299957672e-20 -2.709655503567739 -2.7182708218248957 -0.29471472601156795 -3.0355015826164994e-06 0.01021584202096782 -0.60535845972212 -0.1330341574123038 0.452803067195634 -1.2101043641877203 -1.2094206246694965 1.2083993775438855 1.0989416519987018e-34 -3.6188969106997242e-37 -4.936335901588547e-34 -1.1837687799274227e-36 -8.160705056371866e-34 3.3473860898199787e-37 8.527380656070493 6.830133352020388 5.364719327949348 -0.2952602626759493 -0.5270816550886257 0.3392618233380532 -0.6053469688313342 -0.13305830843609034 0.4528027731461236 -1.2100788302096586 -1.2094966081232048 1.2084317947609002 8.191127283974165e-33 -2.6779157887244154e-35 -3.6793441965775527e-32 -8.678323003788951e-35 -6.082690496057839e-32 2.4951207588322454e-35 0 33.125 34.125 33.0625 36.1875 38.375 39.0 0.925802 7 253 253 253 253 253 253 1 -0.24899697303771973 -9.404424667358398 0.019153613597154617 1.0 1.0 0.08393427129545315 47.744205474853516 47.83197021484375 0.6523714661598206 47.6995964050293 47.68526077270508 47.71392822265625 47.670928955078125 47.570594787597656 47.670928955078125 0 2
24575.880999999998 -3.511110414677887e-05 -1.5698531431010743 1.5700939337359827 2.591192211909288e-05 1.5700044631958008 3.1398730278015137 0.0 0.0 1.9707160953032065e-39 0.0 -0.0 -0.0 0.0 0.0 0.0 0.0 0.0 0.0 2.752114011562305e-20 -2.7096063214514383 -2.7182788609551727 -0.2947246819594339 -2.789086711105747e-06 0.010215842397924578 2.742839921358459e-19 -27.27651498719466 -27.230971110366117 -2.379692266806328 -2.2284474810275873e-05 0.0816740476981656 -5.895296205693512e-05 -1.5698412221721192 1.5700939337359827 6.215154614253038e-05 1.5699925422668457 3.139885425567627 0.0 0.0 2.643969942488065e-41 0.0 -0.0 -0.0 -0.028824614360928535 -2.720186233520508 -2.750612497329712 -0.29649093747138977 0.002483891323208809 0.013572253286838531 2.752114011562305e-20 -2.7096063214514383 -2.7182788609551727 -0.2947246819594339 -2.789086711105747e-06 0.010215842397924578 -0.6053468029594533 -0.13304178643572218 0.4528019940565392 -1.210123142324927 -1.209482683894541 1.208402902354525 3.5604629149646276e-42 -1.1724995194556738e-44 -1.599294114242022e-41 -3.8352493824392277e-44 -2.6439669384054933e-41 1.0845557610131097e-44 8.697987493189386 6.507950014648168 5.362576533432811 -0.28928767217394025 -0.5273509901273068 0.329953581039593 -0.6053450527495112 -0.13305323706539862 0.4528169046588149 -1.210072920733631 -1.2094618745713444 1.2084252624290912 2.653542081716314e-40 -8.675916599297606e-43 -1.1920666827833598e-39 -2.8116551552741254e-42 -1.9707139237696726e-39 8.084199071317449e-43 0 33.125 34.125 33.0625 36.1875 38.375 39.0 0.880622 7 253 253 253 253 253 253 1 -0.2106897532939911 -9.385271072387695 -0.019153613597154617 1.0 1.0 0.04041918522798094 47.77107238769531 47.85525894165039 0.6702793836593628 47.68526077270508 47.68526077270508 47.7282600402832 47.65659713745117 47.584930419921875 47.65659713745117 0 2
24575.889 -4.7032033101856996e-05 -1.5698412221721192 1.5700824896441858 2.0700642089366283e-06 1.5700163841247559 3.1398611068725586 0.0 0.0 0.0 0.0 -0.0 -0.0 0.0 0.0 0.0 0.0 0.0 0.0 3.9807578879249325e-19 -2.709671389646224 -2.718286785403932 -0.2947345141325537 -2.543903548150582e-06 0.01021598834845617 3.9673435062615326e-18 -27.277170002491975 -27.2310504953175 -2.3797716546139034 -2.0325490173110546e-05 0.08167521454963164 -4.7032033101856996e-05 -1.5698291820338746 1.5701053778277796 -2.177179370121962e-05 1.570028305053711 3.1398491859436035 0.0 0.0 -0.0 0.0 -0.0 -0.0 0.04011164605617523 -2.698136329650879 -2.758408546447754 -0.28279274702072144 0.005246182903647423 0.0019016456790268421 3.9807578879249325e-19 -2.709671389646224 -2.718286785403932 -0.2947345141325537 -2.543903548150582e-06 0.01021598834845617 -0.6053584786166455 -0.1330401049905122 0.45280559180726776 -1.2100632562580418 -1.2094377772571532 1.2083870940303216 0.0 0.0 0.0 0.0 0.0 0.0 8.715743336760578 6.555929627225542 5.021509452143624 -0.289307769574153 -0.5167735751258759 0.3290163730546351 -0.6053548529071138 -0.13304305530303928 0.4528216680092271 -1.2100582120555092 -1.2094327561390783 1.20840991986707 0.0 0.0 0.0 0.0 0.0 0.0 0 33.125 34.125 33.0625 36.1875 38.375 39.0 0.870121 7 253 253 253 253 253 253 1 -0.24899697303771973 -9.366117477416992 -0.019153613597154617 1.0 1.0 0.028760738013593978 47.77644348144531 47.857940673828125 0.6658024191856384 47.71392822265625 47.71392822265625 47.7282600402832 47.670928955078125 47.64226531982422 47.670928955078125 0 2
24575.896999999997 -7.087389101201325e-05 -1.569865183239319 1.5700824896441858 1.3990993164014753e-05 1.5699925422668457 3.139897346496582 0.0 0.0 -0.0 0.0 -0.0 -0.0 0.0 0.0 0.0 0.0 0.0 0.0 -7.601347050313897e-19 -2.7095602822617897 -2.7182906329574137 -0.29473927086123325 -2.4195678802729174e-06 0.010215545710769549 -7.575731985705679e-18 -27.276051529224212 -27.23108903905163 -2.379810061816106 -1.9332062809305077e-05 0.08167167573118457 -2.3190175191700746e-05 -1.5698772233775635 1.5700824896441858 2.591192211909288e-05 1.5699806213378906 3.1398730278015137 0.0 0.0 -0.0 0.0 -0.0 -0.0 0.016116097569465637 -2.7243924140930176 -2.7435107231140137 -0.30212175846099854 0.00876937061548233 0.01866902783513069 -7.601347050313897e-19 -2.7095602822617897 -2.7182906329574137 -0.29473927086123325 -2.4195678802729174e-06 0.010215545710769549 -0.6053380129752854 -0.1330655157309644 0.45283841579460005 -1.2100298201115023 -1.2094620366372777 1.2084684105868 0.0 0.0 0.0 0.0 0.0 0.0 8.73776975286187 6.851542294561049 5.255849583079129 -0.2928625165234489 -0.526263477555738 0.33814660222028825 -0.6053494604425151 -0.13303495911432828 0.4528336600475793 -1.2100760165134523 -1.2094067110476083 1.2084423431144509 0.0 0.0 0.0 0.0 0.0 0.0 0 33.125 34.125 33.0625 36.1875 38.375 39.0 0.877729 7 253 253 253 253 253 253 1 -0.24899697303771973 -9.346963882446289 -0.07661445438861847 1.0 1.0 0.13776976071520664 47.78361129760742 47.868690490722656 0.6434228420257568 47.742591857910156 47.7282600402832 47.742591857910156 47.6995964050293 47.61359786987305 47.68526077270508 0 2
24575.905 -2.3190175191700746e-05 -1.5698772233775635 1.5700576941119593 3.7832851074171e-05 1.5700044631958008 3.1398491859436035 0.0 0.0 -0.0 0.0 -0.0 -0.0 0.0 0.0 0.0 0.0 0.0 0.0 2.1793299561022695e-20 -2.7095069754911933 -2.718295101924319 -0.2947447929347777 -2.282987801124213e-06 0.010216134240963284 2.1719860370233635e-19 -27.275514911444876 -27.231133807934775 -2.3798546486339553 -1.824080403945201e-05 0.08167638093720113 -2.3190175191700746e-05 -1.5698291820338746 1.5700824896441858 2.591192211909288e-05 1.5700163841247559 3.1398491859436035 0.0 0.0 -0.0 0.0 -0.0 -0.0 0.020261406898498535 -2.667384147644043 -2.7309298515319824 -0.3031134009361267 0.008837072178721428 0.018514305353164673 2.1793299561022695e-20 -2.7095069754911933 -2.718295101924319 -0.2947447929347777 -2.282987801124213e-06 0.010216134240963284 -0.6053519647743149 -0.13305708312847386 0.4528093092773736 -1.210064578172944 -1.2094823957633556 1.2084017595411722 0.0 0.0 0.0 0.0 0.0 0.0 8.700701282388051 6.568233443355337 4.910610273550559 -0.27994547214006926 -0.5166314050370336 0.331368883311836 -0.6053397487071341 -0.13305961250419207 0.452850867298329 -1.2100140662254384 -1.2094463203480146 1.2084393672926526 0.0 0.0 0.0 0.0 0.0 0.0 0 33.125 34.125 33.0625 36.1875 38.375 39.0 0.903829 7 253 253 253 253 253 253 1 -0.28730422258377075 -9.308655738830566 0.1149216815829277 1.0 1.0 0.13978337323098936 47.764801025390625 47.8516731262207 0.6188021302223206 47.71392822265625 47.6995964050293 47.742591857910156 47.670928955078125 47.584930419921875 47.65659713745117 0 2
24575.913 -1.0792409078419496e-05 -1.5698531431010743 1.5700939337359827 2.0700642089366283e-06 1.5700163841247559 3.139897346496582 0.0 0.0 -0.0 0.0 -0.0 -0.0 0.0 0.0 0.0 0.0 0.0 0.0 -1.619171518001038e-19 -2.7096143669837116 -2.718286945737736 -0.29473471270407164 -2.538810764766057e-06 0.010215545639956067 -1.6137152241664247e-18 -27.27659597832606 -27.231052101497518 -2.3797732579377326 -2.0284799432806653e-05 0.08167167516504195 -1.0792409078419496e-05 -1.5698172611049195 1.5700824896441858 1.3990993164014753e-05 1.5700044631958008 3.1398730278015137 0.0 0.0 -0.0 0.0 -0.0 -0.0 -0.02073587290942669 -2.7223706245422363 -2.7166597843170166 -0.2972566485404968 0.0038245972245931625 0.011914372444152832 -1.619171518001038e-19 -2.7096143669837116 -2.718286945737736 -0.29473471270407164 -2.538810764766057e-06 0.010215545639956067 -0.605355379890474 -0.13306794683784162 0.4528046340674531 -1.2100706220764548 -1.209489007509042 1.208437201459334 0.0 0.0 0.0 0.0 0.0 0.0 8.654618378546012 6.540564604568487 5.3389961316724275 -0.29320789285072274 -0.527626879228088 0.3304987381896056 -0.6053450300826584 -0.13306626166492924 0.452821971803319 -1.210067424028237 -1.2094419500380091 1.2084635170579576 0.0 0.0 0.0 0.0 0.0 0.0 0 33.125 34.125 33.0625 36.1875 38.375 39.0 1.007581 7 253 253 253 253 253 253 1 -0.2298433631658554 -9.385271072387695 -0.019153613597154617 1.0 1.0 0.14045121282750878 47.76927947998047 47.84450912475586 0.6523714661598206 47.71392822265625 47.6995964050293 47.7282600402832 47.68526077270508 47.584930419921875 47.68526077270508 0 2
24575.921 -2.3190175191700746e-05 -1.5698291820338746 1.5700824896441858 -9.850864746141497e-06 1.5699925422668457 3.1398730278015137 0.0 0.0 -0.0 0.0 -0.0 -0.0 0.0 0.0 0.0 0.0 0.0 0.0 -7.810768626911862e-20 -2.709728898815016 -2.7182865393386773 -0.2947342180046176 -2.5468438120986277e-06 0.010215842647915916 -7.784447852226284e-19 -27.277748924120566 -27.231048030303352 -2.3797692635913568 -2.0348982536264723e-05 0.0816740496968069 -2.3190175191700746e-05 -1.5698412221721192 1.5701053778277796 1.3990993164014753e-05 1.5699925422668457 3.1398491859436035 0.0 0.0 -0.0 0.0 -0.0 -0.0 0.018760140985250473 -2.7111623287200928 -2.7402868270874023 -0.30226773023605347 0.005185181740671396 0.006259649991989136 -7.810768626911862e-20 -2.709728898815016 -2.7182865393386773 -0.2947342180046176 -2.5468438120986277e-06 0.010215842647915916 -0.6053469895830487 -0.13306215474161706 0.4528052962087058 -1.21005250272576 -1.2094991258450012 1.2084198503473276 0.0 0.0 0.0 0.0 0.0 0.0 8.678885294922237 6.247724995122831 5.135652413573707 -0.2970413405068754 -0.5222914833787646 0.3247544206829532 -0.6053567782380755 -0.133062964487337 0.4528169223105252 -1.2100445005829192 -1.2094622958334913 1.2084537421011765 0.0 0.0 0.0 0.0 0.0 0.0 0 33.125 34.125 33.0625 36.1875 38.375 39.0 0.875677 7 253 253 253 253 253 253 1 -0.28730422258377075 -9.385271072387695 0.038307227194309235 1.0 1.0 0.09153024756132096 47.76927947998047 47.852569580078125 0.6076123714447021 47.742591857910156 47.742591857910156 47.742591857910156 47.670928955078125 47.599266052246094 47.68526077270508 0 2
24575.929 -3.511110414677887e-05 -1.5698892635158082 1.5700824896441858 -2.177179370121962e-05 1.5700163841247559 3.1398730278015137 0.0 0.0 -0.0 0.0 -0.0 -0.0 0.0 0.0 0.0 0.0 0.0 0.0 6.56045735857126e-20 -2.709464928670738 -2.718310885773899 -0.2947643832043946 -1.7923598387346156e-06 0.01021584355745795 6.538349890251901e-19 -27.275091643046355 -27.231291926205166 -2.380012826133044 -1.4320744320421848e-05 0.08167405696845191 -4.7032033101856996e-05 -1.5698531431010743 1.5700824896441858 3.7832851074171e-05 1.5699687004089355 3.139897346496582 0.0 0.0 -0.0 0.0 -0.0 -0.0 -0.002037547528743744 -2.709280014038086 -2.7478833198547363 -0.29683917760849 -0.007480743806809187 0.005739896092563868 6.56045735857126e-20 -2.709464928670738 -2.718310885773899 -0.2947643832043946 -1.7923598387346156e-06 0.01021584355745795 -0.6053465693886897 -0.13305446908799537 0.45282131284833627 -1.2100798639225896 -1.2094682413008493 1.2084605338163008 0.0 0.0 0.0 0.0 0.0 0.0 8.815379044345299 6.743240329841368 5.23802396126811 -0.28814472116755235 -0.5271577106602569 0.3393451643199444 -0.6053425302200085 -0.13305067778065982 0.4528558248128441 -1.2100084292451543 -1.2093829567228966 1.2084614452495395 0.0 0.0 0.0 0.0 0.0 0.0 0 33.125 34.125 33.0625 36.1875 38.375 39.0 0.876385 7 253 253 253 253 253 253 1 -0.2298433631658554 -9.481039047241211 -0.019153613597154617 1.0 1.0 0.15627086466799447 47.76659393310547 47.842716217041016 0.6546126008033752 47.7282600402832 47.71392822265625 47.75692367553711 47.670928955078125 47.584930419921875 47.68526077270508 0 2
24575.936999999998 -4.7032033101856996e-05 -1.5698172611049195 1.5701177755938929 1.3990993164014753e-05 1.5699687004089355 3.1398730278015137 0.0 0.0 -0.0 0.0 -0.0 -0.0 0.0 0.0 0.0 0.0 0.0 0.0 -7.252832868490283e-20 -2.709762170147064 -2.718262511804391 -0.29470444741053536 -3.2923669277836393e-06 0.010215841656179744 -7.228392229049762e-19 -27.278083853213424 -27.230807329063538 -2.379528887210103 -2.6305624553096997e-05 0.08167404176803271 -3.511110414677887e-05 -1.5698531431010743 1.5700939337359827 2.0700642089366283e-06 1.5700044631958008 3.139885425567627 0.0 0.0 -0.0 0.0 -0.0 -0.0 -0.03785478323698044 -2.6632680892944336 -2.707278251647949 -0.2903568148612976 -0.0005204654298722744 0.0007170027238316834 -7.252832868490283e-20 -2.709762170147064 -2.718262511804391 -0.29470444741053536 -3.2923669277836393e-06 0.010215841656179744 -0.6053482639703874 -0.13305365822094808 0.45282197341861774 -1.2100644937913103 -1.209438441123915 1.2084456265663663 0.0 0.0 0.0 0.0 0.0 0.0 8.632128770615882 6.788418952020916 5.565612761647037 -0.2868714001319705 -0.5340343492331155 0.34019417689221165 -0.6053554445921757 -0.13305362457024592 0.4527833031874026 -1.2100968156479248 -1.2095145762719497 1.2084202343988188 0.0 0.0 0.0 0.0 0.0 0.0 0 33.125 34.125 33.0625 36.1875 38.375 39.0 0.871969 7 253 253 253 253 253 253 1 -0.2298433631658554 -9.385271072387695 0.07661445438861847 1.0 1.0 0.17720612010089426 47.76122283935547 47.84092330932617 0.6344689130783081 47.7282600402832 47.6995964050293 47.7282600402832 47.68526077270508 47.599266052246094 47.670928955078125 0 2
24575.945 -2.3190175191700746e-05 -1.569865183239319 1.5700939337359827 3.7832851074171e-05 1.5700044631958008 3.1398730278015137 0.0 0.0 -0.0 0.0 -0.0 -0.0 0.0 0.0 0.0 0.0 0.0 0.0 -3.4133578963491044e-19 -2.709548614121013 -2.7182789078933784 -0.29472473149539635 -2.7878400053707654e-06 0.010215842399402486 -3.4018555425600686e-18 -27.27593407075275 -27.230971580580167 -2.3796926667740066 -2.227451377807261e-05 0.08167404770998124 -2.3190175191700746e-05 -1.5698772233775635 1.5700939337359827 1.3990993164014753e-05 1.5700163841247559 3.1398491859436035 0.0 0.0 -0.0 0.0 -0.0 -0.0 -0.009109852835536003 -2.7157769203186035 -2.6975607872009277 -0.29130545258522034 0.0032254885882139206 0.01803407445549965 -3.4133578963491044e-19 -2.709548614121013 -2.7182789078933784 -0.29472473149539635 -2.7878400053707654e-06 0.010215842399402486 -0.6053380825951349 -0.13305708404756963 0.4528340077376818 -1.2100288669397226 -1.2094466607690435 1.2084247148310492 0.0 0.0 0.0 0.0 0.0 0.0 8.734143200048146 7.1333066205727675 5.031358117466296 -0.28625724644732914 -0.5174202659864865 0.34465634110453525 -0.6053383657332773 -0.1330604591771799 0.4528216617069914 -1.210067198505324 -1.2094705750691603 1.2084341177072393 0.0 0.0 0.0 0.0 0.0 0.0 0 33.125 34.125 33.0625 36.1875 38.375 39.0 0.875702 7 253 253 253 253 253 253 1 -0.3064578175544739 -9.423578262329102 -0.07661445438861847 1.0 1.0 0.12719939977615458 47.76301193237305 47.84988021850586 0.6411817073822021 47.71392822265625 47.7282600402832 47.7282600402832 47.68526077270508 47.599266052246094 47.68526077270508 0 2
24575.952999999998 -7.087389101201325e-05 -1.5698531431010743 1.5700700918780726 2.0700642089366283e-06 1.5699925422668457 3.1398611068725586 0.0 0.0 -0.0 0.0 -0.0 -0.0 0.0 0.0 0.0 0.0 0.0 0.0 -3.7133183958502065e-19 -2.7096221284372066 -2.718294745055638 -0.29474437247957114 -2.2912142497276654e-06 0.01021598857380498 -3.700805233381633e-18 -27.27667410975088 -27.231130232922336 -2.379851253757093 -1.8306532396319407e-05 0.08167521635125981 -1.0792409078419496e-05 -1.5698772233775635 1.5701053778277796 6.215154614253038e-05 1.5700044631958008 3.1398491859436035 0.0 0.0 -0.0 0.0 -0.0 -0.0 0.002885184483602643 -2.7172980308532715 -2.726992607116699 -0.31029677391052246 -0.011774683371186256 0.017889801412820816 -3.7133183958502065e-19 -2.7096221284372066 -2.718294745055638 -0.29474437247957114 -2.2912142497276654e-06 0.01021598857380498 -0.6053284040599842 -0.13306714936204664 0.4528168565864672 -1.210061254001623 -1.209508468130632 1.2084145283772978 0.0 0.0 0.0 0.0 0.0 0.0 8.745857858705083 6.799932443180213 5.626057031801821 -0.297868293015165 -0.5359059809888045 0.3377858526942265 -0.6053562298277805 -0.13303368419479825 0.45283639400740516 -1.2100402726336712 -1.2094148208595223 1.208421435741711 0.0 0.0 0.0 0.0 0.0 0.0 0 33.125 34.125 33.0625 36.1875 38.375 39.0 0.884486 7 253 253 253 253 253 253 1 -0.24899697303771973 -9.519346237182617 0.07661445438861847 1.0 1.0 0.07978644423192288 47.76032257080078 47.837345123291016 0.6769921779632568 47.6995964050293 47.71392822265625 47.7282600402832 47.670928955078125 47.584930419921875 47.65659713745117 0 2
24575.961 -4.7032033101856996e-05 -1.5698412221721192 1.5700939337359827 -9.850864746141497e-06 1.5699806213378906 3.1398730278015137 0.0 0.0 -0.0 0.0 -0.0 -0.0 0.0 0.0 0.0 0.0 0.0 0.0 1.5547204471109123e-19 -2.709671244803628 -2.7182866398547185 -0.2947343422501572 -2.5414707689244733e-06 0.010215842619881723 1.5494813408792319e-18 -27.277168544419926 -27.23104903724545 -2.3797702667857545 -2.0306052553201738e-05 0.08167404947267795 -2.3190175191700746e-05 -1.5698531431010743 1.5700824896441858 -2.177179370121962e-05 1.5699806213378906 3.1398372650146484 0.0 0.0 -0.0 0.0 -0.0 -0.0 -0.0011057283263653517 -2.710784435272217 -2.720498561859131 -0.2986764907836914 -0.0026665288023650646 0.012974243611097336 1.5547204471109123e-19 -2.709671244803628 -2.7182866398547185 -0.2947343422501572 -2.5414707689244733e-06 0.010215842619881723 -0.6053514250872495 -0.13306424635650677 0.4528339595691086 -1.2099860902007182 -1.2094615607271302 1.2084531608402027 0.0 0.0 0.0 0.0 0.0 0.0 8.841931312571493 6.397710731762448 5.329147932707159 -0.29049447376857945 -0.5253684167533207 0.329512414818433 -0.6053549125674196 -0.13305107046867837 0.4528172943642368 -1.2100496956709552 -1.2094530536850907 1.2084452758696145 0.0 0.0 0.0 0.0 0.0 0.0 0 33.125 34.125 33.0625 36.1875 38.375 39.0 0.864445 7 253 253 253 253 253 253 1 -0.19153612852096558 -9.442731857299805 -0.09576806426048279 1.0 1.0 0.12267715399375881 47.80420684814453 47.86421203613281 0.5874739289283752 47.7282600402832 47.7282600402832 47.75692367553711 47.670928955078125 47.570594787597656 47.6995964050293 0 2
24575.968999999997 -2.3190175191700746e-05 -1.5698892635158082 1.5700338522540491 -9.850864746141497e-06 1.5700044631958008 3.139885425567627 0.0 0.0 -0.0 0.0 -0.0 -0.0 0.0 0.0 0.0 0.0 0.0 0.0 -6.997769170554205e-19 -2.7094770866464737 -2.7183231030625623 -0.29477951584127093 -1.4089630229701002e-06 0.010215692490234102 -6.974188046283641e-18 -27.275214032488957 -27.23141431564777 -2.38013501141699 -1.1257448851971855e-05 0.0816728492098388 -3.511110414677887e-05 -1.5698412221721192 1.5700939337359827 3.7832851074171e-05 1.5699925422668457 3.1398491859436035 0.0 0.0 -0.0 0.0 -0.0 -0.0 0.0023552225902676582 -2.6839098930358887 -2.7145421504974365 -0.2899791896343231 -0.00884331576526165 0.016658861190080643 -6.997769170554205e-19 -2.7094770866464737 -2.7183231030625623 -0.29477951584127093 -1.4089630229701002e-06 0.010215692490234102 -0.6053469056665451 -0.13305494442603585 0.4528071527901516 -1.2100672645654527 -1.2094994857506973 1.208405238243654 0.0 0.0 0.0 0.0 0.0 0.0 8.792465651981294 6.302760577405963 5.173784706386944 -0.2890510097500907 -0.5234492248187859 0.3289149268409443 -0.6053458837313583 -0.13306084372632204 0.4528827199390221 -1.2099792055254266 -1.2093676240651468 1.2085054691889379 0.0 0.0 0.0 0.0 0.0 0.0 0 33.125 34.125 33.0625 36.1875 38.375 39.0 0.871789 7 253 253 253 253 253 253 1 -0.2106897532939911 -9.366117477416992 -0.09576806426048279 1.0 1.0 0.23406659074139863 47.762115478515625 47.826595306396484 0.6478998064994812 47.6995964050293 47.68526077270508 47.71392822265625 47.64226531982422 47.584930419921875 47.670928955078125 0 2
24575.977 -4.7032033101856996e-05 -1.5698772233775635 1.5700824896441858 2.0700642089366283e-06 1.5699925422668457 3.139897346496582 0.0 0.0 -0.0 0.0 -0.0 -0.0 0.0 0.0 0.0 0.0 0.0 0.0 -1.1848667144121848e-19 -2.7095105203925347 -2.718298664119532 -0.29474922724954233 -2.168902041669546e-06 0.010215545999736706 -1.1808739434939642e-18 -27.275550596538242 -27.23116949302814 -2.3798904525730213 -1.7329272238502445e-05 0.08167167804143138 -3.511110414677887e-05 -1.5698412221721192 1.5700576941119593 1.3990993164014753e-05 1.5699925422668457 3.1398611068725586 0.0 0.0 -0.0 0.0 -0.0 -0.0 -0.009859376586973667 -2.7261667251586914 -2.7259151935577393 -0.3043646812438965 -0.01077396422624588 0.014438658952713013 -1.1848667144121848e-19 -2.7095105203925347 -2.718298664119532 -0.29474922724954233 -2.168902041669546e-06 0.010215545999736706 -0.6053549963827003 -0.13305533300550193 0.45283414243200576 -1.2100317783060452 -1.2094496053409667 1.208442353424866 0.0 0.0 0.0 0.0 0.0 0.0 8.755240056721771 7.085753100478121 4.89469779563057 -0.286143341433475 -0.5155659611077272 0.3463440720981743 -0.6053443983242469 -0.13304938663105337 0.45284348305302713 -1.2100470984762517 -1.2094066290887022 1.2084712113797147 0.0 0.0 0.0 0.0 0.0 0.0 0 33.125 34.125 33.0625 36.1875 38.375 39.0 0.878533 7 253 253 253 253 253 253 1 -0.26815059781074524 -9.53849983215332 0.05746084079146385 1.0 1.0 0.09455040316120825 47.78361129760742 47.84988021850586 0.6008995771408081 47.7282600402832 47.7282600402832 47.75692367553711 47.68526077270508 47.584930419921875 47.68526077270508 0 2
24575.985 -5.895296205693512e-05 -1.5698531431010743 1.5700700918780726 1.3990993164014753e-05 1.5700044631958008 3.1398611068725586 0.0 0.0 -0.0 0.0 -0.0 -0.0 0.0 0.0 0.0 0.0 0.0 0.0 -3.796067980144853e-19 -2.7096182543066605 -2.7182908520250675 -0.29473954241825356 -2.4151086411492157e-06 0.010215988462984186 -3.783275967633783e-18 -27.276635110439766 -27.231091233611224 -2.379812254445976 -1.9296434013136986e-05 0.08167521546526504 -2.3190175191700746e-05 -1.5698291820338746 1.5700700918780726 2.591192211909288e-05 1.5699925422668457 3.1398611068725586 0.0 0.0 -0.0 0.0 -0.0 -0.0 -0.04521271586418152 -2.704817056655884 -2.7177820205688477 -0.3005215525627136 0.011821706779301167 0.01870838738977909 -3.796067980144853e-19 -2.7096182543066605 -2.7182908520250675 -0.29473954241825356 -2.4151086411492157e-06 0.010215988462984186 -0.6053536308743013 -0.1330625599740659 0.4528168200207353 -1.210052920571434 -1.2094851617336824 1.2084339612947241 0.0 0.0 0.0 0.0 0.0 0.0 8.77373900982061 7.068954179994035 5.238771732368348 -0.2863299050769897 -0.5227235002943167 0.3442025683421267 -0.6053530401494966 -0.13303837278736286 0.452833856641518 -1.2100490650734956 -1.2094236200625466 1.2084158056710324 0.0 0.0 0.0 0.0 0.0 0.0 0 33.125 34.125 33.0625 36.1875 38.375 39.0 0.868057 7 253 253 253 253 253 253 1 -0.19153612852096558 -9.423578262329102 0.038307227194309235 1.0 1.0 0.03232371877767648 47.777339935302734 47.8785400390625 0.6389458775520325 47.7282600402832 47.71392822265625 47.742591857910156 47.670928955078125 47.584930419921875 47.68526077270508 0 2
24575.993 -4.7032033101856996e-05 -1.5698412221721192 1.5700939337359827 2.0700642089366283e-06 1.5700044631958008 3.1398372650146484 0.0 0.0 -0.0 0.0 -0.0 -0.0 0.0 0.0 0.0 0.0 0.0 0.0 2.060461412024528e-19 -2.7096674692587297 -2.7182828458907493 -0.29472963510021927 -2.6645275155298894e-06 0.010216279425242412 2.0535180568741314e-18 -27.277130537530812 -27.23101103035634 -2.3797322598966417 -2.1289261486449896e-05 0.08167754166259965 -4.7032033101856996e-05 -1.5698772233775635 1.5700939337359827 1.3990993164014753e-05 1.5700044631958008 3.139897346496582 0.0 0.0 -0.0 0.0 -0.0 -0.0 -0.003531615249812603 -2.7193617820739746 -2.731887102127075 -0.2831621766090393 0.006656141486018896 0.013278561644256115 2.060461412024528e-19 -2.7096674692587297 -2.7182828458907493 -0.29472963510021927 -2.6645275155298894e-06 0.010216279425242412 -0.6053412539532185 -0.13304686386181544 0.4528340231860998 -1.2100699628253422 -1.2094150679280298 1.208451404705435 0.0 0.0 0.0 0.0 0.0 0.0 8.661701850907246 6.683392432323592 5.541042164932369 -0.29239884117711223 -0.5337398624140997 0.3363045949387808 -0.6053533098842734 -0.1330447625923249 0.452814744463681 -1.210043435388421 -1.2094612294434974 1.2083957553538784 0.0 0.0 0.0 0.0 0.0 0.0 0 33.125 34.125 33.0625 36.1875 38.375 39.0 0.877513 7 253 253 253 253 253 253 1 -0.2106897532939911 -9.423578262329102 0.038307227194309235 1.0 1.0 0.059392531480726735 47.762115478515625 47.83107376098633 0.6098535060882568 47.71392822265625 47.68526077270508 47.71392822265625 47.64226531982422 47.584930419921875 47.65659713745117 0 2
24576.001 -3.511110414677887e-05 -1.5698412221721192 1.5700824896441858 1.3990993164014753e-05 1.5699806213378906 3.1398730278015137 0.0 0.0 -0.0 0.0 -0.0 -0.0 0.0 0.0 0.0 0.0 0.0 0.0 2.0823553878533407e-20 -2.7096671196881017 -2.7182824946147335 -0.2947291905743249 -2.6712162357416816e-06 0.010215842464795552 2.0753382542526677e-19 -27.27712701854416 -27.231007511369686 -2.379728670666089 -2.134270357431298e-05 0.08167404823278848 -3.511110414677887e-05 -1.569865183239319 1.5700576941119593 1.3990993164014753e-05 1.5700163841247559 3.1398730278015137 0.0 0.0 -0.0 0.0 -0.0 -0.0 0.02365811914205551 -2.6844162940979004 -2.714905261993408 -0.2968623638153076 -0.00939236395061016 0.01768661104142666 2.0823553878533407e-20 -2.7096671196881017 -2.7182824946147335 -0.2947291905743249 -2.6712162357416816e-06 0.010215842464795552 -0.6053480434681782 -0.13305068262796935 0.45284864444150835 -1.2100342200020213 -1.2094087870702632 1.2084448945973454 0.0 0.0 0.0 0.0 0.0 0.0 8.699393793678324 6.624505449387419 5.1991593823131215 -0.2970035545588137 -0.5230125644234062 0.33464252505967634 -0.6053516563756517 -0.1330582928445279 0.4528191508868257 -1.2100531822708858 -1.2094709795817973 1.2084482150430482 0.0 0.0 0.0 0.0 0.0 0.0 0 33.125 34.125 33.0625 36.1875 38.375 39.0 0.868225 7 253 253 253 253 253 253 1 -0.28730422258377075 -9.404424667358398 0.038307227194309235 1.0 1.0 0.12835082768526657 47.78450393676758 47.870479583740234 0.7172743082046509 47.68526077270508 47.68526077270508 47.7282600402832 47.65659713745117 47.584930419921875 47.64226531982422 0 2
24576.009 -7.087389101201325e-05 -1.5698531431010743 1.5700939337359827 2.591192211909288e-05 1.5700044631958008 3.1398611068725586 0.0 0.0 -0.0 0.0 -0.0 -0.0 0.0 0.0 0.0 0.0 0.0 0.0 -1.708550132393289e-19 -2.7096063213340584 -2.718278860837221 -0.29472468181309064 -2.7891255746112612e-06 0.01021598802612568 -1.7027926499710351e-18 -27.276514986013044 -27.2309711091845 -2.37969226562471 -2.228478532511438e-05 0.08167521197265024 -4.7032033101856996e-05 -1.5698172611049195 1.5701053778277796 1.3990993164014753e-05 1.570028305053711 3.1398611068725586 0.0 0.0 -0.0 0.0 -0.0 -0.0 0.024812132120132446 -2.7303600311279297 -2.707780361175537 -0.2939128279685974 -0.012093763798475266 -0.0007426941301673651 -1.708550132393289e-19 -2.7096063213340584 -2.718278860837221 -0.29472468181309064 -2.7891255746112612e-06 0.01021598802612568 -0.6053571226273652 -0.1330405367285443 0.45279077783239624 -1.2101071492149111 -1.2094672615289486 1.2083733710271287 0.0 0.0 0.0 0.0 0.0 0.0 8.5742941006596 6.609428504046809 5.091185147967753 -0.29194985755298086 -0.5206992537414973 0.33197140094405014 -0.6053498104910987 -0.1330311725906858 0.4528169019182198 -1.2100810532616302 -1.209441167320627 1.2083901600885432 0.0 0.0 0.0 0.0 0.0 0.0 0 33.125 34.125 33.0625 36.1875 38.375 39.0 0.906637 7 253 253 253 253 253 253 1 -0.2298433631658554 -9.481039047241211 0.0 1.0 1.0 0.11398664450597776 47.79793930053711 47.877647399902344 0.6814691424369812 47.71392822265625 47.7282600402832 47.75692367553711 47.68526077270508 47.61359786987305 47.6995964050293 0 2
24576.017 -4.7032033101856996e-05 -1.5698531431010743 1.5700824896441858 2.0700642089366283e-06 1.5699806213378906 3.1398611068725586 0.0 0.0 -0.0 0.0 -0.0 -0.0 0.0 0.0 0.0 0.0 0.0 0.0 -1.6401267893049487e-20 -2.709617890579612 -2.71829048652357 -0.29473909745749777 -2.4217394439772605e-06 0.010215988389844147 -1.6345998802721635e-19 -27.27663144894614 -27.2310875721176 -2.3798086617042262 -1.9349413347915317e-05 0.08167521488052198 -3.511110414677887e-05 -1.5698412221721192 1.5700824896441858 1.3990993164014753e-05 1.5699806213378906 3.1398730278015137 0.0 0.0 -0.0 0.0 -0.0 -0.0 -0.02074221521615982 -2.6997580528259277 -2.7147116661071777 -0.29457709193229675 0.003564076963812113 0.017721248790621758 -1.6401267893049487e-20 -2.709617890579612 -2.71829048652357 -0.29473909745749777 -2.4217394439772605e-06 0.010215988389844147 -0.6053516563756517 -0.1330582928445279 0.4528191508868257 -1.2100531822708858 -1.2094709795817973 1.2084482150430482 0.0 0.0 0.0 0.0 0.0 0.0 8.588657379540182 5.982812225558111 5.25445318507764 -0.2915640583857378 -0.5236842431683139 0.31894813309468617 -0.6053513870032544 -0.13305065581187275 0.45282889901799567 -1.210032484252112 -1.2094502778471916 1.2084419240835662 0.0 0.0 0.0 0.0 0.0 0.0 0 33.125 34.125 33.0625 36.1875 38.375 39.0 0.88643 7 253 253 253 253 253 253 1 -0.24899697303771973 -9.366117477416992 -0.05746084079146385 1.0 1.0 0.0911120897979461 47.77823257446289 47.85973358154297 0.5941867828369141 47.71392822265625 47.6995964050293 47.7282600402832 47.670928955078125 47.599266052246094 47.670928955078125 0 2
24576.024999999998 -4.7032033101856996e-05 -1.5698291820338746 1.5700939337359827 -9.850864746141497e-06 1.570028305053711 3.1398611068725586 0.0 0.0 -0.0 0.0 -0.0 -0.0 0.0 0.0 0.0 0.0 0.0 0.0 2.0899463618451645e-19 -2.709725373946631 -2.718282997274151 -0.29472983250870405 -2.6638892505353276e-06 0.010215988245974535 2.0829036481350777e-18 -27.2777134406909 -27.231012546873686 -2.3797338538298054 -2.128416182420671e-05 0.08167521373030713 -4.7032033101856996e-05 -1.5698531431010743 1.5701053778277796 1.3990993164014753e-05 1.5699806213378906 3.1398730278015137 0.0 0.0 -0.0 0.0 -0.0 -0.0 -0.0429590679705143 -2.715430974960327 -2.7535133361816406 -0.2965599298477173 0.00891914777457714 0.013683238998055458 2.0899463618451645e-19 -2.709725373946631 -2.718282997274151 -0.29472983250870405 -2.6638892505353276e-06 0.010215988245974535 -0.6053466999484933 -0.1330510870227823 0.45281252390611376 -1.2100669125672125 -1.2094702644441075 1.2084342799171943 0.0 0.0 0.0 0.0 0.0 0.0 8.472713405708403 6.551892820346538 5.41949027952494 -0.29368757915870597 -0.5297879207937601 0.32871790426026787 -0.6053584143773366 -0.13304052103196515 0.45280998402708794 -1.210072381239822 -1.2094324951634068 1.2083956518014765 0.0 0.0 0.0 0.0 0.0 0.0 0 33.125 34.125 33.0625 36.1875 38.375 39.0 0.95561 7 253 253 253 253 253 253 1 -0.28730422258377075 -9.423578262329102 -0.1149216815829277 1.0 1.0 0.02952916750883639 47.78450393676758 47.85973358154297 0.6232790946960449 47.7282600402832 47.71392822265625 47.77125930786133 47.670928955078125 47.61359786987305 47.6995964050293 0 2
24576.033 -1.0792409078419496e-05 -1.5698172611049195 1.5700576941119593 2.0700642089366283e-06 1.5700163841247559 3.1398611068725586 0.0 0.0 -0.0 0.0 -0.0 -0.0 0.0 0.0 0.0 0.0 0.0 0.0 -2.202610824292807e-19 -2.7097866045189734 -2.7182870653798727 -0.29473486087855616 -2.5351794502459653e-06 0.010215988358477715 -2.195188453205476e-18 -27.27832982418947 -27.231053300039584 -2.3797744543413475 -2.025578565685306e-05 0.0816752146297523 -5.895296205693512e-05 -1.5698052209666749 1.5700576941119593 3.7832851074171e-05 1.5699806213378906 3.1398491859436035 0.0 0.0 -0.0 0.0 -0.0 -0.0 0.023320378735661507 -2.7366137504577637 -2.684985399246216 -0.29669326543807983 -0.005624535493552685 0.012451771646738052 -2.202610824292807e-19 -2.7097866045189734 -2.7182870653798727 -0.29473486087855616 -2.5351794502459653e-06 0.010215988358477715 -0.6053654069680362 -0.13304302766369835 0.4528072798302184 -1.2100726848546492 -1.2094905222187544 1.20839653873507 0.0 0.0 0.0 0.0 0.0 0.0 8.498514498506117 6.346200098132919 5.3741866049935325 -0.2940320261918995 -0.526716581818283 0.32375092321467935 -0.6053603257434793 -0.1330649816039425 0.4528221584952559 -1.2100404394075632 -1.209458850068801 1.2084369592700046 0.0 0.0 0.0 0.0 0.0 0.0 0 33.125 34.125 33.0625 36.1875 38.375 39.0 0.884545 7 253 253 253 253 253 253 1 -0.325611412525177 -9.404424667358398 0.019153613597154617 1.0 1.0 0.14938307493359163 47.77017593383789 47.857940673828125 0.6299919486045837 47.71392822265625 47.6995964050293 47.742591857910156 47.68526077270508 47.599266052246094 47.6995964050293 0 2
24576.040999999997 -3.511110414677887e-05 -1.569865183239319 1.5701053778277796 3.7832851074171e-05 1.5699925422668457 3.1398611068725586 0.0 0.0 -0.0 0.0 -0.0 -0.0 0.0 0.0 0.0 0.0 0.0 0.0 -1.0813577334978693e-19 -2.709544694105738 -2.7182749687542307 -0.2947198524862397 -2.9085517791614717e-06 0.010215987844574842 -1.0777137677606385e-18 -27.275894609538575 -27.230932119365992 -2.379653272243889 -2.3238986654312536e-05 0.08167521052117993 7.152557373046875e-07 -1.5698172611049195 1.5700939337359827 1.3990993164014753e-05 1.5699806213378906 3.1398611068725586 0.0 0.0 -0.0 0.0 -0.0 -0.0 -0.036611348390579224 -2.712545871734619 -2.7329154014587402 -0.29260963201522827 0.011503659188747406 0.01207808032631874 -1.0813577334978693e-19 -2.709544694105738 -2.7182749687542307 -0.2947198524862397 -2.9085517791614717e-06 0.010215987844574842 -0.6053523035597324 -0.13307956919502242 0.45279771766923504 -1.21005353212984 -1.2095290839581894 1.2084490715381246 0.0 0.0 0.0 0.0 0.0 0.0 8.577443526248574 6.985787963619189 5.160759363550022 -0.286984495157327 -0.5239239144851674 0.3399855552031013 -0.6053384090317958 -0.13305536580678684 0.45281474092325097 -1.2100668395841252 -1.2094846233188283 1.2084199533611206 0.0 0.0 0.0 0.0 0.0 0.0 0 33.125 34.125 33.0625 36.1875 38.375 39.0 0.928105 7 253 253 253 253 253 253 1 -0.3447650372982025 -9.346963882446289 -0.07661445438861847 1.0 1.0 0.10425981729587179 47.75763702392578 47.84450912475586 0.6165663003921509 47.742591857910156 47.7282600402832 47.742591857910156 47.68526077270508 47.61359786987305 47.68526077270508 0 2
